; LightBurn 1.2.01
; GRBL device profile, current position
; Bounds: X0 Y0 to X85.6 Y54
G00 G17 G40 G21 G54
G91
M4
; Cut @ 3000 mm/min, 10% power
M8
G0 X85.6Y0
; Layer Lim
G1 X-85.6S0F3000
G1 Y54
G1 X85.6
G1 Y-54
; Scan @ 4000.002 mm/min, 40% power
M8
G0 X-18.841Y5.052
; Layer C01
G1 X1.666F4000S0
G1 X1.739S400
G1 X1.182S0
G1 X3.281S400
G1 X1.667S0
G1 X0.122Y0.06S0
G1 X-1.666S0
G1 X-3.672S400
G1 X-0.972S0
G1 X-1.836S400
G1 X-1.667S0
G1 X-0.07Y0.06S0
G1 X1.666S0
G1 X1.849S400
G1 X0.913S0
G1 X3.879S400
G1 X1.667S0
G1 X0.042Y0.06S0
G1 X-1.667S0
G1 X-4.039S400
G1 X-0.853S0
G1 X-1.856S400
G1 X-1.666S0
G1 X-0.035Y0.06S0
G1 X1.666S0
G1 X1.852S400
G1 X0.814S0
G1 X4.158S400
G1 X1.667S0
G1 X0.035Y0.06S0
G1 X-1.666S0
G1 X-1.511S400
G1 X-0.02S0
G1 X-2.728S400
G1 X-0.787S0
G1 X-1.848S400
G1 X-1.667S0
G1 X-0.02Y0.06S0
G1 X1.667S0
G1 X1.829S400
G1 X0.761S0
G1 X2.733S400
G1 X0.082S0
G1 X1.522S400
G1 X1.666S0
G1 X0.013Y0.06S0
G1 X-1.667S0
G1 X-1.533S400
G1 X-0.142S0
G1 X-2.734S400
G1 X-0.739S0
G1 X-1.802S400
G1 X-1.667S0
G1 X-0.011Y0.06S0
G1 X1.667S0
G1 X1.783S400
G1 X0.731S0
G1 X2.712S400
G1 X0.203S0
G1 X1.545S400
G1 X1.667S0
G1 Y0.06S0
G1 X-1.664S0
G1 X-1.547S400
G1 X-0.264S0
G1 X-2.689S400
G1 X-0.717S0
G1 X-1.764S400
G1 X-1.667S0
G1 Y0.06S0
G1 X1.667S0
G1 X1.74S400
G1 X0.704S0
G1 X2.667S400
G1 X0.324S0
G1 X1.546S400
G1 X1.667S0
G1 Y0.06S0
G1 X-1.667S0
G1 X-1.545S400
G1 X-0.385S0
G1 X-2.645S400
G1 X-0.689S0
G1 X-1.717S400
G1 X-1.667S0
G1 Y0.06S0
G1 X1.667S0
G1 X1.693S400
G1 X0.69S0
G1 X2.608S400
G1 X0.447S0
G1 X1.543S400
G1 X1.667S0
G1 Y0.06S0
G1 X-1.667S0
G1 X-1.542S400
G1 X-0.507S0
G1 X-2.566S400
G1 X-0.687S0
G1 X-1.679S400
G1 X-1.667S0
G1 Y0.06S0
G1 X1.667S0
G1 X1.668S400
G1 X0.68S0
G1 X2.524S400
G1 X0.568S0
G1 X1.541S400
G1 X1.667S0
G1 Y0.06S0
G1 X-1.667S0
G1 X-1.54S400
G1 X-0.629S0
G1 X-2.481S400
G1 X-0.673S0
G1 X-1.658S400
G1 X-1.667S0
G1 Y0.06S0
G1 X1.667S0
G1 X1.647S400
G1 X0.666S0
G1 X2.44S400
G1 X0.689S0
G1 X1.539S400
G1 X1.667S0
G1 Y0.06S0
G1 X-1.667S0
G1 X-1.538S400
G1 X-0.75S0
G1 X-2.393S400
G1 X-0.663S0
G1 X-1.637S400
G1 X-1.667S0
G1 Y0.06S0
G1 X1.667S0
G1 X1.629S400
G1 X0.662S0
G1 X2.342S400
G1 X0.811S0
G1 X1.537S400
G1 X1.667S0
G1 Y0.06S0
G1 X-1.667S0
G1 X-1.535S400
G1 X-0.872S0
G1 X-2.293S400
G1 X-0.658S0
G1 X-1.623S400
G1 X-1.667S0
G1 Y0.06S0
G1 X1.667S0
G1 X1.618S400
G1 X0.653S0
G1 X2.243S400
G1 X0.933S0
G1 X1.534S400
G1 X1.667S0
G1 Y0.06S0
G1 X-1.667S0
G1 X-1.533S400
G1 X-0.994S0
G1 X-2.193S400
G1 X-0.649S0
G1 X-1.612S400
G1 X-1.667S0
G1 Y0.06S0
G1 X1.667S0
G1 X1.606S400
G1 X0.645S0
G1 X2.144S400
G1 X1.054S0
G1 X1.532S400
G1 X1.667S0
G1 Y0.06S0
G1 X-1.667S0
G1 X-1.531S400
G1 X-1.115S0
G1 X-2.093S400
G1 X-0.641S0
G1 X-1.601S400
G1 X-1.667S0
G1 Y0.06S0
G1 X1.667S0
G1 X1.595S400
G1 X0.637S0
G1 X2.043S400
G1 X1.176S0
G1 X1.53S400
G1 X1.667S0
G1 Y0.06S0
G1 X-1.667S0
G1 X-1.528S400
G1 X-1.237S0
G1 X-1.994S400
G1 X-0.632S0
G1 X-1.59S400
G1 X-1.667S0
G1 Y0.06S0
G1 X1.667S0
G1 X1.584S400
G1 X0.628S0
G1 X1.944S400
G1 X1.298S0
G1 X1.527S400
G1 X1.667S0
G1 Y0.06S0
G1 X-1.667S0
G1 X-1.526S400
G1 X-1.359S0
G1 X-1.894S400
G1 X-0.623S0
G1 X-1.579S400
G1 X-1.667S0
G1 Y0.06S0
G1 X1.667S0
G1 X1.573S400
G1 X0.622S0
G1 X1.842S400
G1 X1.419S0
G1 X1.525S400
G1 X1.667S0
G1 Y0.06S0
G1 X-1.667S0
G1 X-1.524S400
G1 X-1.48S0
G1 X-1.788S400
G1 X-0.622S0
G1 X-1.567S400
G1 X-1.667S0
G1 Y0.06S0
G1 X1.667S0
G1 X1.562S400
G1 X0.621S0
G1 X1.734S400
G1 X0.879S0
G1 X0.058S400
G1 X0.604S0
G1 X1.523S400
G1 X1.667S0
G1 Y0.06S0
G1 X-1.667S0
G1 X-1.521S400
G1 X-0.605S0
G1 X-0.119S400
G1 X-0.878S0
G1 X-1.681S400
G1 X-0.621S0
G1 X-1.556S400
G1 X-1.667S0
G1 Y0.06S0
G1 X1.667S0
G1 X1.551S400
G1 X0.619S0
G1 X1.628S400
G1 X0.878S0
G1 X0.18S400
G1 X0.605S0
G1 X1.52S400
G1 X1.667S0
G1 Y0.06S0
G1 X-1.667S0
G1 X-1.519S400
G1 X-0.606S0
G1 X-0.24S400
G1 X-0.878S0
G1 X-1.574S400
G1 X-0.616S0
G1 X-1.548S400
G1 X-1.667S0
G1 Y0.06S0
G1 X1.667S0
G1 X1.546S400
G1 X0.612S0
G1 X1.521S400
G1 X0.877S0
G1 X0.301S400
G1 X0.606S0
G1 X1.518S400
G1 X1.667S0
G1 Y0.06S0
G1 X-1.667S0
G1 X-1.518S400
G1 X-0.605S0
G1 X-0.362S400
G1 X-0.877S0
G1 X-1.467S400
G1 X-0.607S0
G1 X-1.545S400
G1 X-1.667S0
G1 Y0.06S0
G1 X1.667S0
G1 X1.543S400
G1 X0.602S0
G1 X1.414S400
G1 X0.877S0
G1 X0.422S400
G1 X0.605S0
G1 X1.518S400
G1 X1.667S0
G1 Y0.06S0
G1 X-1.667S0
G1 X-1.518S400
G1 X-0.604S0
G1 X-0.483S400
G1 X-0.876S0
G1 X-1.361S400
G1 X-0.597S0
G1 X-1.542S400
G1 X-1.667S0
G1 Y0.06S0
G1 X1.667S0
G1 X1.54S400
G1 X0.593S0
G1 X1.307S400
G1 X0.876S0
G1 X0.544S400
G1 X0.603S0
G1 X1.518S400
G1 X1.667S0
G1 Y0.06S0
G1 X-1.667S0
G1 X-1.519S400
G1 X-0.601S0
G1 X-0.605S400
G1 X-0.876S0
G1 X-1.251S400
G1 X-0.59S0
G1 X-1.539S400
G1 X-1.667S0
G1 Y0.06S0
G1 X1.667S0
G1 X1.537S400
G1 X0.59S0
G1 X1.194S400
G1 X0.875S0
G1 X0.665S400
G1 X0.601S0
G1 X1.519S400
G1 X1.667S0
G1 Y0.06S0
G1 X-1.667S0
G1 X-1.519S400
G1 X-0.6S0
G1 X-0.726S400
G1 X-0.875S0
G1 X-1.137S400
G1 X-0.588S0
G1 X-1.536S400
G1 X-1.667S0
G1 Y0.06S0
G1 X1.667S0
G1 X1.534S400
G1 X0.587S0
G1 X1.08S400
G1 X0.875S0
G1 X0.787S400
G1 X0.599S0
G1 X1.519S400
G1 X1.667S0
G1 Y0.06S0
G1 X-1.667S0
G1 X-1.519S400
G1 X-0.599S0
G1 X-0.847S400
G1 X-0.874S0
G1 X-1.023S400
G1 X-0.587S0
G1 X-1.532S400
G1 X-1.667S0
G1 Y0.06S0
G1 X1.667S0
G1 X1.531S400
G1 X0.585S0
G1 X0.966S400
G1 X0.874S0
G1 X0.908S400
G1 X0.597S0
G1 X1.52S400
G1 X1.667S0
G1 Y0.06S0
G1 X-1.667S0
G1 X-1.52S400
G1 X-0.596S0
G1 X-0.969S400
G1 X-0.873S0
G1 X-0.91S400
G1 X-0.584S0
G1 X-1.529S400
G1 X-1.667S0
G1 Y0.06S0
G1 X1.667S0
G1 X1.528S400
G1 X0.583S0
G1 X0.852S400
G1 X0.873S0
G1 X1.029S400
G1 X0.596S0
G1 X1.52S400
G1 X1.667S0
G1 Y0.06S0
G1 X-1.667S0
G1 X-1.52S400
G1 X-0.595S0
G1 X-1.09S400
G1 X-0.873S0
G1 X-0.795S400
G1 X-0.582S0
G1 X-1.526S400
G1 X-1.667S0
G1 Y0.06S0
G1 X1.667S0
G1 X1.526S400
G1 X0.579S0
G1 X0.739S400
G1 X0.872S0
G1 X1.151S400
G1 X0.594S0
G1 X1.52S400
G1 X1.667S0
G1 Y0.06S0
G1 X-1.667S0
G1 X-1.52S400
G1 X-0.593S0
G1 X-0.507S400
G1 X-0.015S0
G1 X-0.69S400
G1 X-0.872S0
G1 X-0.681S400
G1 X-0.578S0
G1 X-1.525S400
G1 X-1.667S0
G1 Y0.06S0
G1 X1.667S0
G1 X1.525S400
G1 X0.578S0
G1 X0.621S400
G1 X0.872S0
G1 X0.69S400
G1 X0.075S0
G1 X0.507S400
G1 X0.592S0
G1 X1.521S400
G1 X1.667S0
G1 Y0.06S0
G1 X-1.667S0
G1 X-1.521S400
G1 X-0.591S0
G1 X-0.508S400
G1 X-0.135S0
G1 X-0.69S400
G1 X-0.871S0
G1 X-0.562S400
G1 X-0.578S0
G1 X-1.525S400
G1 X-1.667S0
G1 Y0.06S0
G1 X1.667S0
G1 X1.525S400
G1 X0.579S0
G1 X0.516S400
G1 X0.856S0
G1 X0.69S400
G1 X0.195S0
G1 X0.509S400
G1 X0.59S0
G1 X1.521S400
G1 X1.667S0
G1 Y0.06S0
G1 X-1.667S0
G1 X-1.521S400
G1 X-0.59S0
G1 X-0.509S400
G1 X-0.255S0
G1 X-0.69S400
G1 X-0.796S0
G1 X-0.515S400
G1 X-0.581S0
G1 X-1.524S400
G1 X-1.667S0
G1 Y0.06S0
G1 X1.667S0
G1 X1.524S400
G1 X0.582S0
G1 X0.514S400
G1 X0.736S0
G1 X0.69S400
G1 X0.315S0
G1 X0.51S400
G1 X0.589S0
G1 X1.521S400
G1 X1.667S0
G1 Y0.06S0
G1 X-1.667S0
G1 X-1.522S400
G1 X-0.587S0
G1 X-0.511S400
G1 X-0.375S0
G1 X-0.69S400
G1 X-0.676S0
G1 X-0.513S400
G1 X-0.583S0
G1 X-1.524S400
G1 X-1.667S0
G1 Y0.06S0
G1 X1.667S0
G1 X1.523S400
G1 X0.585S0
G1 X0.512S400
G1 X0.616S0
G1 X0.69S400
G1 X0.435S0
G1 X0.511S400
G1 X0.587S0
G1 X1.522S400
G1 X1.667S0
G1 Y0.06S0
G1 X-1.667S0
G1 X-1.522S400
G1 X-0.586S0
G1 X-0.512S400
G1 X-0.495S0
G1 X-0.69S400
G1 X-0.556S0
G1 X-0.512S400
G1 X-0.585S0
G1 X-1.523S400
G1 X-1.667S0
G1 Y0.06S0
G1 X1.667S0
G1 X1.523S400
G1 X0.586S0
G1 X0.511S400
G1 X0.496S0
G1 X0.69S400
G1 X0.555S0
G1 X0.513S400
G1 X0.585S0
G1 X1.522S400
G1 X1.667S0
G1 Y0.06S0
G1 X-1.667S0
G1 X-1.522S400
G1 X-0.584S0
G1 X-0.514S400
G1 X-0.615S0
G1 X-0.69S400
G1 X-0.436S0
G1 X-0.51S400
G1 X-0.588S0
G1 X-1.522S400
G1 X-1.667S0
G1 Y0.06S0
G1 X1.667S0
G1 X1.522S400
G1 X0.589S0
G1 X0.509S400
G1 X0.376S0
G1 X0.69S400
G1 X0.675S0
G1 X0.514S400
G1 X0.584S0
G1 X1.522S400
G1 X1.667S0
G1 Y0.06S0
G1 X-1.667S0
G1 X-1.523S400
G1 X-0.582S0
G1 X-0.515S400
G1 X-0.735S0
G1 X-0.69S400
G1 X-0.316S0
G1 X-0.508S400
G1 X-0.59S0
G1 X-1.522S400
G1 X-1.667S0
G1 Y0.06S0
G1 X1.667S0
G1 X1.522S400
G1 X0.59S0
G1 X0.508S400
G1 X0.256S0
G1 X0.69S400
G1 X0.795S0
G1 X0.516S400
G1 X0.581S0
G1 X1.523S400
G1 X1.667S0
G1 Y0.06S0
G1 X-1.667S0
G1 X-1.523S400
G1 X-0.581S0
G1 X-0.516S400
G1 X-0.855S0
G1 X-0.69S400
G1 X-0.196S0
G1 X-0.507S400
G1 X-0.592S0
G1 X-1.521S400
G1 X-1.667S0
G1 Y0.06S0
G1 X1.667S0
G1 X1.521S400
G1 X0.592S0
G1 X0.507S400
G1 X0.136S0
G1 X0.69S400
G1 X0.87S0
G1 X0.562S400
G1 X0.58S0
G1 X1.523S400
G1 X1.667S0
G1 Y0.06S0
G1 X-1.667S0
G1 X-1.525S400
G1 X-0.577S0
G1 X-0.623S400
G1 X-0.87S0
G1 X-0.69S400
G1 X-0.076S0
G1 X-0.506S400
G1 X-0.593S0
G1 X-1.521S400
G1 X-1.667S0
G1 Y0.06S0
G1 X1.667S0
G1 X1.52S400
G1 X0.595S0
G1 X0.505S400
G1 X0.016S0
G1 X0.69S400
G1 X0.871S0
G1 X0.682S400
G1 X0.576S0
G1 X1.526S400
G1 X1.667S0
G1 Y0.06S0
G1 X-1.667S0
G1 X-1.527S400
G1 X-0.578S0
G1 X-0.739S400
G1 X-0.871S0
G1 X-1.151S400
G1 X-0.595S0
G1 X-1.52S400
G1 X-1.667S0
G1 Y0.06S0
G1 X1.667S0
G1 X1.52S400
G1 X0.596S0
G1 X1.09S400
G1 X0.871S0
G1 X0.796S400
G1 X0.58S0
G1 X1.528S400
G1 X1.667S0
G1 Y0.06S0
G1 X-1.667S0
G1 X-1.529S400
G1 X-0.581S0
G1 X-0.853S400
G1 X-0.872S0
G1 X-1.03S400
G1 X-0.596S0
G1 X-1.52S400
G1 X-1.667S0
G1 Y0.06S0
G1 X1.667S0
G1 X1.519S400
G1 X0.598S0
G1 X0.969S400
G1 X0.872S0
G1 X0.91S400
G1 X0.583S0
G1 X1.53S400
G1 X1.667S0
G1 Y0.06S0
G1 X-1.667S0
G1 X-1.532S400
G1 X-0.584S0
G1 X-0.966S400
G1 X-0.873S0
G1 X-0.908S400
G1 X-0.599S0
G1 X-1.519S400
G1 X-1.667S0
G1 Y0.06S0
G1 X1.667S0
G1 X1.519S400
G1 X0.599S0
G1 X0.848S400
G1 X0.873S0
G1 X1.023S400
G1 X0.586S0
G1 X1.533S400
G1 X1.667S0
G1 Y0.06S0
G1 X-1.667S0
G1 X-1.534S400
G1 X-0.587S0
G1 X-1.081S400
G1 X-0.873S0
G1 X-0.787S400
G1 X-0.601S0
G1 X-1.518S400
G1 X-1.667S0
G1 Y0.06S0
G1 X1.667S0
G1 X1.518S400
G1 X0.601S0
G1 X0.727S400
G1 X0.874S0
G1 X1.137S400
G1 X0.589S0
G1 X1.535S400
G1 X1.667S0
G1 Y0.06S0
G1 X-1.667S0
G1 X-1.536S400
G1 X-0.591S0
G1 X-1.194S400
G1 X-0.874S0
G1 X-0.666S400
G1 X-0.602S0
G1 X-1.518S400
G1 X-1.667S0
G1 Y0.06S0
G1 X1.667S0
G1 X1.517S400
G1 X0.604S0
G1 X0.605S400
G1 X0.874S0
G1 X1.252S400
G1 X0.592S0
G1 X1.537S400
G1 X1.667S0
G1 Y0.06S0
G1 X-1.667S0
G1 X-1.539S400
G1 X-0.594S0
G1 X-1.307S400
G1 X-0.875S0
G1 X-0.545S400
G1 X-0.604S0
G1 X-1.517S400
G1 X-1.667S0
G1 Y0.06S0
G1 X1.667S0
G1 X1.517S400
G1 X0.605S0
G1 X0.484S400
G1 X0.875S0
G1 X1.361S400
G1 X0.599S0
G1 X1.54S400
G1 X1.667S0
G1 Y0.06S0
G1 X-1.667S0
G1 X-1.541S400
G1 X-0.604S0
G1 X-1.415S400
G1 X-0.875S0
G1 X-0.423S400
G1 X-0.606S0
G1 X-1.517S400
G1 X-1.667S0
G1 Y0.06S0
G1 X1.667S0
G1 X1.518S400
G1 X0.605S0
G1 X0.363S400
G1 X0.876S0
G1 X1.467S400
G1 X0.61S0
G1 X1.542S400
G1 X1.667S0
G1 Y0.06S0
G1 X-1.667S0
G1 X-1.544S400
G1 X-0.614S0
G1 X-1.521S400
G1 X-0.876S0
G1 X-0.302S400
G1 X-0.605S0
G1 X-1.519S400
G1 X-1.667S0
G1 Y0.06S0
G1 X1.667S0
G1 X1.52S400
G1 X0.604S0
G1 X0.242S400
G1 X0.877S0
G1 X1.574S400
G1 X0.614S0
G1 X1.55S400
G1 X1.667S0
G1 Y0.06S0
G1 X-1.667S0
G1 X-1.555S400
G1 X-0.615S0
G1 X-1.628S400
G1 X-0.877S0
G1 X-0.181S400
G1 X-0.604S0
G1 X-1.521S400
G1 X-1.667S0
G1 Y0.06S0
G1 X1.667S0
G1 X1.523S400
G1 X0.603S0
G1 X0.12S400
G1 X0.877S0
G1 X1.682S400
G1 X0.616S0
G1 X1.56S400
G1 X1.667S0
G1 Y0.06S0
G1 X-1.667S0
G1 X-1.566S400
G1 X-0.617S0
G1 X-1.734S400
G1 X-0.878S0
G1 X-0.06S400
G1 X-0.602S0
G1 X-1.524S400
G1 X-1.667S0
G1 Y0.06S0
G1 X1.667S0
G1 X1.525S400
G1 X1.479S0
G1 X1.788S400
G1 X0.618S0
G1 X1.571S400
G1 X1.667S0
G1 Y0.06S0
G1 X-1.667S0
G1 X-1.576S400
G1 X-0.619S0
G1 X-1.842S400
G1 X-1.418S0
G1 X-1.526S400
G1 X-1.667S0
G1 Y0.06S0
G1 X1.667S0
G1 X1.527S400
G1 X1.358S0
G1 X1.894S400
G1 X0.621S0
G1 X1.581S400
G1 X1.667S0
G1 Y0.06S0
G1 X-1.667S0
G1 X-1.587S400
G1 X-0.625S0
G1 X-1.944S400
G1 X-1.297S0
G1 X-1.528S400
G1 X-1.667S0
G1 Y0.06S0
G1 X1.667S0
G1 X1.529S400
G1 X1.236S0
G1 X1.994S400
G1 X0.63S0
G1 X1.592S400
G1 X1.667S0
G1 Y0.06S0
G1 X-1.667S0
G1 X-1.597S400
G1 X-0.635S0
G1 X-2.043S400
G1 X-1.175S0
G1 X-1.531S400
G1 X-1.667S0
G1 Y0.06S0
G1 X1.667S0
G1 X1.532S400
G1 X1.114S0
G1 X2.093S400
G1 X0.64S0
G1 X1.602S400
G1 X1.667S0
G1 Y0.06S0
G1 X-1.667S0
G1 X-1.608S400
G1 X-0.643S0
G1 X-2.143S400
G1 X-1.054S0
G1 X-1.533S400
G1 X-1.667S0
G1 Y0.06S0
G1 X1.667S0
G1 X1.534S400
G1 X0.993S0
G1 X2.193S400
G1 X0.648S0
G1 X1.613S400
G1 X1.667S0
G1 Y0.06S0
G1 X-1.667S0
G1 X-1.618S400
G1 X-0.653S0
G1 X-2.243S400
G1 X-0.932S0
G1 X-1.535S400
G1 X-1.667S0
G1 Y0.06S0
G1 X1.667S0
G1 X1.536S400
G1 X0.872S0
G1 X2.292S400
G1 X0.658S0
G1 X1.623S400
G1 X1.667S0
G1 Y0.06S0
G1 X-1.667S0
G1 X-1.629S400
G1 X-0.662S0
G1 X-2.342S400
G1 X-0.811S0
G1 X-1.537S400
G1 X-1.667S0
G1 Y0.06S0
G1 X1.667S0
G1 X1.539S400
G1 X0.749S0
G1 X2.393S400
G1 X0.663S0
G1 X1.637S400
G1 X1.667S0
G1 Y0.06S0
G1 X-1.667S0
G1 X-1.647S400
G1 X-0.665S0
G1 X-2.44S400
G1 X-0.689S0
G1 X-1.54S400
G1 X-1.667S0
G1 Y0.06S0
G1 X1.667S0
G1 X1.541S400
G1 X0.628S0
G1 X2.485S400
G1 X0.67S0
G1 X1.657S400
G1 X1.667S0
G1 Y0.06S0
G1 X-1.667S0
G1 X-1.668S400
G1 X-0.674S0
G1 X-2.53S400
G1 X-0.567S0
G1 X-1.542S400
G1 X-1.667S0
G1 Y0.06S0
G1 X1.667S0
G1 X1.543S400
G1 X0.507S0
G1 X2.574S400
G1 X0.679S0
G1 X1.678S400
G1 X1.667S0
G1 Y0.06S0
G1 X-1.667S0
G1 X-1.692S400
G1 X-0.691S0
G1 X-2.608S400
G1 X-0.446S0
G1 X-1.544S400
G1 X-1.667S0
G1 Y0.06S0
G1 X1.667S0
G1 X1.545S400
G1 X0.386S0
G1 X2.64S400
G1 X0.694S0
G1 X1.716S400
G1 X1.667S0
G1 Y0.06S0
G1 X-1.667S0
G1 X-1.739S400
G1 X-0.698S0
G1 X-2.673S400
G1 X-0.325S0
G1 X-1.546S400
G1 X-1.667S0
G1 Y0.06S0
G1 X1.667S0
G1 X1.548S400
G1 X0.263S0
G1 X2.695S400
G1 X0.712S0
G1 X1.763S400
G1 X1.667S0
G1 X-0.009Y0.06S0
G1 X-1.666S0
G1 X-1.778S400
G1 X-0.729S0
G1 X-2.714S400
G1 X-0.203S0
G1 X-1.548S400
G1 X-1.667S0
G1 X0.007Y0.06S0
G1 X1.667S0
G1 X1.542S400
G1 X0.142S0
G1 X2.732S400
G1 X0.741S0
G1 X1.795S400
G1 X1.666S0
G1 X-0.013Y0.06S0
G1 X-1.667S0
G1 X-1.819S400
G1 X-0.759S0
G1 X-2.736S400
G1 X-0.081S0
G1 X-1.533S400
G1 X-1.666S0
G1 X0.02Y0.06S0
G1 X1.667S0
G1 X1.513S400
G1 X0.021S0
G1 X2.738S400
G1 X0.777S0
G1 X1.839S400
G1 X1.667S0
G1 X-0.041Y0.06S0
G1 X-1.666S0
G1 X-1.838S400
G1 X-0.81S0
G1 X-4.172S400
G1 X-1.667S0
G1 X0.035Y0.06S0
G1 X1.667S0
G1 X4.058S400
G1 X0.851S0
G1 X1.835S400
G1 X1.666S0
G1 X-0.059Y0.06S0
G1 X-1.667S0
G1 X-1.834S400
G1 X-0.895S0
G1 X-3.901S400
G1 X-1.667S0
G1 X0.072Y0.06S0
G1 X1.667S0
G1 X3.706S400
G1 X0.96S0
G1 X1.804S400
G1 X1.667S0
G1 X-0.179Y0.06S0
G1 X-1.666S0
G1 X-1.685S400
G1 X-1.107S0
G1 X-3.39S400
G1 X-1.667S0
; Image @ 4000.002 mm/min, 60% power
M8
G0 X-9.706Y27.078
; Layer C01
G1 X1.667S0
G1 X0.78S569.7
G1 X1.667S0
G1 X15.421Y0.06S0
G1 X-1.667S0
G1 X-0.48S569.7
G1 X-1.2S0
G1 X-0.36S569.7
G1 X-0.54S0
G1 X-1.38S569.7
G1 X-0.66S0
G1 X-1.38S569.7
G1 X-0.42S0
G1 X-1.32S569.7
G1 X-2.161S0
G1 X-0.24S569.7
G1 X-1.5S0
G1 X-0.36S569.7
G1 X-0.6S0
G1 X-1.38S569.7
G1 X-1.2S0
G1 X-1.32S569.7
G1 X-0.6S0
G1 X-0.42S569.7
G1 X-1.8S0
G1 X-0.3S569.7
G1 X-0.6S0
G1 X-1.38S569.7
G1 X-1.381S0
G1 X-5.4S532.3
G1 X-1.667S0
G1 Y0.06S0
G1 X1.667S0
G1 X5.4S532.3
G1 X1.381S0
G1 X1.44S569.7
G1 X0.54S0
G1 X0.3S569.7
G1 X1.8S0
G1 X0.42S569.7
G1 X0.54S0
G1 X1.5S569.7
G1 X1.08S0
G1 X1.44S569.7
G1 X0.54S0
G1 X0.36S569.7
G1 X1.44S0
G1 X0.3S569.7
G1 X2.161S0
G1 X1.38S569.7
G1 X0.36S0
G1 X1.38S569.7
G1 X0.66S0
G1 X1.38S569.7
G1 X0.54S0
G1 X0.36S569.7
G1 X1.14S0
G1 X0.48S569.7
G1 X1.667S0
G1 X-0.06Y0.06S0
G1 X-1.667S0
G1 X-0.48S569.7
G1 X-1.08S0
G1 X-0.36S569.7
G1 X-0.48S0
G1 X-1.44S569.7
G1 X-0.6S0
G1 X-1.44S569.7
G1 X-0.36S0
G1 X-1.38S569.7
G1 X-2.161S0
G1 X-0.36S569.7
G1 X-1.38S0
G1 X-0.36S569.7
G1 X-0.54S0
G1 X-1.44S569.7
G1 X-0.96S0
G1 X-1.62S569.7
G1 X-0.54S0
G1 X-0.42S569.7
G1 X-1.8S0
G1 X-0.3S569.7
G1 X-0.54S0
G1 X-1.44S569.7
G1 X-1.381S0
G1 X-5.4S532.3
G1 X-1.667S0
G1 Y0.06S0
G1 X1.667S0
G1 X5.4S532.3
G1 X1.381S0
G1 X1.5S569.7
G1 X0.48S0
G1 X0.3S569.7
G1 X1.8S0
G1 X0.42S569.7
G1 X0.54S0
G1 X1.68S569.7
G1 X0.9S0
G1 X1.5S569.7
G1 X0.48S0
G1 X0.36S569.7
G1 X1.38S0
G1 X0.36S569.7
G1 X2.161S0
G1 X1.44S569.7
G1 X0.3S0
G1 X1.44S569.7
G1 X0.6S0
G1 X1.44S569.7
G1 X0.48S0
G1 X0.36S569.7
G1 X1.02S0
G1 X0.54S569.7
G1 X1.667S0
G1 X-0.06Y0.06S0
G1 X-1.667S0
G1 X-0.48S569.7
G1 X-1.02S0
G1 X-0.36S569.7
G1 X-0.42S0
G1 X-1.5S569.7
G1 X-0.54S0
G1 X-1.5S569.7
G1 X-0.3S0
G1 X-1.44S569.7
G1 X-2.161S0
G1 X-0.42S569.7
G1 X-1.32S0
G1 X-0.36S569.7
G1 X-0.48S0
G1 X-1.5S569.7
G1 X-0.84S0
G1 X-0.72S569.7
G1 X-0.42S0
G1 X-0.6S569.7
G1 X-0.54S0
G1 X-0.42S569.7
G1 X-1.8S0
G1 X-0.3S569.7
G1 X-0.48S0
G1 X-1.5S569.7
G1 X-1.381S0
G1 X-5.4S532.3
G1 X-1.667S0
G1 Y0.06S0
G1 X1.667S0
G1 X5.4S532.3
G1 X1.381S0
G1 X0.42S569.7
G1 X1.56S0
G1 X0.3S569.7
G1 X1.8S0
G1 X0.42S569.7
G1 X0.54S0
G1 X0.42S569.7
G1 X0.78S0
G1 X0.6S569.7
G1 X0.78S0
G1 X0.42S569.7
G1 X1.56S0
G1 X0.36S569.7
G1 X1.26S0
G1 X0.48S569.7
G1 X2.161S0
G1 X0.42S569.7
G1 X1.32S0
G1 X0.36S569.7
G1 X1.68S0
G1 X0.36S569.7
G1 X1.56S0
G1 X0.36S569.7
G1 X0.96S0
G1 X0.48S569.7
G1 X1.667S0
G1 X-0.06Y0.06S0
G1 X-1.667S0
G1 X-0.48S569.7
G1 X-0.9S0
G1 X-0.36S569.7
G1 X-1.56S0
G1 X-0.36S569.7
G1 X-1.68S0
G1 X-0.36S569.7
G1 X-1.32S0
G1 X-0.42S569.7
G1 X-2.161S0
G1 X-0.54S569.7
G1 X-1.2S0
G1 X-0.36S569.7
G1 X-1.56S0
G1 X-0.42S569.7
G1 X-0.72S0
G1 X-0.54S569.7
G1 X-0.9S0
G1 X-0.42S569.7
G1 X-0.54S0
G1 X-0.42S569.7
G1 X-1.8S0
G1 X-0.3S569.7
G1 X-1.56S0
G1 X-0.42S569.7
G1 X-1.381S0
G1 X-5.4S532.3
G1 X-1.667S0
G1 Y0.06S0
G1 X1.667S0
G1 X5.4S532.3
G1 X1.381S0
G1 X0.42S569.7
G1 X1.56S0
G1 X0.3S569.7
G1 X1.8S0
G1 X0.42S569.7
G1 X0.54S0
G1 X0.42S569.7
G1 X0.96S0
G1 X0.54S569.7
G1 X0.66S0
G1 X0.42S569.7
G1 X1.56S0
G1 X0.36S569.7
G1 X1.14S0
G1 X0.6S569.7
G1 X2.161S0
G1 X0.42S569.7
G1 X1.32S0
G1 X0.36S569.7
G1 X1.68S0
G1 X0.36S569.7
G1 X1.56S0
G1 X0.36S569.7
G1 X0.9S0
G1 X0.48S569.7
G1 X1.667S0
G1 X-0.06Y0.06S0
G1 X-1.667S0
G1 X-0.48S569.7
G1 X-0.84S0
G1 X-0.36S569.7
G1 X-1.56S0
G1 X-0.36S569.7
G1 X-1.68S0
G1 X-0.36S569.7
G1 X-1.32S0
G1 X-0.42S569.7
G1 X-2.161S0
G1 X-0.6S569.7
G1 X-1.14S0
G1 X-0.36S569.7
G1 X-1.56S0
G1 X-0.42S569.7
G1 X-0.6S0
G1 X-0.54S569.7
G1 X-1.02S0
G1 X-0.42S569.7
G1 X-0.54S0
G1 X-0.42S569.7
G1 X-1.8S0
G1 X-0.3S569.7
G1 X-1.56S0
G1 X-0.42S569.7
G1 X-1.381S0
G1 X-5.4S532.3
G1 X-1.667S0
G1 Y0.06S0
G1 X1.667S0
G1 X5.4S532.3
G1 X1.381S0
G1 X0.42S569.7
G1 X1.56S0
G1 X0.3S569.7
G1 X1.8S0
G1 X0.42S569.7
G1 X0.54S0
G1 X0.42S569.7
G1 X1.08S0
G1 X0.48S569.7
G1 X0.6S0
G1 X0.42S569.7
G1 X1.56S0
G1 X0.36S569.7
G1 X1.08S0
G1 X0.66S569.7
G1 X2.161S0
G1 X0.42S569.7
G1 X1.32S0
G1 X0.36S569.7
G1 X1.68S0
G1 X0.36S569.7
G1 X1.56S0
G1 X0.36S569.7
G1 X0.78S0
G1 X0.48S569.7
G1 X1.667S0
G1 X-0.06Y0.06S0
G1 X-1.667S0
G1 X-0.48S569.7
G1 X-0.72S0
G1 X-0.36S569.7
G1 X-1.56S0
G1 X-0.36S569.7
G1 X-1.68S0
G1 X-0.36S569.7
G1 X-1.32S0
G1 X-0.42S569.7
G1 X-2.161S0
G1 X-0.72S569.7
G1 X-1.02S0
G1 X-0.36S569.7
G1 X-1.56S0
G1 X-0.42S569.7
G1 X-0.54S0
G1 X-0.48S569.7
G1 X-1.14S0
G1 X-0.42S569.7
G1 X-0.54S0
G1 X-0.42S569.7
G1 X-1.8S0
G1 X-0.3S569.7
G1 X-1.56S0
G1 X-0.42S569.7
G1 X-1.381S0
G1 X-5.4S532.3
G1 X-1.667S0
G1 Y0.06S0
G1 X1.667S0
G1 X5.4S532.3
G1 X1.381S0
G1 X0.42S569.7
G1 X1.56S0
G1 X0.3S569.7
G1 X1.8S0
G1 X0.42S569.7
G1 X0.54S0
G1 X0.42S569.7
G1 X1.2S0
G1 X0.42S569.7
G1 X0.54S0
G1 X0.42S569.7
G1 X1.56S0
G1 X0.36S569.7
G1 X0.96S0
G1 X0.78S569.7
G1 X2.161S0
G1 X0.42S569.7
G1 X1.32S0
G1 X0.36S569.7
G1 X1.68S0
G1 X0.36S569.7
G1 X1.56S0
G1 X0.36S569.7
G1 X0.72S0
G1 X0.48S569.7
G1 X1.667S0
G1 X-0.06Y0.06S0
G1 X-1.667S0
G1 X-0.48S569.7
G1 X-0.66S0
G1 X-0.36S569.7
G1 X-1.56S0
G1 X-0.36S569.7
G1 X-1.68S0
G1 X-0.36S569.7
G1 X-1.32S0
G1 X-0.42S569.7
G1 X-2.161S0
G1 X-0.84S569.7
G1 X-0.9S0
G1 X-0.36S569.7
G1 X-1.56S0
G1 X-0.42S569.7
G1 X-0.48S0
G1 X-0.48S569.7
G1 X-1.2S0
G1 X-0.42S569.7
G1 X-0.54S0
G1 X-0.42S569.7
G1 X-1.8S0
G1 X-0.3S569.7
G1 X-1.56S0
G1 X-0.42S569.7
G1 X-1.381S0
G1 X-5.4S532.3
G1 X-1.667S0
G1 Y0.06S0
G1 X1.667S0
G1 X5.4S532.3
G1 X1.381S0
G1 X0.42S569.7
G1 X1.56S0
G1 X0.3S569.7
G1 X0.84S0
G1 X0.06S569.7
G1 X0.9S0
G1 X0.42S569.7
G1 X0.54S0
G1 X0.42S569.7
G1 X1.26S0
G1 X0.42S569.7
G1 X0.48S0
G1 X0.42S569.7
G1 X1.56S0
G1 X0.36S569.7
G1 X0.9S0
G1 X0.84S569.7
G1 X2.161S0
G1 X0.42S569.7
G1 X1.32S0
G1 X0.36S569.7
G1 X1.68S0
G1 X0.36S569.7
G1 X1.56S0
G1 X0.36S569.7
G1 X0.6S0
G1 X0.48S569.7
G1 X1.667S0
G1 X-0.06Y0.06S0
G1 X-1.667S0
G1 X-0.48S569.7
G1 X-0.54S0
G1 X-0.36S569.7
G1 X-1.56S0
G1 X-0.36S569.7
G1 X-1.68S0
G1 X-0.36S569.7
G1 X-1.32S0
G1 X-0.42S569.7
G1 X-2.161S0
G1 X-0.36S569.7
G1 X-0.06S0
G1 X-0.48S569.7
G1 X-0.84S0
G1 X-0.36S569.7
G1 X-1.56S0
G1 X-0.42S569.7
G1 X-0.42S0
G1 X-0.48S569.7
G1 X-1.26S0
G1 X-0.42S569.7
G1 X-0.54S0
G1 X-0.42S569.7
G1 X-0.84S0
G1 X-0.18S569.7
G1 X-0.78S0
G1 X-0.3S569.7
G1 X-1.56S0
G1 X-0.42S569.7
G1 X-1.381S0
G1 X-5.4S532.3
G1 X-1.667S0
G1 Y0.06S0
G1 X1.667S0
G1 X5.4S532.3
G1 X1.381S0
G1 X0.42S569.7
G1 X1.56S0
G1 X0.3S569.7
G1 X0.78S0
G1 X0.24S569.7
G1 X0.78S0
G1 X0.42S569.7
G1 X0.54S0
G1 X0.42S569.7
G1 X1.26S0
G1 X0.48S569.7
G1 X0.42S0
G1 X0.42S569.7
G1 X1.56S0
G1 X0.36S569.7
G1 X0.78S0
G1 X0.54S569.7
G1 X0.06S0
G1 X0.36S569.7
G1 X2.161S0
G1 X0.42S569.7
G1 X1.32S0
G1 X0.36S569.7
G1 X1.68S0
G1 X0.36S569.7
G1 X1.56S0
G1 X0.36S569.7
G1 X0.54S0
G1 X0.48S569.7
G1 X1.667S0
G1 X-0.06Y0.06S0
G1 X-1.667S0
G1 X-0.48S569.7
G1 X-0.48S0
G1 X-0.36S569.7
G1 X-1.56S0
G1 X-0.36S569.7
G1 X-1.68S0
G1 X-0.36S569.7
G1 X-1.32S0
G1 X-0.42S569.7
G1 X-2.161S0
G1 X-0.36S569.7
G1 X-0.12S0
G1 X-0.54S569.7
G1 X-0.72S0
G1 X-0.36S569.7
G1 X-1.56S0
G1 X-0.42S569.7
G1 X-0.42S0
G1 X-0.42S569.7
G1 X-1.32S0
G1 X-0.42S569.7
G1 X-0.54S0
G1 X-0.42S569.7
G1 X-0.72S0
G1 X-0.36S569.7
G1 X-0.72S0
G1 X-0.3S569.7
G1 X-1.56S0
G1 X-0.42S569.7
G1 X-1.381S0
G1 X-5.4S532.3
G1 X-1.667S0
G1 Y0.06S0
G1 X1.667S0
G1 X5.4S532.3
G1 X1.381S0
G1 X0.42S569.7
G1 X1.56S0
G1 X0.3S569.7
G1 X0.66S0
G1 X0.42S569.7
G1 X0.72S0
G1 X0.42S569.7
G1 X0.54S0
G1 X0.42S569.7
G1 X1.32S0
G1 X0.42S569.7
G1 X0.42S0
G1 X0.42S569.7
G1 X1.56S0
G1 X0.36S569.7
G1 X0.66S0
G1 X0.54S569.7
G1 X0.18S0
G1 X0.36S569.7
G1 X0.721S0
G1 X0.66S569.7
G1 X0.78S0
G1 X0.42S569.7
G1 X1.32S0
G1 X0.36S569.7
G1 X1.68S0
G1 X0.36S569.7
G1 X1.56S0
G1 X0.36S569.7
G1 X0.42S0
G1 X0.48S569.7
G1 X1.667S0
G1 X-0.06Y0.06S0
G1 X-1.667S0
G1 X-1.2S569.7
G1 X-1.56S0
G1 X-0.36S569.7
G1 X-1.68S0
G1 X-0.36S569.7
G1 X-1.32S0
G1 X-0.42S569.7
G1 X-0.78S0
G1 X-0.66S569.7
G1 X-0.721S0
G1 X-0.36S569.7
G1 X-0.24S0
G1 X-0.48S569.7
G1 X-0.66S0
G1 X-0.36S569.7
G1 X-1.56S0
G1 X-0.42S569.7
G1 X-0.42S0
G1 X-0.42S569.7
G1 X-1.32S0
G1 X-0.42S569.7
G1 X-0.54S0
G1 X-0.42S569.7
G1 X-0.66S0
G1 X-0.48S569.7
G1 X-0.66S0
G1 X-0.3S569.7
G1 X-1.56S0
G1 X-0.42S569.7
G1 X-1.381S0
G1 X-5.4S532.3
G1 X-1.667S0
G1 Y0.06S0
G1 X1.667S0
G1 X5.4S532.3
G1 X1.381S0
G1 X0.42S569.7
G1 X1.56S0
G1 X0.3S569.7
G1 X0.6S0
G1 X0.6S569.7
G1 X0.6S0
G1 X0.42S569.7
G1 X0.54S0
G1 X0.42S569.7
G1 X1.32S0
G1 X0.48S569.7
G1 X0.36S0
G1 X0.42S569.7
G1 X1.56S0
G1 X0.36S569.7
G1 X0.6S0
G1 X0.48S569.7
G1 X0.3S0
G1 X0.36S569.7
G1 X0.721S0
G1 X0.66S569.7
G1 X0.78S0
G1 X0.42S569.7
G1 X1.32S0
G1 X0.36S569.7
G1 X1.68S0
G1 X0.36S569.7
G1 X1.56S0
G1 X1.2S569.7
G1 X1.667S0
G1 Y0.06S0
G1 X-1.667S0
G1 X-1.2S569.7
G1 X-0.78S0
G1 X-1.14S569.7
G1 X-0.9S0
G1 X-1.14S569.7
G1 X-1.32S0
G1 X-0.42S569.7
G1 X-0.78S0
G1 X-0.66S569.7
G1 X-0.721S0
G1 X-0.36S569.7
G1 X-0.3S0
G1 X-0.54S569.7
G1 X-0.54S0
G1 X-0.36S569.7
G1 X-0.84S0
G1 X-1.14S569.7
G1 X-0.36S0
G1 X-0.48S569.7
G1 X-1.32S0
G1 X-0.42S569.7
G1 X-0.54S0
G1 X-0.42S569.7
G1 X-0.54S0
G1 X-0.72S569.7
G1 X-0.54S0
G1 X-0.3S569.7
G1 X-0.84S0
G1 X-1.14S569.7
G1 X-1.381S0
G1 X-5.4S532.3
G1 X-1.667S0
G1 Y0.06S0
G1 X1.667S0
G1 X5.4S532.3
G1 X1.381S0
G1 X1.2S569.7
G1 X0.78S0
G1 X0.3S569.7
G1 X0.48S0
G1 X0.78S569.7
G1 X0.54S0
G1 X0.42S569.7
G1 X0.54S0
G1 X0.42S569.7
G1 X1.32S0
G1 X0.48S569.7
G1 X0.36S0
G1 X1.2S569.7
G1 X0.78S0
G1 X0.36S569.7
G1 X0.48S0
G1 X0.54S569.7
G1 X0.36S0
G1 X0.36S569.7
G1 X0.721S0
G1 X0.66S569.7
G1 X0.78S0
G1 X0.42S569.7
G1 X1.32S0
G1 X1.2S569.7
G1 X0.84S0
G1 X1.2S569.7
G1 X0.72S0
G1 X1.32S569.7
G1 X1.667S0
G1 X0.06Y0.06S0
G1 X-1.667S0
G1 X-1.38S569.7
G1 X-0.72S0
G1 X-1.2S569.7
G1 X-0.84S0
G1 X-1.2S569.7
G1 X-1.32S0
G1 X-0.42S569.7
G1 X-0.78S0
G1 X-0.66S569.7
G1 X-0.721S0
G1 X-0.36S569.7
G1 X-0.42S0
G1 X-0.54S569.7
G1 X-0.42S0
G1 X-0.36S569.7
G1 X-0.78S0
G1 X-1.2S569.7
G1 X-0.36S0
G1 X-0.48S569.7
G1 X-1.32S0
G1 X-0.42S569.7
G1 X-0.54S0
G1 X-0.42S569.7
G1 X-0.48S0
G1 X-0.84S569.7
G1 X-0.48S0
G1 X-0.3S569.7
G1 X-0.78S0
G1 X-1.2S569.7
G1 X-1.381S0
G1 X-5.4S532.3
G1 X-1.667S0
G1 Y0.06S0
G1 X1.667S0
G1 X5.4S532.3
G1 X1.381S0
G1 X1.26S569.7
G1 X0.72S0
G1 X0.3S569.7
G1 X0.42S0
G1 X0.48S569.7
G1 X0.06S0
G1 X0.42S569.7
G1 X0.42S0
G1 X0.42S569.7
G1 X0.54S0
G1 X0.42S569.7
G1 X1.32S0
G1 X0.48S569.7
G1 X0.36S0
G1 X1.26S569.7
G1 X0.72S0
G1 X0.36S569.7
G1 X0.42S0
G1 X0.48S569.7
G1 X0.48S0
G1 X0.36S569.7
G1 X0.721S0
G1 X0.66S569.7
G1 X0.78S0
G1 X0.42S569.7
G1 X1.32S0
G1 X1.2S569.7
G1 X0.84S0
G1 X1.2S569.7
G1 X0.72S0
G1 X0.36S569.7
G1 X0.6S0
G1 X0.48S569.7
G1 X1.667S0
G1 X0.06Y0.06S0
G1 X-1.667S0
G1 X-0.42S569.7
G1 X-0.72S0
G1 X-0.36S569.7
G1 X-0.66S0
G1 X-1.26S569.7
G1 X-0.78S0
G1 X-1.26S569.7
G1 X-1.32S0
G1 X-0.42S569.7
G1 X-0.78S0
G1 X-0.66S569.7
G1 X-0.721S0
G1 X-0.36S569.7
G1 X-0.54S0
G1 X-0.48S569.7
G1 X-0.36S0
G1 X-0.36S569.7
G1 X-0.72S0
G1 X-1.26S569.7
G1 X-0.36S0
G1 X-0.48S569.7
G1 X-1.32S0
G1 X-0.42S569.7
G1 X-0.54S0
G1 X-0.42S569.7
G1 X-0.36S0
G1 X-0.42S569.7
G1 X-0.12S0
G1 X-0.54S569.7
G1 X-0.36S0
G1 X-0.3S569.7
G1 X-0.72S0
G1 X-1.26S569.7
G1 X-1.381S0
G1 X-5.4S532.3
G1 X-1.667S0
G1 Y0.06S0
G1 X1.667S0
G1 X5.4S532.3
G1 X1.381S0
G1 X0.42S569.7
G1 X1.56S0
G1 X0.3S569.7
G1 X0.36S0
G1 X0.48S569.7
G1 X0.24S0
G1 X0.36S569.7
G1 X0.36S0
G1 X0.42S569.7
G1 X0.54S0
G1 X0.42S569.7
G1 X1.32S0
G1 X0.42S569.7
G1 X0.42S0
G1 X0.42S569.7
G1 X1.56S0
G1 X0.36S569.7
G1 X0.3S0
G1 X0.54S569.7
G1 X0.54S0
G1 X0.36S569.7
G1 X0.721S0
G1 X0.66S569.7
G1 X0.78S0
G1 X0.42S569.7
G1 X1.32S0
G1 X0.36S569.7
G1 X1.68S0
G1 X0.36S569.7
G1 X1.56S0
G1 X0.36S569.7
G1 X0.78S0
G1 X0.42S569.7
G1 X1.667S0
G1 Y0.06S0
G1 X-1.667S0
G1 X-0.42S569.7
G1 X-0.78S0
G1 X-0.36S569.7
G1 X-1.56S0
G1 X-0.36S569.7
G1 X-1.68S0
G1 X-0.36S569.7
G1 X-1.32S0
G1 X-0.42S569.7
G1 X-0.78S0
G1 X-0.66S569.7
G1 X-0.721S0
G1 X-0.36S569.7
G1 X-0.6S0
G1 X-0.54S569.7
G1 X-0.24S0
G1 X-0.36S569.7
G1 X-1.56S0
G1 X-0.42S569.7
G1 X-0.42S0
G1 X-0.42S569.7
G1 X-1.32S0
G1 X-0.42S569.7
G1 X-0.54S0
G1 X-0.42S569.7
G1 X-0.3S0
G1 X-0.36S569.7
G1 X-0.36S0
G1 X-0.48S569.7
G1 X-0.3S0
G1 X-0.3S569.7
G1 X-1.56S0
G1 X-0.42S569.7
G1 X-1.381S0
G1 X-5.4S532.3
G1 X-1.667S0
G1 Y0.06S0
G1 X1.667S0
G1 X5.4S532.3
G1 X1.381S0
G1 X0.42S569.7
G1 X1.56S0
G1 X0.3S569.7
G1 X0.24S0
G1 X0.48S569.7
G1 X0.42S0
G1 X0.42S569.7
G1 X0.24S0
G1 X0.42S569.7
G1 X0.54S0
G1 X0.42S569.7
G1 X1.32S0
G1 X0.42S569.7
G1 X0.42S0
G1 X0.42S569.7
G1 X1.56S0
G1 X0.36S569.7
G1 X0.18S0
G1 X0.54S569.7
G1 X0.66S0
G1 X0.36S569.7
G1 X0.721S0
G1 X0.66S569.7
G1 X0.78S0
G1 X0.42S569.7
G1 X1.32S0
G1 X0.36S569.7
G1 X1.68S0
G1 X0.36S569.7
G1 X1.56S0
G1 X0.36S569.7
G1 X0.84S0
G1 X0.42S569.7
G1 X1.667S0
G1 Y0.06S0
G1 X-1.667S0
G1 X-0.36S569.7
G1 X-0.9S0
G1 X-0.36S569.7
G1 X-1.56S0
G1 X-0.36S569.7
G1 X-1.68S0
G1 X-0.36S569.7
G1 X-1.32S0
G1 X-0.42S569.7
G1 X-2.161S0
G1 X-0.36S569.7
G1 X-0.72S0
G1 X-0.48S569.7
G1 X-0.18S0
G1 X-0.36S569.7
G1 X-1.56S0
G1 X-0.42S569.7
G1 X-0.42S0
G1 X-0.42S569.7
G1 X-1.32S0
G1 X-0.42S569.7
G1 X-0.54S0
G1 X-0.42S569.7
G1 X-0.18S0
G1 X-0.42S569.7
G1 X-0.48S0
G1 X-0.54S569.7
G1 X-0.18S0
G1 X-0.3S569.7
G1 X-1.56S0
G1 X-0.42S569.7
G1 X-1.381S0
G1 X-5.4S532.3
G1 X-1.667S0
G1 Y0.06S0
G1 X1.667S0
G1 X5.4S532.3
G1 X1.381S0
G1 X0.42S569.7
G1 X1.56S0
G1 X0.3S569.7
G1 X0.18S0
G1 X0.48S569.7
G1 X0.6S0
G1 X0.36S569.7
G1 X0.18S0
G1 X0.42S569.7
G1 X0.54S0
G1 X0.42S569.7
G1 X1.26S0
G1 X0.48S569.7
G1 X0.42S0
G1 X0.42S569.7
G1 X1.56S0
G1 X0.36S569.7
G1 X0.12S0
G1 X0.48S569.7
G1 X0.78S0
G1 X0.36S569.7
G1 X2.161S0
G1 X0.42S569.7
G1 X1.32S0
G1 X0.36S569.7
G1 X1.68S0
G1 X0.36S569.7
G1 X1.56S0
G1 X0.36S569.7
G1 X0.9S0
G1 X0.42S569.7
G1 X1.667S0
G1 Y0.06S0
G1 X-1.667S0
G1 X-0.42S569.7
G1 X-0.9S0
G1 X-0.36S569.7
G1 X-1.56S0
G1 X-0.36S569.7
G1 X-1.68S0
G1 X-0.36S569.7
G1 X-1.32S0
G1 X-0.42S569.7
G1 X-2.161S0
G1 X-0.36S569.7
G1 X-0.78S0
G1 X-0.54S569.7
G1 X-0.06S0
G1 X-0.36S569.7
G1 X-1.56S0
G1 X-0.42S569.7
G1 X-0.42S0
G1 X-0.48S569.7
G1 X-1.26S0
G1 X-0.42S569.7
G1 X-0.54S0
G1 X-0.42S569.7
G1 X-0.12S0
G1 X-0.36S569.7
G1 X-0.72S0
G1 X-0.48S569.7
G1 X-0.12S0
G1 X-0.3S569.7
G1 X-1.56S0
G1 X-0.42S569.7
G1 X-1.381S0
G1 X-5.4S532.3
G1 X-1.667S0
G1 Y0.06S0
G1 X1.667S0
G1 X5.4S532.3
G1 X1.381S0
G1 X0.42S569.7
G1 X1.56S0
G1 X0.3S569.7
G1 X0.06S0
G1 X0.54S569.7
G1 X0.78S0
G1 X0.36S569.7
G1 X0.06S0
G1 X0.42S569.7
G1 X0.54S0
G1 X0.42S569.7
G1 X1.2S0
G1 X0.48S569.7
G1 X0.48S0
G1 X0.42S569.7
G1 X1.56S0
G1 X0.9S569.7
G1 X0.84S0
G1 X0.36S569.7
G1 X2.161S0
G1 X0.42S569.7
G1 X1.32S0
G1 X0.36S569.7
G1 X1.68S0
G1 X0.36S569.7
G1 X1.56S0
G1 X0.36S569.7
G1 X0.9S0
G1 X0.42S569.7
G1 X1.667S0
G1 Y0.06S0
G1 X-1.667S0
G1 X-0.42S569.7
G1 X-0.9S0
G1 X-0.36S569.7
G1 X-1.56S0
G1 X-0.36S569.7
G1 X-1.68S0
G1 X-0.36S569.7
G1 X-1.32S0
G1 X-0.42S569.7
G1 X-2.161S0
G1 X-0.36S569.7
G1 X-0.9S0
G1 X-0.84S569.7
G1 X-1.56S0
G1 X-0.42S569.7
G1 X-0.48S0
G1 X-0.48S569.7
G1 X-1.2S0
G1 X-0.42S569.7
G1 X-0.54S0
G1 X-0.84S569.7
G1 X-0.84S0
G1 X-0.48S569.7
G1 X-0.06S0
G1 X-0.3S569.7
G1 X-1.56S0
G1 X-0.42S569.7
G1 X-1.381S0
G1 X-5.4S532.3
G1 X-1.667S0
G1 Y0.06S0
G1 X1.667S0
G1 X5.4S532.3
G1 X1.381S0
G1 X0.42S569.7
G1 X1.56S0
G1 X0.78S569.7
G1 X0.96S0
G1 X0.78S569.7
G1 X0.54S0
G1 X0.42S569.7
G1 X1.14S0
G1 X0.48S569.7
G1 X0.54S0
G1 X0.42S569.7
G1 X1.56S0
G1 X0.78S569.7
G1 X0.96S0
G1 X0.36S569.7
G1 X2.161S0
G1 X0.42S569.7
G1 X1.32S0
G1 X0.36S569.7
G1 X1.68S0
G1 X0.36S569.7
G1 X1.56S0
G1 X0.36S569.7
G1 X0.9S0
G1 X0.42S569.7
G1 X1.667S0
G1 Y0.06S0
G1 X-1.667S0
G1 X-0.42S569.7
G1 X-0.9S0
G1 X-0.36S569.7
G1 X-1.56S0
G1 X-0.36S569.7
G1 X-1.68S0
G1 X-0.36S569.7
G1 X-1.32S0
G1 X-0.42S569.7
G1 X-2.161S0
G1 X-0.36S569.7
G1 X-1.02S0
G1 X-0.72S569.7
G1 X-1.56S0
G1 X-0.42S569.7
G1 X-0.54S0
G1 X-0.48S569.7
G1 X-1.14S0
G1 X-0.42S569.7
G1 X-0.54S0
G1 X-0.72S569.7
G1 X-1.08S0
G1 X-0.72S569.7
G1 X-1.56S0
G1 X-0.42S569.7
G1 X-1.381S0
G1 X-5.4S532.3
G1 X-1.667S0
G1 Y0.06S0
G1 X1.667S0
G1 X5.4S532.3
G1 X1.381S0
G1 X0.42S569.7
G1 X1.56S0
G1 X0.72S569.7
G1 X1.14S0
G1 X0.66S569.7
G1 X0.54S0
G1 X0.42S569.7
G1 X1.08S0
G1 X0.48S569.7
G1 X0.6S0
G1 X0.42S569.7
G1 X1.56S0
G1 X0.72S569.7
G1 X1.02S0
G1 X0.36S569.7
G1 X2.161S0
G1 X0.42S569.7
G1 X1.32S0
G1 X0.36S569.7
G1 X1.68S0
G1 X0.36S569.7
G1 X1.56S0
G1 X0.36S569.7
G1 X0.9S0
G1 X0.42S569.7
G1 X1.667S0
G1 Y0.06S0
G1 X-1.667S0
G1 X-0.48S569.7
G1 X-0.84S0
G1 X-0.36S569.7
G1 X-1.56S0
G1 X-0.36S569.7
G1 X-1.68S0
G1 X-0.36S569.7
G1 X-1.32S0
G1 X-0.42S569.7
G1 X-2.161S0
G1 X-0.36S569.7
G1 X-1.08S0
G1 X-0.66S569.7
G1 X-1.56S0
G1 X-0.42S569.7
G1 X-0.6S0
G1 X-0.54S569.7
G1 X-1.02S0
G1 X-0.42S569.7
G1 X-0.54S0
G1 X-0.66S569.7
G1 X-1.2S0
G1 X-0.66S569.7
G1 X-1.56S0
G1 X-0.42S569.7
G1 X-1.381S0
G1 X-5.4S532.3
G1 X-1.667S0
G1 Y0.06S0
G1 X1.667S0
G1 X5.4S532.3
G1 X1.381S0
G1 X0.42S569.7
G1 X1.56S0
G1 X0.6S569.7
G1 X1.32S0
G1 X0.6S569.7
G1 X0.54S0
G1 X0.42S569.7
G1 X0.9S0
G1 X0.6S569.7
G1 X0.66S0
G1 X0.42S569.7
G1 X1.56S0
G1 X0.6S569.7
G1 X1.14S0
G1 X0.36S569.7
G1 X2.161S0
G1 X0.42S569.7
G1 X1.32S0
G1 X0.36S569.7
G1 X1.68S0
G1 X0.36S569.7
G1 X1.56S0
G1 X0.36S569.7
G1 X0.84S0
G1 X0.42S569.7
G1 X1.667S0
G1 Y0.06S0
G1 X-1.667S0
G1 X-0.48S569.7
G1 X-0.78S0
G1 X-0.36S569.7
G1 X-1.56S0
G1 X-0.36S569.7
G1 X-1.68S0
G1 X-0.36S569.7
G1 X-1.32S0
G1 X-0.42S569.7
G1 X-2.161S0
G1 X-0.36S569.7
G1 X-1.2S0
G1 X-0.54S569.7
G1 X-1.56S0
G1 X-0.42S569.7
G1 X-0.72S0
G1 X-0.6S569.7
G1 X-0.84S0
G1 X-0.42S569.7
G1 X-0.54S0
G1 X-0.54S569.7
G1 X-1.38S0
G1 X-0.6S569.7
G1 X-1.56S0
G1 X-0.42S569.7
G1 X-1.381S0
G1 X-5.4S532.3
G1 X-1.667S0
G1 Y0.06S0
G1 X1.667S0
G1 X5.4S532.3
G1 X1.381S0
G1 X0.42S569.7
G1 X1.56S0
G1 X0.54S569.7
G1 X1.5S0
G1 X0.48S569.7
G1 X0.54S0
G1 X0.42S569.7
G1 X0.66S0
G1 X0.72S569.7
G1 X0.78S0
G1 X0.42S569.7
G1 X1.56S0
G1 X0.48S569.7
G1 X1.26S0
G1 X0.36S569.7
G1 X2.161S0
G1 X0.42S569.7
G1 X1.32S0
G1 X0.36S569.7
G1 X1.68S0
G1 X0.36S569.7
G1 X1.56S0
G1 X0.36S569.7
G1 X0.66S0
G1 X0.54S569.7
G1 X1.667S0
G1 Y0.06S0
G1 X-1.667S0
G1 X-0.9S569.7
G1 X-0.3S0
G1 X-0.36S569.7
G1 X-0.6S0
G1 X-1.32S569.7
G1 X-0.72S0
G1 X-1.32S569.7
G1 X-1.32S0
G1 X-0.42S569.7
G1 X-2.161S0
G1 X-0.36S569.7
G1 X-1.26S0
G1 X-0.54S569.7
G1 X-0.54S0
G1 X-1.38S569.7
G1 X-0.84S0
G1 X-1.02S569.7
G1 X-0.3S0
G1 X-0.42S569.7
G1 X-0.54S0
G1 X-0.48S569.7
G1 X-1.56S0
G1 X-0.48S569.7
G1 X-0.6S0
G1 X-1.38S569.7
G1 X-1.381S0
G1 X-5.4S532.3
G1 X-1.667S0
G1 Y0.06S0
G1 X1.667S0
G1 X5.4S532.3
G1 X1.381S0
G1 X1.38S569.7
G1 X0.54S0
G1 X0.48S569.7
G1 X1.68S0
G1 X0.42S569.7
G1 X0.54S0
G1 X1.68S569.7
G1 X0.9S0
G1 X1.38S569.7
G1 X0.48S0
G1 X0.54S569.7
G1 X1.32S0
G1 X0.36S569.7
G1 X2.161S0
G1 X0.42S569.7
G1 X1.32S0
G1 X1.38S569.7
G1 X0.66S0
G1 X1.38S569.7
G1 X0.54S0
G1 X1.5S569.7
G1 X1.667S0
G1 X-0.12Y0.06S0
G1 X-1.667S0
G1 X-1.38S569.7
G1 X-0.54S0
G1 X-1.38S569.7
G1 X-0.66S0
G1 X-1.38S569.7
G1 X-1.32S0
G1 X-0.42S569.7
G1 X-2.161S0
G1 X-0.36S569.7
G1 X-1.38S0
G1 X-0.54S569.7
G1 X-0.42S0
G1 X-1.38S569.7
G1 X-1.02S0
G1 X-1.56S569.7
G1 X-0.54S0
G1 X-0.36S569.7
G1 X-1.74S0
G1 X-0.54S569.7
G1 X-0.48S0
G1 X-1.38S569.7
G1 X-1.381S0
G1 X-5.4S532.3
G1 X-1.667S0
G1 Y0.06S0
G1 X1.667S0
G1 X5.4S532.3
G1 X1.381S0
G1 X1.44S569.7
G1 X0.42S0
G1 X0.48S569.7
G1 X1.86S0
G1 X0.3S569.7
G1 X0.54S0
G1 X1.44S569.7
G1 X1.14S0
G1 X1.44S569.7
G1 X0.36S0
G1 X0.48S569.7
G1 X1.44S0
G1 X0.36S569.7
G1 X2.161S0
G1 X0.42S569.7
G1 X1.32S0
G1 X1.44S569.7
G1 X0.6S0
G1 X1.44S569.7
G1 X0.48S0
G1 X1.32S569.7
G1 X1.667S0
G1 X-0.18Y0.06S0
G1 X-1.667S0
G1 X-1.08S569.7
G1 X-0.54S0
G1 X-1.44S569.7
G1 X-0.6S0
G1 X-1.44S569.7
G1 X-1.32S0
G1 X-0.42S569.7
G1 X-2.161S0
G1 X-0.36S569.7
G1 X-1.5S0
G1 X-0.48S569.7
G1 X-0.3S0
G1 X-1.44S569.7
G1 X-1.26S0
G1 X-1.26S569.7
G1 X-0.6S0
G1 X-0.3S569.7
G1 X-1.92S0
G1 X-0.48S569.7
G1 X-0.36S0
G1 X-1.44S569.7
G1 X-1.381S0
G1 X-5.4S532.3
G1 X-1.667S0
G1 X2.701Y0.06S0
G1 X1.666S0
G1 X2.7S532.3
G1 X6.961S0
G1 X0.42S569.7
G1 X14.041S0
G1 X0.42S569.7
G1 X1.667S0
G1 X-21.842Y0.06S0
G1 X-1.667S0
G1 X-2.7S532.3
G1 X-1.666S0
G1 Y0.06S0
G1 X1.666S0
G1 X2.7S532.3
G1 X1.667S0
G1 Y0.06S0
G1 X-1.667S0
G1 X-2.7S532.3
G1 X-1.666S0
G1 Y0.06S0
G1 X1.666S0
G1 X2.7S532.3
G1 X1.667S0
G1 Y0.06S0
G1 X-1.667S0
G1 X-2.7S532.3
G1 X-1.666S0
G1 X-3.001Y0.06S0
G1 X1.667S0
G1 X2.7S566.9
G1 X0.3S0
G1 X2.7S532.3
G1 X1.667S0
G1 Y0.06S0
G1 X-1.667S0
G1 X-2.7S532.3
G1 X-0.3S0
G1 X-2.7S566.9
G1 X-1.667S0
G1 Y0.06S0
G1 X1.667S0
G1 X2.7S566.9
G1 X0.3S0
G1 X2.7S532.3
G1 X1.667S0
G1 Y0.06S0
G1 X-1.667S0
G1 X-2.7S532.3
G1 X-0.3S0
G1 X-2.7S566.9
G1 X-1.667S0
G1 Y0.06S0
G1 X1.667S0
G1 X2.7S566.9
G1 X0.3S0
G1 X2.7S532.3
G1 X4.561S0
G1 X0.24S569.7
G1 X2.34S0
G1 X0.18S569.7
G1 X4.08S0
G1 X0.3S569.7
G1 X2.041S0
G1 X0.24S569.7
G1 X4.32S0
G1 X0.36S569.7
G1 X1.667S0
G1 X4.2Y0.06S0
G1 X-1.667S0
G1 X-1.02S569.7
G1 X-0.72S0
G1 X-1.02S569.7
G1 X-1.26S0
G1 X-0.72S569.7
G1 X-1.26S0
G1 X-0.3S569.7
G1 X-1.02S0
G1 X-0.3S569.7
G1 X-1.02S0
G1 X-0.781S569.7
G1 X-1.56S0
G1 X-0.72S569.7
G1 X-0.9S0
G1 X-0.36S569.7
G1 X-0.96S0
G1 X-0.3S569.7
G1 X-1.02S0
G1 X-0.78S569.7
G1 X-1.8S0
G1 X-0.72S569.7
G1 X-1.38S0
G1 X-0.3S569.7
G1 X-0.96S0
G1 X-0.3S569.7
G1 X-1.381S0
G1 X-2.7S532.3
G1 X-0.3S0
G1 X-2.7S566.9
G1 X-1.667S0
G1 Y0.06S0
G1 X1.667S0
G1 X2.7S566.9
G1 X0.3S0
G1 X2.7S532.3
G1 X1.381S0
G1 X0.3S569.7
G1 X0.96S0
G1 X0.3S569.7
G1 X1.2S0
G1 X1.02S569.7
G1 X1.56S0
G1 X1.08S569.7
G1 X0.84S0
G1 X0.3S569.7
G1 X0.96S0
G1 X0.36S569.7
G1 X0.78S0
G1 X0.96S569.7
G1 X1.32S0
G1 X1.081S569.7
G1 X0.84S0
G1 X0.3S569.7
G1 X1.02S0
G1 X0.3S569.7
G1 X1.14S0
G1 X0.96S569.7
G1 X1.14S0
G1 X1.08S569.7
G1 X0.66S0
G1 X1.08S569.7
G1 X1.667S0
G1 X0.06Y0.06S0
G1 X-1.667S0
G1 X-1.14S569.7
G1 X-0.66S0
G1 X-1.08S569.7
G1 X-1.08S0
G1 X-1.08S569.7
G1 X-1.08S0
G1 X-0.3S569.7
G1 X-1.02S0
G1 X-0.3S569.7
G1 X-0.78S0
G1 X-1.261S569.7
G1 X-1.14S0
G1 X-1.02S569.7
G1 X-0.78S0
G1 X-0.36S569.7
G1 X-0.96S0
G1 X-0.3S569.7
G1 X-0.78S0
G1 X-1.26S569.7
G1 X-1.32S0
G1 X-1.2S569.7
G1 X-1.14S0
G1 X-0.3S569.7
G1 X-0.96S0
G1 X-0.3S569.7
G1 X-1.381S0
G1 X-2.7S532.3
G1 X-0.3S0
G1 X-2.7S566.9
G1 X-1.667S0
G1 Y0.06S0
G1 X1.667S0
G1 X2.7S566.9
G1 X0.3S0
G1 X2.7S532.3
G1 X1.381S0
G1 X0.3S569.7
G1 X0.96S0
G1 X0.3S569.7
G1 X1.08S0
G1 X1.32S569.7
G1 X1.2S0
G1 X1.32S569.7
G1 X0.78S0
G1 X0.3S569.7
G1 X0.96S0
G1 X0.36S569.7
G1 X0.78S0
G1 X1.08S569.7
G1 X1.02S0
G1 X1.321S569.7
G1 X0.78S0
G1 X0.3S569.7
G1 X1.02S0
G1 X0.3S569.7
G1 X1.02S0
G1 X0.54S569.7
G1 X0.18S0
G1 X0.48S569.7
G1 X1.02S0
G1 X1.14S569.7
G1 X0.6S0
G1 X1.14S569.7
G1 X1.667S0
G1 X-0.84Y0.06S0
G1 X-1.667S0
G1 X-0.3S569.7
G1 X-1.44S0
G1 X-0.3S569.7
G1 X-0.96S0
G1 X-0.36S569.7
G1 X-0.54S0
G1 X-0.42S569.7
G1 X-0.96S0
G1 X-0.3S569.7
G1 X-1.02S0
G1 X-0.3S569.7
G1 X-0.78S0
G1 X-0.36S569.7
G1 X-0.48S0
G1 X-0.541S569.7
G1 X-0.96S0
G1 X-0.36S569.7
G1 X-0.54S0
G1 X-0.18S569.7
G1 X-0.78S0
G1 X-0.36S569.7
G1 X-0.96S0
G1 X-0.3S569.7
G1 X-0.78S0
G1 X-0.36S569.7
G1 X-0.48S0
G1 X-0.54S569.7
G1 X-1.08S0
G1 X-0.48S569.7
G1 X-0.54S0
G1 X-0.42S569.7
G1 X-1.02S0
G1 X-0.3S569.7
G1 X-0.96S0
G1 X-0.3S569.7
G1 X-1.381S0
G1 X-2.7S532.3
G1 X-0.3S0
G1 X-2.7S566.9
G1 X-1.667S0
G1 Y0.06S0
G1 X1.667S0
G1 X2.7S566.9
G1 X0.3S0
G1 X2.7S532.3
G1 X1.381S0
G1 X0.3S569.7
G1 X0.96S0
G1 X0.3S569.7
G1 X0.96S0
G1 X0.36S569.7
G1 X0.78S0
G1 X0.42S569.7
G1 X0.96S0
G1 X0.48S569.7
G1 X0.78S0
G1 X0.18S569.7
G1 X0.78S0
G1 X0.3S569.7
G1 X0.96S0
G1 X0.36S569.7
G1 X0.78S0
G1 X0.06S569.7
G1 X0.72S0
G1 X0.36S569.7
G1 X0.84S0
G1 X0.48S569.7
G1 X0.781S0
G1 X0.18S569.7
G1 X0.78S0
G1 X0.3S569.7
G1 X1.02S0
G1 X0.3S569.7
G1 X0.96S0
G1 X0.36S569.7
G1 X0.66S0
G1 X0.3S569.7
G1 X0.96S0
G1 X0.3S569.7
G1 X1.44S0
G1 X0.3S569.7
G1 X1.667S0
G1 Y0.06S0
G1 X-1.667S0
G1 X-0.3S569.7
G1 X-1.44S0
G1 X-0.3S569.7
G1 X-0.9S0
G1 X-0.3S569.7
G1 X-0.78S0
G1 X-0.36S569.7
G1 X-0.9S0
G1 X-0.3S569.7
G1 X-1.02S0
G1 X-0.3S569.7
G1 X-0.78S0
G1 X-0.06S569.7
G1 X-1.021S0
G1 X-0.42S569.7
G1 X-0.78S0
G1 X-0.3S569.7
G1 X-1.62S0
G1 X-0.36S569.7
G1 X-0.96S0
G1 X-0.3S569.7
G1 X-0.78S0
G1 X-0.06S569.7
G1 X-1.02S0
G1 X-0.42S569.7
G1 X-0.84S0
G1 X-0.42S569.7
G1 X-0.9S0
G1 X-0.36S569.7
G1 X-0.9S0
G1 X-0.3S569.7
G1 X-0.96S0
G1 X-0.3S569.7
G1 X-1.381S0
G1 X-2.7S532.3
G1 X-0.3S0
G1 X-2.7S566.9
G1 X-1.667S0
G1 Y0.06S0
G1 X1.667S0
G1 X2.7S566.9
G1 X0.3S0
G1 X2.7S532.3
G1 X1.381S0
G1 X0.3S569.7
G1 X0.96S0
G1 X0.3S569.7
G1 X0.84S0
G1 X0.36S569.7
G1 X1.02S0
G1 X0.36S569.7
G1 X0.78S0
G1 X0.42S569.7
G1 X1.92S0
G1 X0.3S569.7
G1 X0.96S0
G1 X0.36S569.7
G1 X1.62S0
G1 X0.3S569.7
G1 X0.78S0
G1 X0.36S569.7
G1 X1.921S0
G1 X0.3S569.7
G1 X1.02S0
G1 X0.3S569.7
G1 X0.9S0
G1 X0.3S569.7
G1 X0.9S0
G1 X0.24S569.7
G1 X0.9S0
G1 X0.3S569.7
G1 X1.44S0
G1 X0.3S569.7
G1 X1.667S0
G1 Y0.06S0
G1 X-1.667S0
G1 X-0.3S569.7
G1 X-1.44S0
G1 X-0.3S569.7
G1 X-0.84S0
G1 X-0.3S569.7
G1 X-0.9S0
G1 X-0.3S569.7
G1 X-0.9S0
G1 X-0.3S569.7
G1 X-1.02S0
G1 X-0.3S569.7
G1 X-1.981S0
G1 X-0.36S569.7
G1 X-0.72S0
G1 X-0.3S569.7
G1 X-1.62S0
G1 X-0.36S569.7
G1 X-0.96S0
G1 X-0.3S569.7
G1 X-1.98S0
G1 X-0.36S569.7
G1 X-0.72S0
G1 X-0.36S569.7
G1 X-1.08S0
G1 X-0.36S569.7
G1 X-0.84S0
G1 X-0.3S569.7
G1 X-0.96S0
G1 X-0.3S569.7
G1 X-1.381S0
G1 X-2.7S532.3
G1 X-0.3S0
G1 X-2.7S566.9
G1 X-1.667S0
G1 Y0.06S0
G1 X1.667S0
G1 X2.7S566.9
G1 X0.3S0
G1 X2.7S532.3
G1 X1.381S0
G1 X0.3S569.7
G1 X0.96S0
G1 X0.3S569.7
G1 X0.84S0
G1 X0.3S569.7
G1 X1.2S0
G1 X0.3S569.7
G1 X0.66S0
G1 X0.42S569.7
G1 X1.98S0
G1 X0.3S569.7
G1 X0.96S0
G1 X0.36S569.7
G1 X1.62S0
G1 X0.3S569.7
G1 X0.72S0
G1 X0.36S569.7
G1 X1.981S0
G1 X0.3S569.7
G1 X1.02S0
G1 X0.3S569.7
G1 X0.84S0
G1 X0.36S569.7
G1 X0.9S0
G1 X0.3S569.7
G1 X0.84S0
G1 X0.3S569.7
G1 X1.44S0
G1 X0.3S569.7
G1 X1.667S0
G1 Y0.06S0
G1 X-1.667S0
G1 X-0.3S569.7
G1 X-1.44S0
G1 X-0.3S569.7
G1 X-0.84S0
G1 X-0.24S569.7
G1 X-1.02S0
G1 X-0.3S569.7
G1 X-0.84S0
G1 X-0.3S569.7
G1 X-1.02S0
G1 X-0.3S569.7
G1 X-2.041S0
G1 X-0.36S569.7
G1 X-0.66S0
G1 X-0.3S569.7
G1 X-1.62S0
G1 X-0.36S569.7
G1 X-0.96S0
G1 X-0.3S569.7
G1 X-2.04S0
G1 X-0.36S569.7
G1 X-0.6S0
G1 X-0.36S569.7
G1 X-1.2S0
G1 X-0.36S569.7
G1 X-0.78S0
G1 X-0.3S569.7
G1 X-0.96S0
G1 X-0.3S569.7
G1 X-1.381S0
G1 X-2.7S532.3
G1 X-0.3S0
G1 X-2.7S566.9
G1 X-1.667S0
G1 Y0.06S0
G1 X1.667S0
G1 X2.7S566.9
G1 X0.3S0
G1 X2.7S532.3
G1 X1.381S0
G1 X0.3S569.7
G1 X0.96S0
G1 X0.3S569.7
G1 X0.78S0
G1 X0.3S569.7
G1 X1.26S0
G1 X0.36S569.7
G1 X0.6S0
G1 X0.36S569.7
G1 X2.04S0
G1 X0.3S569.7
G1 X0.96S0
G1 X0.36S569.7
G1 X1.56S0
G1 X0.36S569.7
G1 X0.66S0
G1 X0.36S569.7
G1 X2.041S0
G1 X0.3S569.7
G1 X1.02S0
G1 X0.3S569.7
G1 X0.84S0
G1 X0.3S569.7
G1 X1.02S0
G1 X0.24S569.7
G1 X0.84S0
G1 X0.3S569.7
G1 X1.44S0
G1 X0.3S569.7
G1 X1.667S0
G1 Y0.06S0
G1 X-1.667S0
G1 X-0.3S569.7
G1 X-1.44S0
G1 X-0.3S569.7
G1 X-0.84S0
G1 X-0.24S569.7
G1 X-1.02S0
G1 X-0.3S569.7
G1 X-0.84S0
G1 X-0.3S569.7
G1 X-1.02S0
G1 X-0.3S569.7
G1 X-2.101S0
G1 X-0.3S569.7
G1 X-0.66S0
G1 X-0.42S569.7
G1 X-1.5S0
G1 X-0.36S569.7
G1 X-0.96S0
G1 X-0.3S569.7
G1 X-2.1S0
G1 X-0.3S569.7
G1 X-0.6S0
G1 X-0.3S569.7
G1 X-1.32S0
G1 X-0.3S569.7
G1 X-0.78S0
G1 X-0.3S569.7
G1 X-0.96S0
G1 X-0.3S569.7
G1 X-1.381S0
G1 X-2.7S532.3
G1 X-0.3S0
G1 X-2.7S566.9
G1 X-1.667S0
G1 Y0.06S0
G1 X1.667S0
G1 X2.7S566.9
G1 X0.3S0
G1 X2.7S532.3
G1 X1.381S0
G1 X0.3S569.7
G1 X0.96S0
G1 X0.3S569.7
G1 X0.72S0
G1 X0.36S569.7
G1 X1.32S0
G1 X0.3S569.7
G1 X0.54S0
G1 X0.36S569.7
G1 X2.1S0
G1 X0.3S569.7
G1 X0.96S0
G1 X0.36S569.7
G1 X1.38S0
G1 X0.48S569.7
G1 X0.66S0
G1 X0.36S569.7
G1 X2.101S0
G1 X0.3S569.7
G1 X1.02S0
G1 X0.3S569.7
G1 X0.84S0
G1 X0.3S569.7
G1 X1.02S0
G1 X0.24S569.7
G1 X0.84S0
G1 X0.3S569.7
G1 X1.44S0
G1 X0.3S569.7
G1 X1.667S0
G1 Y0.06S0
G1 X-1.667S0
G1 X-0.3S569.7
G1 X-1.44S0
G1 X-0.3S569.7
G1 X-0.84S0
G1 X-0.24S569.7
G1 X-1.02S0
G1 X-0.3S569.7
G1 X-0.84S0
G1 X-0.3S569.7
G1 X-1.02S0
G1 X-0.3S569.7
G1 X-2.101S0
G1 X-0.36S569.7
G1 X-0.72S0
G1 X-0.48S569.7
G1 X-1.32S0
G1 X-0.36S569.7
G1 X-0.96S0
G1 X-0.3S569.7
G1 X-2.1S0
G1 X-0.36S569.7
G1 X-0.54S0
G1 X-0.3S569.7
G1 X-1.32S0
G1 X-0.36S569.7
G1 X-0.72S0
G1 X-0.3S569.7
G1 X-0.96S0
G1 X-0.3S569.7
G1 X-1.381S0
G1 X-2.7S532.3
G1 X-0.3S0
G1 X-2.7S566.9
G1 X-1.667S0
G1 Y0.06S0
G1 X1.667S0
G1 X2.7S566.9
G1 X0.3S0
G1 X2.7S532.3
G1 X1.381S0
G1 X0.3S569.7
G1 X0.96S0
G1 X0.3S569.7
G1 X0.72S0
G1 X0.36S569.7
G1 X1.32S0
G1 X0.36S569.7
G1 X0.48S0
G1 X0.36S569.7
G1 X2.1S0
G1 X0.3S569.7
G1 X0.96S0
G1 X0.36S569.7
G1 X1.2S0
G1 X0.54S569.7
G1 X0.78S0
G1 X0.36S569.7
G1 X2.101S0
G1 X0.3S569.7
G1 X1.02S0
G1 X0.3S569.7
G1 X0.84S0
G1 X0.3S569.7
G1 X1.02S0
G1 X0.24S569.7
G1 X0.84S0
G1 X0.3S569.7
G1 X1.44S0
G1 X0.9S569.7
G1 X1.667S0
G1 Y0.06S0
G1 X-1.667S0
G1 X-0.9S569.7
G1 X-1.44S0
G1 X-0.3S569.7
G1 X-0.84S0
G1 X-0.24S569.7
G1 X-1.02S0
G1 X-0.3S569.7
G1 X-0.84S0
G1 X-1.62S569.7
G1 X-2.101S0
G1 X-0.36S569.7
G1 X-0.84S0
G1 X-0.6S569.7
G1 X-1.08S0
G1 X-1.62S569.7
G1 X-2.1S0
G1 X-0.36S569.7
G1 X-0.48S0
G1 X-0.36S569.7
G1 X-1.32S0
G1 X-0.36S569.7
G1 X-0.72S0
G1 X-1.56S569.7
G1 X-1.381S0
G1 X-2.7S532.3
G1 X-0.3S0
G1 X-2.7S566.9
G1 X-1.667S0
G1 Y0.06S0
G1 X1.667S0
G1 X2.7S566.9
G1 X0.3S0
G1 X2.7S532.3
G1 X1.381S0
G1 X1.56S569.7
G1 X0.72S0
G1 X0.36S569.7
G1 X1.32S0
G1 X0.36S569.7
G1 X0.48S0
G1 X0.36S569.7
G1 X2.1S0
G1 X1.62S569.7
G1 X1.02S0
G1 X0.54S569.7
G1 X0.96S0
G1 X0.36S569.7
G1 X2.101S0
G1 X1.62S569.7
G1 X0.84S0
G1 X0.3S569.7
G1 X1.02S0
G1 X0.24S569.7
G1 X0.84S0
G1 X0.3S569.7
G1 X1.44S0
G1 X0.9S569.7
G1 X1.667S0
G1 X0.06Y0.06S0
G1 X-1.667S0
G1 X-0.96S569.7
G1 X-1.44S0
G1 X-0.3S569.7
G1 X-0.84S0
G1 X-0.24S569.7
G1 X-1.02S0
G1 X-0.3S569.7
G1 X-0.84S0
G1 X-1.62S569.7
G1 X-2.101S0
G1 X-0.36S569.7
G1 X-1.02S0
G1 X-0.54S569.7
G1 X-0.96S0
G1 X-1.62S569.7
G1 X-2.1S0
G1 X-0.36S569.7
G1 X-0.48S0
G1 X-0.36S569.7
G1 X-1.32S0
G1 X-0.36S569.7
G1 X-0.72S0
G1 X-1.56S569.7
G1 X-1.381S0
G1 X-2.7S532.3
G1 X-0.3S0
G1 X-2.7S566.9
G1 X-1.667S0
G1 Y0.06S0
G1 X1.667S0
G1 X2.7S566.9
G1 X0.3S0
G1 X2.7S532.3
G1 X1.381S0
G1 X1.56S569.7
G1 X0.72S0
G1 X0.36S569.7
G1 X1.32S0
G1 X0.3S569.7
G1 X0.54S0
G1 X0.36S569.7
G1 X2.1S0
G1 X1.62S569.7
G1 X0.9S0
G1 X0.48S569.7
G1 X1.14S0
G1 X0.36S569.7
G1 X2.101S0
G1 X1.62S569.7
G1 X0.84S0
G1 X0.3S569.7
G1 X1.02S0
G1 X0.24S569.7
G1 X0.84S0
G1 X0.3S569.7
G1 X1.44S0
G1 X0.3S569.7
G1 X1.667S0
G1 Y0.06S0
G1 X-1.667S0
G1 X-0.3S569.7
G1 X-1.44S0
G1 X-0.3S569.7
G1 X-0.84S0
G1 X-0.24S569.7
G1 X-1.02S0
G1 X-0.3S569.7
G1 X-0.84S0
G1 X-0.3S569.7
G1 X-1.02S0
G1 X-0.3S569.7
G1 X-2.101S0
G1 X-0.3S569.7
G1 X-1.26S0
G1 X-0.48S569.7
G1 X-0.84S0
G1 X-0.36S569.7
G1 X-0.96S0
G1 X-0.3S569.7
G1 X-2.1S0
G1 X-0.36S569.7
G1 X-0.54S0
G1 X-0.3S569.7
G1 X-1.32S0
G1 X-0.36S569.7
G1 X-0.72S0
G1 X-0.3S569.7
G1 X-0.96S0
G1 X-0.3S569.7
G1 X-1.381S0
G1 X-2.7S532.3
G1 X-0.3S0
G1 X-2.7S566.9
G1 X-1.667S0
G1 Y0.06S0
G1 X1.667S0
G1 X2.7S566.9
G1 X0.3S0
G1 X2.7S532.3
G1 X1.381S0
G1 X0.3S569.7
G1 X0.96S0
G1 X0.3S569.7
G1 X0.78S0
G1 X0.3S569.7
G1 X1.32S0
G1 X0.3S569.7
G1 X0.6S0
G1 X0.3S569.7
G1 X2.1S0
G1 X0.3S569.7
G1 X0.96S0
G1 X0.36S569.7
G1 X0.84S0
G1 X0.36S569.7
G1 X1.38S0
G1 X0.3S569.7
G1 X2.101S0
G1 X0.3S569.7
G1 X1.02S0
G1 X0.3S569.7
G1 X0.84S0
G1 X0.3S569.7
G1 X1.02S0
G1 X0.24S569.7
G1 X0.84S0
G1 X0.3S569.7
G1 X1.44S0
G1 X0.3S569.7
G1 X1.667S0
G1 Y0.06S0
G1 X-1.667S0
G1 X-0.3S569.7
G1 X-1.44S0
G1 X-0.3S569.7
G1 X-0.84S0
G1 X-0.24S569.7
G1 X-1.02S0
G1 X-0.3S569.7
G1 X-0.84S0
G1 X-0.3S569.7
G1 X-1.02S0
G1 X-0.3S569.7
G1 X-2.101S0
G1 X-0.3S569.7
G1 X-1.44S0
G1 X-0.36S569.7
G1 X-0.78S0
G1 X-0.36S569.7
G1 X-0.96S0
G1 X-0.3S569.7
G1 X-2.1S0
G1 X-0.3S569.7
G1 X-0.6S0
G1 X-0.36S569.7
G1 X-1.26S0
G1 X-0.3S569.7
G1 X-0.78S0
G1 X-0.3S569.7
G1 X-0.96S0
G1 X-0.3S569.7
G1 X-1.381S0
G1 X-2.7S532.3
G1 X-0.3S0
G1 X-2.7S566.9
G1 X-1.667S0
G1 Y0.06S0
G1 X1.667S0
G1 X2.7S566.9
G1 X0.3S0
G1 X2.7S532.3
G1 X1.381S0
G1 X0.3S569.7
G1 X0.96S0
G1 X0.3S569.7
G1 X0.78S0
G1 X0.36S569.7
G1 X1.2S0
G1 X0.36S569.7
G1 X0.6S0
G1 X0.36S569.7
G1 X2.04S0
G1 X0.3S569.7
G1 X0.96S0
G1 X0.36S569.7
G1 X0.78S0
G1 X0.36S569.7
G1 X1.44S0
G1 X0.36S569.7
G1 X2.041S0
G1 X0.3S569.7
G1 X1.02S0
G1 X0.3S569.7
G1 X0.84S0
G1 X0.3S569.7
G1 X1.02S0
G1 X0.24S569.7
G1 X0.84S0
G1 X0.3S569.7
G1 X1.44S0
G1 X0.3S569.7
G1 X1.667S0
G1 Y0.06S0
G1 X-1.667S0
G1 X-0.3S569.7
G1 X-1.44S0
G1 X-0.3S569.7
G1 X-0.84S0
G1 X-0.24S569.7
G1 X-1.02S0
G1 X-0.3S569.7
G1 X-0.84S0
G1 X-0.3S569.7
G1 X-1.02S0
G1 X-0.3S569.7
G1 X-2.041S0
G1 X-0.3S569.7
G1 X-1.56S0
G1 X-0.3S569.7
G1 X-0.78S0
G1 X-0.36S569.7
G1 X-0.96S0
G1 X-0.3S569.7
G1 X-2.04S0
G1 X-0.3S569.7
G1 X-0.72S0
G1 X-0.3S569.7
G1 X-1.2S0
G1 X-0.3S569.7
G1 X-0.84S0
G1 X-0.3S569.7
G1 X-0.96S0
G1 X-0.3S569.7
G1 X-1.381S0
G1 X-2.7S532.3
G1 X-0.3S0
G1 X-2.7S566.9
G1 X-1.667S0
G1 Y0.06S0
G1 X1.667S0
G1 X2.7S566.9
G1 X0.3S0
G1 X2.7S532.3
G1 X1.381S0
G1 X0.3S569.7
G1 X0.96S0
G1 X0.3S569.7
G1 X0.84S0
G1 X0.36S569.7
G1 X1.08S0
G1 X0.36S569.7
G1 X0.72S0
G1 X0.36S569.7
G1 X1.98S0
G1 X0.3S569.7
G1 X0.96S0
G1 X0.36S569.7
G1 X0.78S0
G1 X0.3S569.7
G1 X1.56S0
G1 X0.36S569.7
G1 X1.981S0
G1 X0.3S569.7
G1 X1.02S0
G1 X0.3S569.7
G1 X0.84S0
G1 X0.3S569.7
G1 X1.02S0
G1 X0.24S569.7
G1 X0.84S0
G1 X0.3S569.7
G1 X1.44S0
G1 X0.3S569.7
G1 X1.667S0
G1 Y0.06S0
G1 X-1.667S0
G1 X-0.3S569.7
G1 X-1.44S0
G1 X-0.3S569.7
G1 X-0.84S0
G1 X-0.24S569.7
G1 X-1.02S0
G1 X-0.3S569.7
G1 X-0.84S0
G1 X-0.3S569.7
G1 X-1.02S0
G1 X-0.3S569.7
G1 X-1.921S0
G1 X-0.36S569.7
G1 X-1.62S0
G1 X-0.3S569.7
G1 X-0.78S0
G1 X-0.36S569.7
G1 X-0.96S0
G1 X-0.3S569.7
G1 X-1.92S0
G1 X-0.36S569.7
G1 X-0.84S0
G1 X-0.36S569.7
G1 X-1.02S0
G1 X-0.3S569.7
G1 X-0.9S0
G1 X-0.3S569.7
G1 X-0.96S0
G1 X-0.3S569.7
G1 X-1.381S0
G1 X-2.7S532.3
G1 X-0.3S0
G1 X-2.7S566.9
G1 X-1.667S0
G1 Y0.06S0
G1 X1.667S0
G1 X2.7S566.9
G1 X0.3S0
G1 X2.7S532.3
G1 X1.381S0
G1 X0.3S569.7
G1 X0.96S0
G1 X0.3S569.7
G1 X0.9S0
G1 X0.36S569.7
G1 X0.9S0
G1 X0.42S569.7
G1 X0.84S0
G1 X0.42S569.7
G1 X1.02S0
G1 X0.06S569.7
G1 X0.78S0
G1 X0.3S569.7
G1 X0.96S0
G1 X0.36S569.7
G1 X0.84S0
G1 X0.3S569.7
G1 X0.72S0
G1 X0.06S569.7
G1 X0.78S0
G1 X0.42S569.7
G1 X1.021S0
G1 X0.06S569.7
G1 X0.78S0
G1 X0.3S569.7
G1 X1.02S0
G1 X0.3S569.7
G1 X0.84S0
G1 X0.3S569.7
G1 X1.02S0
G1 X0.24S569.7
G1 X0.84S0
G1 X0.3S569.7
G1 X1.44S0
G1 X0.3S569.7
G1 X1.667S0
G1 Y0.06S0
G1 X-1.667S0
G1 X-0.3S569.7
G1 X-1.44S0
G1 X-0.3S569.7
G1 X-0.84S0
G1 X-0.24S569.7
G1 X-1.02S0
G1 X-0.3S569.7
G1 X-0.84S0
G1 X-0.3S569.7
G1 X-1.02S0
G1 X-0.3S569.7
G1 X-0.78S0
G1 X-0.18S569.7
G1 X-0.841S0
G1 X-0.42S569.7
G1 X-0.84S0
G1 X-0.12S569.7
G1 X-0.6S0
G1 X-0.36S569.7
G1 X-0.84S0
G1 X-0.36S569.7
G1 X-0.96S0
G1 X-0.3S569.7
G1 X-0.78S0
G1 X-0.18S569.7
G1 X-0.84S0
G1 X-0.42S569.7
G1 X-0.96S0
G1 X-0.42S569.7
G1 X-0.72S0
G1 X-0.42S569.7
G1 X-0.96S0
G1 X-0.3S569.7
G1 X-0.96S0
G1 X-0.3S569.7
G1 X-1.381S0
G1 X-2.7S532.3
G1 X-0.3S0
G1 X-2.7S566.9
G1 X-1.667S0
G1 Y0.06S0
G1 X1.667S0
G1 X2.7S566.9
G1 X0.3S0
G1 X2.7S532.3
G1 X1.381S0
G1 X0.3S569.7
G1 X0.96S0
G1 X0.3S569.7
G1 X1.02S0
G1 X0.42S569.7
G1 X0.54S0
G1 X0.48S569.7
G1 X1.08S0
G1 X0.48S569.7
G1 X0.54S0
G1 X0.36S569.7
G1 X0.78S0
G1 X0.3S569.7
G1 X0.96S0
G1 X0.36S569.7
G1 X0.84S0
G1 X0.42S569.7
G1 X0.42S0
G1 X0.24S569.7
G1 X0.9S0
G1 X0.48S569.7
G1 X0.541S0
G1 X0.36S569.7
G1 X0.78S0
G1 X0.3S569.7
G1 X1.02S0
G1 X0.3S569.7
G1 X0.84S0
G1 X0.3S569.7
G1 X1.02S0
G1 X0.24S569.7
G1 X0.84S0
G1 X0.3S569.7
G1 X1.44S0
G1 X0.3S569.7
G1 X1.667S0
G1 X0.72Y0.06S0
G1 X-1.667S0
G1 X-1.02S569.7
G1 X-1.44S0
G1 X-0.3S569.7
G1 X-0.84S0
G1 X-0.24S569.7
G1 X-1.02S0
G1 X-0.3S569.7
G1 X-0.84S0
G1 X-0.3S569.7
G1 X-1.02S0
G1 X-0.3S569.7
G1 X-0.78S0
G1 X-1.321S569.7
G1 X-0.96S0
G1 X-1.02S569.7
G1 X-0.9S0
G1 X-0.36S569.7
G1 X-0.96S0
G1 X-0.3S569.7
G1 X-0.78S0
G1 X-1.32S569.7
G1 X-1.2S0
G1 X-1.32S569.7
G1 X-1.08S0
G1 X-0.3S569.7
G1 X-0.96S0
G1 X-0.3S569.7
G1 X-1.381S0
G1 X-2.7S532.3
G1 X-0.3S0
G1 X-2.7S566.9
G1 X-1.667S0
G1 Y0.06S0
G1 X1.667S0
G1 X2.7S566.9
G1 X0.3S0
G1 X2.7S532.3
G1 X1.381S0
G1 X0.3S569.7
G1 X0.96S0
G1 X0.3S569.7
G1 X1.14S0
G1 X1.2S569.7
G1 X1.32S0
G1 X1.26S569.7
G1 X0.78S0
G1 X0.3S569.7
G1 X0.96S0
G1 X0.36S569.7
G1 X0.96S0
G1 X0.96S569.7
G1 X1.02S0
G1 X1.261S569.7
G1 X0.78S0
G1 X0.3S569.7
G1 X1.02S0
G1 X0.3S569.7
G1 X0.84S0
G1 X0.3S569.7
G1 X1.02S0
G1 X0.24S569.7
G1 X0.84S0
G1 X0.3S569.7
G1 X1.44S0
G1 X1.02S569.7
G1 X1.667S0
G1 X0.06Y0.06S0
G1 X-1.667S0
G1 X-1.08S569.7
G1 X-1.44S0
G1 X-0.3S569.7
G1 X-0.84S0
G1 X-0.24S569.7
G1 X-1.02S0
G1 X-0.3S569.7
G1 X-0.84S0
G1 X-0.3S569.7
G1 X-1.02S0
G1 X-0.3S569.7
G1 X-0.84S0
G1 X-1.081S569.7
G1 X-1.14S0
G1 X-0.9S569.7
G1 X-1.02S0
G1 X-0.36S569.7
G1 X-0.96S0
G1 X-0.3S569.7
G1 X-0.84S0
G1 X-1.08S569.7
G1 X-1.56S0
G1 X-0.96S569.7
G1 X-1.26S0
G1 X-0.3S569.7
G1 X-0.96S0
G1 X-0.3S569.7
G1 X-1.381S0
G1 X-2.7S532.3
G1 X-0.3S0
G1 X-2.7S566.9
G1 X-1.667S0
G1 Y0.06S0
G1 X1.667S0
G1 X2.7S566.9
G1 X0.3S0
G1 X2.7S532.3
G1 X1.381S0
G1 X0.3S569.7
G1 X0.96S0
G1 X0.3S569.7
G1 X1.38S0
G1 X0.72S569.7
G1 X1.8S0
G1 X0.78S569.7
G1 X1.02S0
G1 X0.3S569.7
G1 X0.96S0
G1 X0.36S569.7
G1 X1.14S0
G1 X0.6S569.7
G1 X1.44S0
G1 X0.781S569.7
G1 X1.02S0
G1 X0.3S569.7
G1 X1.02S0
G1 X0.3S569.7
G1 X0.84S0
G1 X0.3S569.7
G1 X1.02S0
G1 X0.24S569.7
G1 X0.84S0
G1 X0.3S569.7
G1 X1.44S0
G1 X1.08S569.7
G1 X1.667S0
G1 X-9.001Y0.06S0
G1 X-1.666S0
G1 X-0.18S569.7
G1 X-6.421S0
G1 X-0.18S569.7
G1 X-2.34S0
G1 X-0.24S569.7
G1 X-7.561S0
G1 X-2.7S566.9
G1 X-1.667S0
G1 Y0.06S0
G1 X1.667S0
G1 X2.7S566.9
G1 X1.667S0
G1 Y0.06S0
G1 X-1.667S0
G1 X-2.7S566.9
G1 X-1.667S0
G1 Y0.06S0
G1 X1.667S0
G1 X2.7S566.9
G1 X1.667S0
G1 Y0.06S0
G1 X-1.667S0
G1 X-2.7S566.9
G1 X-1.667S0
G1 Y0.06S0
G1 X1.667S0
G1 X2.7S566.9
G1 X1.667S0
M9
G1 S0
M5
; return to starting pos
G0 X-50.537Y-44.79
M2
