; LightBurn 1.2.01
; GRBL device profile, current position
; Bounds: X0 Y0 to X85.6 Y54
G00 G17 G40 G21 G54
G91
M4
; Cut @ 3000 mm/min, 10% power
M8
G0 X85.6Y0
; Layer Lim
G1 X-85.6S0F3000
G1 Y54
G1 X85.6
G1 Y-54
; Scan @ 4000.002 mm/min, 70% power
M8
G0 X-23.589Y29.55
; Layer Mail
G1 X1.666F4000S0
G1 X0.591S700
G1 X4.774S0
G1 X0.744S700
G1 X5.114S0
G1 X0.46S700
G1 X4.012S0
G1 X0.489S700
G1 X1.667S0
G1 X0.231Y0.1S0
G1 X-1.667S0
G1 X-0.993S700
G1 X-0.81S0
G1 X-1.907S700
G1 X-0.795S0
G1 X-0.904S700
G1 X-0.842S0
G1 X-1.908S700
G1 X-1.893S0
G1 X-1.321S700
G1 X-2.479S0
G1 X-0.578S700
G1 X-1.095S0
G1 X-1.168S700
G1 X-1.176S0
G1 X-0.578S700
G1 X-1.667S0
G1 Y0.1S0
G1 X1.667S0
G1 X0.578S700
G1 X1.009S0
G1 X1.496S700
G1 X0.934S0
G1 X0.578S700
G1 X2.333S0
G1 X1.617S700
G1 X1.764S0
G1 X1.887S700
G1 X0.713S0
G1 X1.152S700
G1 X0.697S0
G1 X1.886S700
G1 X0.673S0
G1 X1.274S700
G1 X1.667S0
G1 X0.107Y0.1S0
G1 X-1.667S0
G1 X-1.476S700
G1 X-0.578S0
G1 X-1.857S700
G1 X-0.628S0
G1 X-1.34S700
G1 X-0.623S0
G1 X-1.858S700
G1 X-1.694S0
G1 X-1.83S700
G1 X-2.219S0
G1 X-0.578S700
G1 X-0.816S0
G1 X-1.74S700
G1 X-0.883S0
G1 X-0.578S700
G1 X-1.667S0
G1 Y0.1S0
G1 X1.667S0
G1 X0.578S700
G1 X0.785S0
G1 X1.93S700
G1 X0.724S0
G1 X0.578S700
G1 X2.14S0
G1 X1.998S700
G1 X1.645S0
G1 X1.818S700
G1 X0.558S0
G1 X1.471S700
G1 X0.602S0
G1 X1.817S700
G1 X0.508S0
G1 X1.621S700
G1 X1.667S0
G1 X0.06Y0.1S0
G1 X-1.667S0
G1 X-0.624S700
G1 X-0.474S0
G1 X-0.641S700
G1 X-0.45S0
G1 X-1.774S700
G1 X-0.586S0
G1 X-0.606S700
G1 X-0.368S0
G1 X-0.605S700
G1 X-0.509S0
G1 X-1.774S700
G1 X-1.636S0
G1 X-0.805S700
G1 X-0.477S0
G1 X-0.836S700
G1 X-2.073S0
G1 X-0.578S700
G1 X-0.655S0
G1 X-0.864S700
G1 X-0.374S0
G1 X-0.837S700
G1 X-0.709S0
G1 X-0.578S700
G1 X-1.667S0
G1 Y0.1S0
G1 X1.667S0
G1 X0.578S700
G1 X0.644S0
G1 X0.708S700
G1 X0.763S0
G1 X0.726S700
G1 X0.598S0
G1 X0.578S700
G1 X2.028S0
G1 X0.703S700
G1 X0.845S0
G1 X0.655S700
G1 X1.656S0
G1 X0.67S700
G1 X1.528S0
G1 X0.564S700
G1 X0.516S0
G1 X0.554S700
G1 X0.617S0
G1 X0.67S700
G1 X1.465S0
G1 X0.579S700
G1 X0.63S0
G1 X0.608S700
G1 X1.666S0
G1 X0.031Y0.1S0
G1 X-1.667S0
G1 X-0.576S700
G1 X-0.742S0
G1 X-0.557S700
G1 X-1.343S0
G1 X-0.7S700
G1 X-0.651S0
G1 X-0.556S700
G1 X-0.588S0
G1 X-0.545S700
G1 X-1.409S0
G1 X-0.7S700
G1 X-1.691S0
G1 X-0.609S700
G1 X-1.029S0
G1 X-0.637S700
G1 X-1.985S0
G1 X-0.578S700
G1 X-0.552S0
G1 X-0.66S700
G1 X-0.984S0
G1 X-0.641S700
G1 X-0.602S0
G1 X-0.578S700
G1 X-1.667S0
G1 Y0.1S0
G1 X1.667S0
G1 X0.578S700
G1 X0.559S0
G1 X0.612S700
G1 X1.109S0
G1 X0.637S700
G1 X0.522S0
G1 X0.578S700
G1 X1.968S0
G1 X0.601S700
G1 X1.114S0
G1 X0.588S700
G1 X1.766S0
G1 X0.709S700
G1 X1.29S0
G1 X0.54S700
G1 X0.632S0
G1 X0.561S700
G1 X0.717S0
G1 X0.709S700
G1 X1.654S0
G1 X0.128S700
G1 X0.79S0
G1 X0.578S700
G1 X1.667S0
G1 X0.008Y0.1S0
G1 X-1.667S0
G1 X-0.562S700
G1 X-2.501S0
G1 X-0.715S700
G1 X-0.791S0
G1 X-0.564S700
G1 X-0.66S0
G1 X-0.548S700
G1 X-1.171S0
G1 X-0.715S700
G1 X-1.853S0
G1 X-0.589S700
G1 X-1.15S0
G1 X-0.583S700
G1 X-1.951S0
G1 X-0.578S700
G1 X-0.512S0
G1 X-0.599S700
G1 X-1.199S0
G1 X-0.604S700
G1 X-0.525S0
G1 X-0.578S700
G1 X-1.667S0
G1 Y0.1S0
G1 X1.667S0
G1 X0.578S700
G1 X0.501S0
G1 X0.594S700
G1 X1.267S0
G1 X0.249S700
G1 X0.828S0
G1 X0.578S700
G1 X2.442S0
G1 X0.065S700
G1 X1.133S0
G1 X0.625S700
G1 X1.956S0
G1 X0.72S700
G1 X1.06S0
G1 X0.556S700
G1 X0.676S0
G1 X0.567S700
G1 X0.87S0
G1 X0.72S700
G1 X2.397S0
G1 X0.572S700
G1 X1.666S0
G1 X-0.011Y0.1S0
G1 X-1.667S0
G1 X-0.569S700
G1 X-2.282S0
G1 X-0.726S700
G1 X-0.954S0
G1 X-0.573S700
G1 X-0.689S0
G1 X-0.564S700
G1 X-0.943S0
G1 X-0.725S700
G1 X-2.082S0
G1 X-0.702S700
G1 X-3.002S0
G1 X-1.114S700
G1 X-2.362S0
G1 X-0.6S700
G1 X-0.477S0
G1 X-0.578S700
G1 X-1.667S0
G1 Y0.1S0
G1 X1.667S0
G1 X0.578S700
G1 X0.461S0
G1 X0.598S700
G1 X2.38S0
G1 X1.718S700
G1 X2.11S0
G1 X0.954S700
G1 X2.223S0
G1 X0.726S700
G1 X0.826S0
G1 X0.573S700
G1 X0.695S0
G1 X0.577S700
G1 X1.052S0
G1 X0.726S700
G1 X2.147S0
G1 X0.585S700
G1 X1.667S0
G1 X-0.023Y0.1S0
G1 X-1.667S0
G1 X-0.609S700
G1 X-0.751S0
G1 X-0.085S700
G1 X-1.16S0
G1 X-0.724S700
G1 X-1.156S0
G1 X-0.574S700
G1 X-0.703S0
G1 X-0.581S700
G1 X-0.711S0
G1 X-0.724S700
G1 X-2.377S0
G1 X-1.285S700
G1 X-1.572S0
G1 X-1.877S700
G1 X-2.393S0
G1 X-0.592S700
G1 X-0.454S0
G1 X-0.578S700
G1 X-1.667S0
G1 Y0.1S0
G1 X1.667S0
G1 X0.578S700
G1 X0.447S0
G1 X0.597S700
G1 X2.395S0
G1 X1.983S700
G1 X1.151S0
G1 X1.526S700
G1 X2.552S0
G1 X0.704S700
G1 X0.632S0
G1 X0.577S700
G1 X0.709S0
G1 X0.571S700
G1 X1.256S0
G1 X0.703S700
G1 X0.717S0
G1 X0.564S700
G1 X0.555S0
G1 X0.654S700
G1 X1.667S0
G1 X-0.047Y0.1S0
G1 X-1.667S0
G1 X-0.864S700
G1 X-0.02S0
G1 X-0.823S700
G1 X-0.664S0
G1 X-0.673S700
G1 X-1.356S0
G1 X-0.575S700
G1 X-0.709S0
G1 X-0.573S700
G1 X-0.562S0
G1 X-0.674S700
G1 X-2.753S0
G1 X-1.594S700
G1 X-0.908S0
G1 X-2.059S700
G1 X-2.397S0
G1 X-0.595S700
G1 X-0.447S0
G1 X-0.578S700
G1 X-1.667S0
G1 Y0.1S0
G1 X1.667S0
G1 X0.578S700
G1 X0.456S0
G1 X0.592S700
G1 X2.391S0
G1 X0.578S700
G1 X0.562S0
G1 X0.976S700
G1 X0.741S0
G1 X1.542S700
G1 X3.015S0
G1 X0.643S700
G1 X0.495S0
G1 X0.571S700
G1 X0.706S0
G1 X0.575S700
G1 X1.459S0
G1 X0.643S700
G1 X0.613S0
G1 X1.622S700
G1 X1.666S0
G1 X-0.092Y0.1S0
G1 X-1.667S0
G1 X-1.51S700
G1 X-0.596S0
G1 X-0.593S700
G1 X-1.557S0
G1 X-0.567S700
G1 X-0.692S0
G1 X-0.579S700
G1 X-0.46S0
G1 X-0.594S700
G1 X-3.329S0
G1 X-1.4S700
G1 X-0.615S0
G1 X-0.697S700
G1 X-0.881S0
G1 X-0.578S700
G1 X-2.377S0
G1 X-0.596S700
G1 X-0.466S0
G1 X-0.578S700
G1 X-1.667S0
G1 Y0.1S0
G1 X1.667S0
G1 X0.578S700
G1 X0.48S0
G1 X0.596S700
G1 X2.363S0
G1 X0.578S700
G1 X0.964S0
G1 X0.636S700
G1 X0.525S0
G1 X1.163S700
G1 X3.693S0
G1 X0.571S700
G1 X0.437S0
G1 X0.576S700
G1 X0.676S0
G1 X0.561S700
G1 X1.628S0
G1 X0.571S700
G1 X0.578S0
G1 X1.363S700
G1 X1.667S0
G1 X-0.229Y0.1S0
G1 X-1.666S0
G1 X-0.459S700
G1 X-0.139S0
G1 X-0.518S700
G1 X-0.573S0
G1 X-0.562S700
G1 X-1.673S0
G1 X-0.56S700
G1 X-0.655S0
G1 X-0.571S700
G1 X-0.428S0
G1 X-0.562S700
G1 X-4.129S0
G1 X-0.8S700
G1 X-0.473S0
G1 X-0.608S700
G1 X-1.004S0
G1 X-0.578S700
G1 X-2.336S0
G1 X-0.602S700
G1 X-0.501S0
G1 X-0.578S700
G1 X-1.667S0
G1 Y0.1S0
G1 X1.667S0
G1 X0.578S700
G1 X0.522S0
G1 X0.611S700
G1 X1.216S0
G1 X0.193S700
G1 X0.897S0
G1 X0.578S700
G1 X1.019S0
G1 X0.596S700
G1 X0.445S0
G1 X0.626S700
G1 X3.527S0
G1 X0.076S700
G1 X0.748S0
G1 X0.547S700
G1 X0.435S0
G1 X0.566S700
G1 X0.633S0
G1 X0.558S700
G1 X0.886S0
G1 X0.076S700
G1 X0.748S0
G1 X0.547S700
G1 X0.583S0
G1 X0.517S700
G1 X1.667S0
G1 X0.017Y0.1S0
G1 X-1.666S0
G1 X-0.516S700
G1 X-0.594S0
G1 X-0.551S700
G1 X-0.74S0
G1 X-0.551S700
G1 X-0.45S0
G1 X-0.542S700
G1 X-0.612S0
G1 X-0.56S700
G1 X-0.443S0
G1 X-0.551S700
G1 X-0.74S0
G1 X-0.551S700
G1 X-1.567S0
G1 X-0.588S700
G1 X-0.972S0
G1 X-0.576S700
G1 X-0.435S0
G1 X-0.609S700
G1 X-1.003S0
G1 X-0.578S700
G1 X-0.506S0
G1 X-0.617S700
G1 X-1.142S0
G1 X-0.617S700
G1 X-0.557S0
G1 X-0.578S700
G1 X-1.667S0
G1 Y0.1S0
G1 X1.667S0
G1 X0.578S700
G1 X0.601S0
G1 X0.651S700
G1 X0.999S0
G1 X0.643S700
G1 X0.545S0
G1 X0.578S700
G1 X0.959S0
G1 X0.644S700
G1 X0.448S0
G1 X0.553S700
G1 X0.958S0
G1 X0.605S700
G1 X1.601S0
G1 X0.559S700
G1 X0.699S0
G1 X0.555S700
G1 X0.479S0
G1 X0.553S700
G1 X0.573S0
G1 X0.537S700
G1 X0.493S0
G1 X0.56S700
G1 X0.698S0
G1 X0.556S700
G1 X0.624S0
G1 X0.514S700
G1 X1.667S0
G1 X0.018Y0.1S0
G1 X-1.667S0
G1 X-0.513S700
G1 X-0.663S0
G1 X-0.584S700
G1 X-0.594S0
G1 X-0.589S700
G1 X-0.547S0
G1 X-0.56S700
G1 X-0.479S0
G1 X-0.567S700
G1 X-0.528S0
G1 X-0.584S700
G1 X-0.594S0
G1 X-0.589S700
G1 X-1.645S0
G1 X-0.642S700
G1 X-0.866S0
G1 X-0.573S700
G1 X-0.49S0
G1 X-0.71S700
G1 X-0.869S0
G1 X-0.578S700
G1 X-0.584S0
G1 X-0.701S700
G1 X-0.798S0
G1 X-0.709S700
G1 X-0.647S0
G1 X-0.578S700
G1 X-1.667S0
G1 Y0.1S0
G1 X1.667S0
G1 X0.578S700
G1 X0.719S0
G1 X0.823S700
G1 X0.443S0
G1 X0.829S700
G1 X0.625S0
G1 X0.672S700
G1 X0.303S0
G1 X1.143S700
G1 X0.56S0
G1 X0.684S700
G1 X0.564S0
G1 X0.762S700
G1 X1.72S0
G1 X0.677S700
G1 X0.352S0
G1 X0.683S700
G1 X0.582S0
G1 X0.642S700
G1 X0.26S0
G1 X0.642S700
G1 X0.61S0
G1 X0.678S700
G1 X0.352S0
G1 X0.683S700
G1 X0.701S0
G1 X1.535S700
G1 X1.667S0
G1 Y0.1S0
G1 X-1.667S0
G1 X-1.516S700
G1 X-0.783S0
G1 X-1.589S700
G1 X-0.724S0
G1 X-1.425S700
G1 X-0.711S0
G1 X-1.589S700
G1 X-1.834S0
G1 X-1.91S700
G1 X-0.657S0
G1 X-2.067S700
G1 X-0.706S0
G1 X-1.941S700
G1 X-0.792S0
G1 X-0.578S700
G1 X-1.667S0
G1 Y0.1S0
G1 X1.667S0
G1 X0.578S700
G1 X0.895S0
G1 X1.757S700
G1 X0.787S0
G1 X1.99S700
G1 X0.801S0
G1 X1.777S700
G1 X1.975S0
G1 X1.446S700
G1 X0.845S0
G1 X1.288S700
G1 X0.87S0
G1 X1.446S700
G1 X0.87S0
G1 X1.497S700
G1 X1.667S0
G1 Y0.1S0
G1 X-1.667S0
G1 X-1.479S700
G1 X-0.999S0
G1 X-1.225S700
G1 X-1.079S0
G1 X-1.072S700
G1 X-1.073S0
G1 X-1.225S700
G1 X-2.193S0
G1 X-1.571S700
G1 X-1.008S0
G1 X-1.881S700
G1 X-0.906S0
G1 X-1.526S700
G1 X-1.007S0
G1 X-0.578S700
G1 X-1.667S0
G1 Y0.1S0
G1 X1.667S0
G1 X0.578S700
G1 X1.192S0
G1 X1.192S700
G1 X1.055S0
G1 X1.717S700
G1 X1.339S0
G1 X1.25S700
G1 X2.493S0
G1 X0.934S700
G1 X1.369S0
G1 X0.778S700
G1 X1.368S0
G1 X0.934S700
G1 X1.163S0
G1 X1.46S700
G1 X1.667S0
G1 X-5.35Y0.1S0
G1 X-1.666S0
G1 X-0.03S700
G1 X-5.419S0
G1 X-0.641S700
G1 X-4.723S0
G1 X-0.601S700
G1 X-1.667S0
M9
G1 S0
M5
; return to starting pos
G0 X-62.037Y-32.45
M2
