; LightBurn 1.2.01
; GRBL device profile, current position
; Bounds: X0 Y0 to X85.6 Y54
G00 G17 G40 G21 G54
G91
M4
; Cut @ 3000 mm/min, 10% power
M8
G0 X85.6Y0
; Layer Lim
G1 X-85.6S0F3000
G1 Y54
G1 X85.6
G1 Y-54
; Image @ 4000.002 mm/min, 60% power
M8
G0 X-23.076Y38.03
; Layer C01
G1 X1.667F4000S0
G1 X0.84S569.7
G1 X1.667S0
G1 X15.421Y0.06S0
G1 X-1.667S0
G1 X-0.54S569.7
G1 X-1.14S0
G1 X-0.42S569.7
G1 X-0.48S0
G1 X-1.44S569.7
G1 X-0.6S0
G1 X-1.44S569.7
G1 X-0.36S0
G1 X-1.32S569.7
G1 X-2.221S0
G1 X-0.18S569.7
G1 X-1.56S0
G1 X-0.3S569.7
G1 X-0.6S0
G1 X-1.44S569.7
G1 X-1.2S0
G1 X-1.26S569.7
G1 X-0.66S0
G1 X-0.42S569.7
G1 X-1.74S0
G1 X-0.36S569.7
G1 X-0.54S0
G1 X-1.44S569.7
G1 X-1.321S0
G1 X-5.4S532.3
G1 X-1.667S0
G1 Y0.06S0
G1 X1.667S0
G1 X5.4S532.3
G1 X1.321S0
G1 X1.44S569.7
G1 X0.54S0
G1 X0.36S569.7
G1 X1.74S0
G1 X0.42S569.7
G1 X0.6S0
G1 X1.5S569.7
G1 X1.02S0
G1 X1.44S569.7
G1 X0.6S0
G1 X0.3S569.7
G1 X1.5S0
G1 X0.24S569.7
G1 X2.221S0
G1 X1.32S569.7
G1 X0.36S0
G1 X1.44S569.7
G1 X0.6S0
G1 X1.44S569.7
G1 X0.48S0
G1 X0.42S569.7
G1 X1.08S0
G1 X0.54S569.7
G1 X1.667S0
G1 X-0.06Y0.06S0
G1 X-1.667S0
G1 X-0.48S569.7
G1 X-1.08S0
G1 X-0.42S569.7
G1 X-0.42S0
G1 X-1.5S569.7
G1 X-0.54S0
G1 X-1.5S569.7
G1 X-0.3S0
G1 X-1.38S569.7
G1 X-2.221S0
G1 X-0.3S569.7
G1 X-1.44S0
G1 X-0.3S569.7
G1 X-0.54S0
G1 X-1.5S569.7
G1 X-0.96S0
G1 X-1.56S569.7
G1 X-0.6S0
G1 X-0.42S569.7
G1 X-1.74S0
G1 X-0.36S569.7
G1 X-0.48S0
G1 X-1.5S569.7
G1 X-1.321S0
G1 X-5.4S532.3
G1 X-1.667S0
G1 Y0.06S0
G1 X1.667S0
G1 X5.4S532.3
G1 X1.321S0
G1 X1.5S569.7
G1 X0.48S0
G1 X0.36S569.7
G1 X1.74S0
G1 X0.42S569.7
G1 X0.6S0
G1 X1.68S569.7
G1 X0.84S0
G1 X1.5S569.7
G1 X0.54S0
G1 X0.3S569.7
G1 X1.38S0
G1 X0.36S569.7
G1 X2.221S0
G1 X1.38S569.7
G1 X0.3S0
G1 X1.5S569.7
G1 X0.54S0
G1 X1.5S569.7
G1 X0.42S0
G1 X0.42S569.7
G1 X1.02S0
G1 X0.48S569.7
G1 X1.667S0
G1 Y0.06S0
G1 X-1.667S0
G1 X-0.54S569.7
G1 X-0.96S0
G1 X-0.42S569.7
G1 X-0.36S0
G1 X-1.56S569.7
G1 X-0.48S0
G1 X-1.56S569.7
G1 X-0.24S0
G1 X-1.44S569.7
G1 X-2.221S0
G1 X-0.42S569.7
G1 X-1.32S0
G1 X-0.3S569.7
G1 X-0.48S0
G1 X-1.56S569.7
G1 X-0.78S0
G1 X-0.78S569.7
G1 X-0.42S0
G1 X-0.54S569.7
G1 X-0.6S0
G1 X-0.42S569.7
G1 X-1.74S0
G1 X-0.36S569.7
G1 X-0.42S0
G1 X-1.56S569.7
G1 X-1.321S0
G1 X-5.4S532.3
G1 X-1.667S0
G1 Y0.06S0
G1 X1.667S0
G1 X5.4S532.3
G1 X1.321S0
G1 X0.42S569.7
G1 X1.56S0
G1 X0.36S569.7
G1 X1.74S0
G1 X0.42S569.7
G1 X0.6S0
G1 X0.36S569.7
G1 X0.78S0
G1 X0.66S569.7
G1 X0.72S0
G1 X0.42S569.7
G1 X1.62S0
G1 X0.3S569.7
G1 X1.32S0
G1 X0.42S569.7
G1 X2.221S0
G1 X0.36S569.7
G1 X1.32S0
G1 X0.42S569.7
G1 X1.62S0
G1 X0.42S569.7
G1 X1.5S0
G1 X0.42S569.7
G1 X0.96S0
G1 X0.48S569.7
G1 X1.667S0
G1 X-0.06Y0.06S0
G1 X-1.667S0
G1 X-0.48S569.7
G1 X-0.9S0
G1 X-0.42S569.7
G1 X-1.5S0
G1 X-0.42S569.7
G1 X-1.62S0
G1 X-0.42S569.7
G1 X-1.32S0
G1 X-0.36S569.7
G1 X-2.221S0
G1 X-0.48S569.7
G1 X-1.26S0
G1 X-0.3S569.7
G1 X-1.62S0
G1 X-0.42S569.7
G1 X-0.66S0
G1 X-0.6S569.7
G1 X-0.9S0
G1 X-0.36S569.7
G1 X-0.6S0
G1 X-0.42S569.7
G1 X-1.74S0
G1 X-0.36S569.7
G1 X-1.56S0
G1 X-0.42S569.7
G1 X-1.321S0
G1 X-5.4S532.3
G1 X-1.667S0
G1 Y0.06S0
G1 X1.667S0
G1 X5.4S532.3
G1 X1.321S0
G1 X0.42S569.7
G1 X1.56S0
G1 X0.36S569.7
G1 X1.74S0
G1 X0.42S569.7
G1 X0.6S0
G1 X0.36S569.7
G1 X1.02S0
G1 X0.54S569.7
G1 X0.6S0
G1 X0.42S569.7
G1 X1.62S0
G1 X0.3S569.7
G1 X1.2S0
G1 X0.54S569.7
G1 X2.221S0
G1 X0.36S569.7
G1 X1.32S0
G1 X0.42S569.7
G1 X1.62S0
G1 X0.42S569.7
G1 X1.5S0
G1 X0.42S569.7
G1 X0.84S0
G1 X0.48S569.7
G1 X1.667S0
G1 Y0.06S0
G1 X-1.667S0
G1 X-0.54S569.7
G1 X-0.78S0
G1 X-0.42S569.7
G1 X-1.5S0
G1 X-0.42S569.7
G1 X-1.62S0
G1 X-0.42S569.7
G1 X-1.32S0
G1 X-0.36S569.7
G1 X-2.221S0
G1 X-0.6S569.7
G1 X-1.14S0
G1 X-0.3S569.7
G1 X-1.62S0
G1 X-0.42S569.7
G1 X-0.6S0
G1 X-0.48S569.7
G1 X-1.08S0
G1 X-0.36S569.7
G1 X-0.6S0
G1 X-0.42S569.7
G1 X-1.74S0
G1 X-0.36S569.7
G1 X-1.56S0
G1 X-0.42S569.7
G1 X-1.321S0
G1 X-5.4S532.3
G1 X-1.667S0
G1 Y0.06S0
G1 X1.667S0
G1 X5.4S532.3
G1 X1.321S0
G1 X0.42S569.7
G1 X1.56S0
G1 X0.36S569.7
G1 X1.74S0
G1 X0.42S569.7
G1 X0.6S0
G1 X0.36S569.7
G1 X1.14S0
G1 X0.48S569.7
G1 X0.54S0
G1 X0.42S569.7
G1 X1.62S0
G1 X0.3S569.7
G1 X1.08S0
G1 X0.66S569.7
G1 X2.221S0
G1 X0.36S569.7
G1 X1.32S0
G1 X0.42S569.7
G1 X1.62S0
G1 X0.42S569.7
G1 X1.5S0
G1 X0.42S569.7
G1 X0.78S0
G1 X0.48S569.7
G1 X1.667S0
G1 X-0.06Y0.06S0
G1 X-1.667S0
G1 X-0.48S569.7
G1 X-0.72S0
G1 X-0.42S569.7
G1 X-1.5S0
G1 X-0.42S569.7
G1 X-1.62S0
G1 X-0.42S569.7
G1 X-1.32S0
G1 X-0.36S569.7
G1 X-2.221S0
G1 X-0.66S569.7
G1 X-1.08S0
G1 X-0.3S569.7
G1 X-1.62S0
G1 X-0.42S569.7
G1 X-0.48S0
G1 X-0.54S569.7
G1 X-1.14S0
G1 X-0.36S569.7
G1 X-0.6S0
G1 X-0.42S569.7
G1 X-1.74S0
G1 X-0.36S569.7
G1 X-1.56S0
G1 X-0.42S569.7
G1 X-1.321S0
G1 X-5.4S532.3
G1 X-1.667S0
G1 Y0.06S0
G1 X1.667S0
G1 X5.4S532.3
G1 X1.321S0
G1 X0.42S569.7
G1 X1.56S0
G1 X0.36S569.7
G1 X1.74S0
G1 X0.42S569.7
G1 X0.6S0
G1 X0.36S569.7
G1 X1.2S0
G1 X0.48S569.7
G1 X0.48S0
G1 X0.42S569.7
G1 X1.62S0
G1 X0.3S569.7
G1 X1.02S0
G1 X0.72S569.7
G1 X2.221S0
G1 X0.36S569.7
G1 X1.32S0
G1 X0.42S569.7
G1 X1.62S0
G1 X0.42S569.7
G1 X1.5S0
G1 X0.42S569.7
G1 X0.66S0
G1 X0.48S569.7
G1 X1.667S0
G1 Y0.06S0
G1 X-1.667S0
G1 X-0.48S569.7
G1 X-0.66S0
G1 X-0.42S569.7
G1 X-1.5S0
G1 X-0.42S569.7
G1 X-1.62S0
G1 X-0.42S569.7
G1 X-1.32S0
G1 X-0.36S569.7
G1 X-2.221S0
G1 X-0.78S569.7
G1 X-0.96S0
G1 X-0.3S569.7
G1 X-1.62S0
G1 X-0.42S569.7
G1 X-0.48S0
G1 X-0.42S569.7
G1 X-1.26S0
G1 X-0.36S569.7
G1 X-0.6S0
G1 X-0.42S569.7
G1 X-1.74S0
G1 X-0.36S569.7
G1 X-1.56S0
G1 X-0.42S569.7
G1 X-1.321S0
G1 X-5.4S532.3
G1 X-1.667S0
G1 Y0.06S0
G1 X1.667S0
G1 X5.4S532.3
G1 X1.321S0
G1 X0.42S569.7
G1 X1.56S0
G1 X0.36S569.7
G1 X0.84S0
G1 X0.06S569.7
G1 X0.84S0
G1 X0.42S569.7
G1 X0.6S0
G1 X0.36S569.7
G1 X1.26S0
G1 X0.48S569.7
G1 X0.42S0
G1 X0.42S569.7
G1 X1.62S0
G1 X0.3S569.7
G1 X0.9S0
G1 X0.84S569.7
G1 X2.221S0
G1 X0.36S569.7
G1 X1.32S0
G1 X0.42S569.7
G1 X1.62S0
G1 X0.42S569.7
G1 X1.5S0
G1 X0.42S569.7
G1 X0.6S0
G1 X0.48S569.7
G1 X1.667S0
G1 X-0.06Y0.06S0
G1 X-1.667S0
G1 X-0.48S569.7
G1 X-0.54S0
G1 X-0.42S569.7
G1 X-1.5S0
G1 X-0.42S569.7
G1 X-1.62S0
G1 X-0.42S569.7
G1 X-1.32S0
G1 X-0.36S569.7
G1 X-2.221S0
G1 X-0.9S569.7
G1 X-0.84S0
G1 X-0.3S569.7
G1 X-1.62S0
G1 X-0.42S569.7
G1 X-0.42S0
G1 X-0.42S569.7
G1 X-1.32S0
G1 X-0.36S569.7
G1 X-0.6S0
G1 X-0.42S569.7
G1 X-0.78S0
G1 X-0.18S569.7
G1 X-0.78S0
G1 X-0.36S569.7
G1 X-1.56S0
G1 X-0.42S569.7
G1 X-1.321S0
G1 X-5.4S532.3
G1 X-1.667S0
G1 Y0.06S0
G1 X1.667S0
G1 X5.4S532.3
G1 X1.321S0
G1 X0.42S569.7
G1 X1.56S0
G1 X0.36S569.7
G1 X0.72S0
G1 X0.24S569.7
G1 X0.78S0
G1 X0.42S569.7
G1 X0.6S0
G1 X0.36S569.7
G1 X1.32S0
G1 X0.42S569.7
G1 X0.42S0
G1 X0.42S569.7
G1 X1.62S0
G1 X0.3S569.7
G1 X0.84S0
G1 X0.48S569.7
G1 X0.06S0
G1 X0.36S569.7
G1 X2.221S0
G1 X0.36S569.7
G1 X1.32S0
G1 X0.42S569.7
G1 X1.62S0
G1 X0.42S569.7
G1 X1.5S0
G1 X0.42S569.7
G1 X0.48S0
G1 X0.48S569.7
G1 X1.667S0
G1 X-0.06Y0.06S0
G1 X-1.667S0
G1 X-0.42S569.7
G1 X-0.48S0
G1 X-0.42S569.7
G1 X-1.5S0
G1 X-0.42S569.7
G1 X-1.62S0
G1 X-0.42S569.7
G1 X-1.32S0
G1 X-0.36S569.7
G1 X-2.221S0
G1 X-0.36S569.7
G1 X-0.12S0
G1 X-0.48S569.7
G1 X-0.78S0
G1 X-0.3S569.7
G1 X-1.62S0
G1 X-0.42S569.7
G1 X-0.36S0
G1 X-0.48S569.7
G1 X-1.32S0
G1 X-0.36S569.7
G1 X-0.6S0
G1 X-0.42S569.7
G1 X-0.72S0
G1 X-0.3S569.7
G1 X-0.72S0
G1 X-0.36S569.7
G1 X-1.56S0
G1 X-0.42S569.7
G1 X-1.321S0
G1 X-5.4S532.3
G1 X-1.667S0
G1 Y0.06S0
G1 X1.667S0
G1 X5.4S532.3
G1 X1.321S0
G1 X0.42S569.7
G1 X1.56S0
G1 X0.36S569.7
G1 X0.66S0
G1 X0.42S569.7
G1 X0.66S0
G1 X0.42S569.7
G1 X0.6S0
G1 X0.36S569.7
G1 X1.38S0
G1 X0.42S569.7
G1 X0.36S0
G1 X0.42S569.7
G1 X1.62S0
G1 X0.3S569.7
G1 X0.72S0
G1 X0.54S569.7
G1 X0.12S0
G1 X0.36S569.7
G1 X0.781S0
G1 X0.66S569.7
G1 X0.78S0
G1 X0.36S569.7
G1 X1.32S0
G1 X0.42S569.7
G1 X1.62S0
G1 X0.42S569.7
G1 X1.5S0
G1 X0.42S569.7
G1 X0.42S0
G1 X0.48S569.7
G1 X1.667S0
G1 X-0.06Y0.06S0
G1 X-1.667S0
G1 X-1.26S569.7
G1 X-1.5S0
G1 X-0.42S569.7
G1 X-1.62S0
G1 X-0.42S569.7
G1 X-1.32S0
G1 X-0.36S569.7
G1 X-0.78S0
G1 X-0.66S569.7
G1 X-0.781S0
G1 X-0.36S569.7
G1 X-0.18S0
G1 X-0.54S569.7
G1 X-0.66S0
G1 X-0.3S569.7
G1 X-1.62S0
G1 X-0.42S569.7
G1 X-0.36S0
G1 X-0.42S569.7
G1 X-1.38S0
G1 X-0.36S569.7
G1 X-0.6S0
G1 X-0.42S569.7
G1 X-0.6S0
G1 X-0.54S569.7
G1 X-0.6S0
G1 X-0.36S569.7
G1 X-1.56S0
G1 X-0.42S569.7
G1 X-1.321S0
G1 X-5.4S532.3
G1 X-1.667S0
G1 Y0.06S0
G1 X1.667S0
G1 X5.4S532.3
G1 X1.321S0
G1 X0.42S569.7
G1 X1.56S0
G1 X0.36S569.7
G1 X0.54S0
G1 X0.6S569.7
G1 X0.6S0
G1 X0.42S569.7
G1 X0.6S0
G1 X0.36S569.7
G1 X1.38S0
G1 X0.42S569.7
G1 X0.36S0
G1 X0.42S569.7
G1 X1.62S0
G1 X0.3S569.7
G1 X0.6S0
G1 X0.54S569.7
G1 X0.24S0
G1 X0.36S569.7
G1 X0.781S0
G1 X0.66S569.7
G1 X0.78S0
G1 X0.36S569.7
G1 X1.32S0
G1 X0.42S569.7
G1 X1.62S0
G1 X0.42S569.7
G1 X1.5S0
G1 X1.2S569.7
G1 X1.667S0
G1 Y0.06S0
G1 X-1.667S0
G1 X-1.2S569.7
G1 X-0.72S0
G1 X-1.2S569.7
G1 X-0.84S0
G1 X-1.2S569.7
G1 X-1.32S0
G1 X-0.36S569.7
G1 X-0.78S0
G1 X-0.66S569.7
G1 X-0.781S0
G1 X-0.36S569.7
G1 X-0.3S0
G1 X-0.48S569.7
G1 X-0.6S0
G1 X-0.3S569.7
G1 X-0.84S0
G1 X-1.2S569.7
G1 X-0.36S0
G1 X-0.42S569.7
G1 X-1.38S0
G1 X-0.36S569.7
G1 X-0.6S0
G1 X-0.42S569.7
G1 X-0.54S0
G1 X-0.66S569.7
G1 X-0.54S0
G1 X-0.36S569.7
G1 X-0.78S0
G1 X-1.2S569.7
G1 X-1.321S0
G1 X-5.4S532.3
G1 X-1.667S0
G1 Y0.06S0
G1 X1.667S0
G1 X5.4S532.3
G1 X1.321S0
G1 X1.2S569.7
G1 X0.78S0
G1 X0.36S569.7
G1 X0.48S0
G1 X0.78S569.7
G1 X0.48S0
G1 X0.42S569.7
G1 X0.6S0
G1 X0.36S569.7
G1 X1.38S0
G1 X0.42S569.7
G1 X0.36S0
G1 X1.2S569.7
G1 X0.84S0
G1 X0.3S569.7
G1 X0.54S0
G1 X0.48S569.7
G1 X0.36S0
G1 X0.36S569.7
G1 X0.781S0
G1 X0.66S569.7
G1 X0.78S0
G1 X0.36S569.7
G1 X1.32S0
G1 X1.2S569.7
G1 X0.84S0
G1 X1.2S569.7
G1 X0.72S0
G1 X1.32S569.7
G1 X1.667S0
G1 X0.12Y0.06S0
G1 X-1.667S0
G1 X-1.44S569.7
G1 X-0.66S0
G1 X-1.26S569.7
G1 X-0.78S0
G1 X-1.26S569.7
G1 X-1.32S0
G1 X-0.36S569.7
G1 X-0.78S0
G1 X-0.66S569.7
G1 X-0.781S0
G1 X-0.36S569.7
G1 X-0.36S0
G1 X-0.54S569.7
G1 X-0.48S0
G1 X-0.3S569.7
G1 X-0.78S0
G1 X-1.26S569.7
G1 X-0.36S0
G1 X-0.42S569.7
G1 X-1.38S0
G1 X-0.36S569.7
G1 X-0.6S0
G1 X-0.42S569.7
G1 X-0.42S0
G1 X-0.9S569.7
G1 X-0.42S0
G1 X-0.36S569.7
G1 X-0.72S0
G1 X-1.26S569.7
G1 X-1.321S0
G1 X-5.4S532.3
G1 X-1.667S0
G1 Y0.06S0
G1 X1.667S0
G1 X5.4S532.3
G1 X1.321S0
G1 X1.26S569.7
G1 X0.72S0
G1 X0.36S569.7
G1 X0.42S0
G1 X0.48S569.7
G1 X0.06S0
G1 X0.36S569.7
G1 X0.42S0
G1 X0.42S569.7
G1 X0.6S0
G1 X0.36S569.7
G1 X1.38S0
G1 X0.42S569.7
G1 X0.36S0
G1 X1.26S569.7
G1 X0.78S0
G1 X0.3S569.7
G1 X0.42S0
G1 X0.54S569.7
G1 X0.42S0
G1 X0.36S569.7
G1 X0.781S0
G1 X0.66S569.7
G1 X0.78S0
G1 X0.36S569.7
G1 X1.32S0
G1 X1.26S569.7
G1 X0.78S0
G1 X1.26S569.7
G1 X0.66S0
G1 X0.42S569.7
G1 X0.6S0
G1 X0.48S569.7
G1 X1.667S0
G1 X0.06Y0.06S0
G1 X-1.667S0
G1 X-0.48S569.7
G1 X-0.66S0
G1 X-0.42S569.7
G1 X-0.66S0
G1 X-1.26S569.7
G1 X-0.78S0
G1 X-1.26S569.7
G1 X-1.32S0
G1 X-0.36S569.7
G1 X-0.78S0
G1 X-0.66S569.7
G1 X-0.781S0
G1 X-0.36S569.7
G1 X-0.48S0
G1 X-0.54S569.7
G1 X-0.36S0
G1 X-0.3S569.7
G1 X-0.72S0
G1 X-1.32S569.7
G1 X-0.36S0
G1 X-0.42S569.7
G1 X-1.38S0
G1 X-0.36S569.7
G1 X-0.6S0
G1 X-0.42S569.7
G1 X-0.36S0
G1 X-0.36S569.7
G1 X-0.18S0
G1 X-0.48S569.7
G1 X-0.36S0
G1 X-0.36S569.7
G1 X-0.66S0
G1 X-1.32S569.7
G1 X-1.321S0
G1 X-5.4S532.3
G1 X-1.667S0
G1 Y0.06S0
G1 X1.667S0
G1 X5.4S532.3
G1 X1.321S0
G1 X0.42S569.7
G1 X1.56S0
G1 X0.36S569.7
G1 X0.3S0
G1 X0.48S569.7
G1 X0.3S0
G1 X0.36S569.7
G1 X0.3S0
G1 X0.42S569.7
G1 X0.6S0
G1 X0.36S569.7
G1 X1.38S0
G1 X0.42S569.7
G1 X0.36S0
G1 X0.42S569.7
G1 X1.62S0
G1 X0.3S569.7
G1 X0.36S0
G1 X0.48S569.7
G1 X0.54S0
G1 X0.36S569.7
G1 X0.781S0
G1 X0.66S569.7
G1 X0.78S0
G1 X0.36S569.7
G1 X1.32S0
G1 X0.42S569.7
G1 X1.62S0
G1 X0.42S569.7
G1 X1.5S0
G1 X0.42S569.7
G1 X0.72S0
G1 X0.42S569.7
G1 X1.667S0
G1 X0.06Y0.06S0
G1 X-1.667S0
G1 X-0.42S569.7
G1 X-0.78S0
G1 X-0.42S569.7
G1 X-1.5S0
G1 X-0.42S569.7
G1 X-1.62S0
G1 X-0.42S569.7
G1 X-1.32S0
G1 X-0.36S569.7
G1 X-0.78S0
G1 X-0.66S569.7
G1 X-0.781S0
G1 X-0.36S569.7
G1 X-0.6S0
G1 X-0.48S569.7
G1 X-0.3S0
G1 X-0.3S569.7
G1 X-1.62S0
G1 X-0.42S569.7
G1 X-0.36S0
G1 X-0.42S569.7
G1 X-1.38S0
G1 X-0.36S569.7
G1 X-0.6S0
G1 X-0.42S569.7
G1 X-0.24S0
G1 X-0.42S569.7
G1 X-0.3S0
G1 X-0.54S569.7
G1 X-0.24S0
G1 X-0.36S569.7
G1 X-1.56S0
G1 X-0.42S569.7
G1 X-1.321S0
G1 X-5.4S532.3
G1 X-1.667S0
G1 Y0.06S0
G1 X1.667S0
G1 X5.4S532.3
G1 X1.321S0
G1 X0.42S569.7
G1 X1.56S0
G1 X0.36S569.7
G1 X0.24S0
G1 X0.48S569.7
G1 X0.42S0
G1 X0.36S569.7
G1 X0.24S0
G1 X0.42S569.7
G1 X0.6S0
G1 X0.36S569.7
G1 X1.32S0
G1 X0.48S569.7
G1 X0.36S0
G1 X0.42S569.7
G1 X1.62S0
G1 X0.3S569.7
G1 X0.24S0
G1 X0.54S569.7
G1 X0.6S0
G1 X0.36S569.7
G1 X0.781S0
G1 X0.66S569.7
G1 X0.78S0
G1 X0.36S569.7
G1 X1.32S0
G1 X0.42S569.7
G1 X1.62S0
G1 X0.42S569.7
G1 X1.5S0
G1 X0.42S569.7
G1 X0.84S0
G1 X0.36S569.7
G1 X1.667S0
G1 X0.06Y0.06S0
G1 X-1.667S0
G1 X-0.42S569.7
G1 X-0.84S0
G1 X-0.42S569.7
G1 X-1.5S0
G1 X-0.42S569.7
G1 X-1.62S0
G1 X-0.42S569.7
G1 X-1.32S0
G1 X-0.36S569.7
G1 X-2.221S0
G1 X-0.36S569.7
G1 X-0.66S0
G1 X-0.54S569.7
G1 X-0.18S0
G1 X-0.3S569.7
G1 X-1.62S0
G1 X-0.42S569.7
G1 X-0.36S0
G1 X-0.48S569.7
G1 X-1.32S0
G1 X-0.36S569.7
G1 X-0.6S0
G1 X-0.42S569.7
G1 X-0.18S0
G1 X-0.36S569.7
G1 X-0.54S0
G1 X-0.48S569.7
G1 X-0.18S0
G1 X-0.36S569.7
G1 X-1.56S0
G1 X-0.42S569.7
G1 X-1.321S0
G1 X-5.4S532.3
G1 X-1.667S0
G1 Y0.06S0
G1 X1.667S0
G1 X5.4S532.3
G1 X1.321S0
G1 X0.42S569.7
G1 X1.56S0
G1 X0.36S569.7
G1 X0.12S0
G1 X0.54S569.7
G1 X0.6S0
G1 X0.36S569.7
G1 X0.12S0
G1 X0.42S569.7
G1 X0.6S0
G1 X0.36S569.7
G1 X1.32S0
G1 X0.42S569.7
G1 X0.42S0
G1 X0.42S569.7
G1 X1.62S0
G1 X0.3S569.7
G1 X0.12S0
G1 X0.54S569.7
G1 X0.72S0
G1 X0.36S569.7
G1 X2.221S0
G1 X0.36S569.7
G1 X1.32S0
G1 X0.42S569.7
G1 X1.62S0
G1 X0.42S569.7
G1 X1.5S0
G1 X0.42S569.7
G1 X0.9S0
G1 X0.36S569.7
G1 X1.667S0
G1 Y0.06S0
G1 X-1.667S0
G1 X-0.36S569.7
G1 X-0.9S0
G1 X-0.42S569.7
G1 X-1.5S0
G1 X-0.42S569.7
G1 X-1.62S0
G1 X-0.42S569.7
G1 X-1.32S0
G1 X-0.36S569.7
G1 X-2.221S0
G1 X-0.36S569.7
G1 X-0.78S0
G1 X-0.48S569.7
G1 X-0.12S0
G1 X-0.3S569.7
G1 X-1.62S0
G1 X-0.42S569.7
G1 X-0.42S0
G1 X-0.48S569.7
G1 X-1.26S0
G1 X-0.36S569.7
G1 X-0.6S0
G1 X-0.42S569.7
G1 X-0.06S0
G1 X-0.42S569.7
G1 X-0.66S0
G1 X-0.48S569.7
G1 X-0.12S0
G1 X-0.36S569.7
G1 X-1.56S0
G1 X-0.42S569.7
G1 X-1.321S0
G1 X-5.4S532.3
G1 X-1.667S0
G1 Y0.06S0
G1 X1.667S0
G1 X5.4S532.3
G1 X1.321S0
G1 X0.42S569.7
G1 X1.56S0
G1 X0.36S569.7
G1 X0.06S0
G1 X0.48S569.7
G1 X0.78S0
G1 X0.36S569.7
G1 X0.06S0
G1 X0.42S569.7
G1 X0.6S0
G1 X0.36S569.7
G1 X1.26S0
G1 X0.48S569.7
G1 X0.42S0
G1 X0.42S569.7
G1 X1.62S0
G1 X0.3S569.7
G1 X0.06S0
G1 X0.48S569.7
G1 X0.84S0
G1 X0.36S569.7
G1 X2.221S0
G1 X0.36S569.7
G1 X1.32S0
G1 X0.42S569.7
G1 X1.62S0
G1 X0.42S569.7
G1 X1.5S0
G1 X0.42S569.7
G1 X0.9S0
G1 X0.42S569.7
G1 X1.667S0
G1 Y0.06S0
G1 X-1.667S0
G1 X-0.42S569.7
G1 X-0.9S0
G1 X-0.42S569.7
G1 X-1.5S0
G1 X-0.42S569.7
G1 X-1.62S0
G1 X-0.42S569.7
G1 X-1.32S0
G1 X-0.36S569.7
G1 X-2.221S0
G1 X-0.36S569.7
G1 X-0.84S0
G1 X-0.84S569.7
G1 X-1.62S0
G1 X-0.42S569.7
G1 X-0.48S0
G1 X-0.42S569.7
G1 X-1.26S0
G1 X-0.36S569.7
G1 X-0.6S0
G1 X-0.78S569.7
G1 X-0.9S0
G1 X-0.84S569.7
G1 X-1.56S0
G1 X-0.42S569.7
G1 X-1.321S0
G1 X-5.4S532.3
G1 X-1.667S0
G1 Y0.06S0
G1 X1.667S0
G1 X5.4S532.3
G1 X1.321S0
G1 X0.42S569.7
G1 X1.56S0
G1 X0.84S569.7
G1 X0.96S0
G1 X0.72S569.7
G1 X0.6S0
G1 X0.36S569.7
G1 X1.2S0
G1 X0.48S569.7
G1 X0.48S0
G1 X0.42S569.7
G1 X1.62S0
G1 X0.78S569.7
G1 X0.9S0
G1 X0.36S569.7
G1 X2.221S0
G1 X0.36S569.7
G1 X1.32S0
G1 X0.42S569.7
G1 X1.62S0
G1 X0.42S569.7
G1 X1.5S0
G1 X0.42S569.7
G1 X0.9S0
G1 X0.42S569.7
G1 X1.667S0
G1 Y0.06S0
G1 X-1.667S0
G1 X-0.42S569.7
G1 X-0.9S0
G1 X-0.42S569.7
G1 X-1.5S0
G1 X-0.42S569.7
G1 X-1.62S0
G1 X-0.42S569.7
G1 X-1.32S0
G1 X-0.36S569.7
G1 X-2.221S0
G1 X-0.36S569.7
G1 X-0.96S0
G1 X-0.72S569.7
G1 X-1.62S0
G1 X-0.42S569.7
G1 X-0.48S0
G1 X-0.54S569.7
G1 X-1.14S0
G1 X-0.36S569.7
G1 X-0.6S0
G1 X-0.72S569.7
G1 X-1.02S0
G1 X-0.78S569.7
G1 X-1.56S0
G1 X-0.42S569.7
G1 X-1.321S0
G1 X-5.4S532.3
G1 X-1.667S0
G1 Y0.06S0
G1 X1.667S0
G1 X5.4S532.3
G1 X1.321S0
G1 X0.42S569.7
G1 X1.56S0
G1 X0.72S569.7
G1 X1.14S0
G1 X0.66S569.7
G1 X0.6S0
G1 X0.36S569.7
G1 X1.08S0
G1 X0.54S569.7
G1 X0.54S0
G1 X0.42S569.7
G1 X1.62S0
G1 X0.66S569.7
G1 X1.02S0
G1 X0.36S569.7
G1 X2.221S0
G1 X0.36S569.7
G1 X1.32S0
G1 X0.42S569.7
G1 X1.62S0
G1 X0.42S569.7
G1 X1.5S0
G1 X0.42S569.7
G1 X0.84S0
G1 X0.42S569.7
G1 X1.667S0
G1 Y0.06S0
G1 X-1.667S0
G1 X-0.42S569.7
G1 X-0.84S0
G1 X-0.42S569.7
G1 X-1.5S0
G1 X-0.42S569.7
G1 X-1.62S0
G1 X-0.42S569.7
G1 X-1.32S0
G1 X-0.36S569.7
G1 X-2.221S0
G1 X-0.36S569.7
G1 X-1.08S0
G1 X-0.6S569.7
G1 X-1.62S0
G1 X-0.42S569.7
G1 X-0.6S0
G1 X-0.54S569.7
G1 X-1.02S0
G1 X-0.36S569.7
G1 X-0.6S0
G1 X-0.6S569.7
G1 X-1.2S0
G1 X-0.72S569.7
G1 X-1.56S0
G1 X-0.42S569.7
G1 X-1.321S0
G1 X-5.4S532.3
G1 X-1.667S0
G1 Y0.06S0
G1 X1.667S0
G1 X5.4S532.3
G1 X1.321S0
G1 X0.42S569.7
G1 X1.56S0
G1 X0.66S569.7
G1 X1.32S0
G1 X0.54S569.7
G1 X0.6S0
G1 X0.36S569.7
G1 X0.96S0
G1 X0.6S569.7
G1 X0.6S0
G1 X0.42S569.7
G1 X1.62S0
G1 X0.6S569.7
G1 X1.08S0
G1 X0.36S569.7
G1 X2.221S0
G1 X0.36S569.7
G1 X1.32S0
G1 X0.42S569.7
G1 X1.62S0
G1 X0.42S569.7
G1 X1.5S0
G1 X0.42S569.7
G1 X0.78S0
G1 X0.48S569.7
G1 X1.667S0
G1 X-0.06Y0.06S0
G1 X-1.667S0
G1 X-0.48S569.7
G1 X-0.72S0
G1 X-0.42S569.7
G1 X-1.5S0
G1 X-0.42S569.7
G1 X-1.62S0
G1 X-0.42S569.7
G1 X-1.32S0
G1 X-0.36S569.7
G1 X-2.221S0
G1 X-0.36S569.7
G1 X-1.14S0
G1 X-0.54S569.7
G1 X-1.62S0
G1 X-0.42S569.7
G1 X-0.66S0
G1 X-0.66S569.7
G1 X-0.84S0
G1 X-0.36S569.7
G1 X-0.6S0
G1 X-0.54S569.7
G1 X-1.38S0
G1 X-0.6S569.7
G1 X-1.56S0
G1 X-0.42S569.7
G1 X-1.321S0
G1 X-5.4S532.3
G1 X-1.667S0
G1 Y0.06S0
G1 X1.667S0
G1 X5.4S532.3
G1 X1.321S0
G1 X0.42S569.7
G1 X1.56S0
G1 X0.54S569.7
G1 X1.5S0
G1 X0.48S569.7
G1 X0.6S0
G1 X0.36S569.7
G1 X0.72S0
G1 X0.72S569.7
G1 X0.72S0
G1 X0.42S569.7
G1 X1.56S0
G1 X0.54S569.7
G1 X1.2S0
G1 X0.36S569.7
G1 X2.221S0
G1 X0.36S569.7
G1 X1.32S0
G1 X0.42S569.7
G1 X1.62S0
G1 X0.42S569.7
G1 X1.5S0
G1 X0.42S569.7
G1 X0.6S0
G1 X0.6S569.7
G1 X1.667S0
G1 X-0.06Y0.06S0
G1 X-1.667S0
G1 X-0.84S569.7
G1 X-0.3S0
G1 X-0.42S569.7
G1 X-0.54S0
G1 X-1.38S569.7
G1 X-0.66S0
G1 X-1.38S569.7
G1 X-1.32S0
G1 X-0.36S569.7
G1 X-2.221S0
G1 X-0.36S569.7
G1 X-1.26S0
G1 X-0.48S569.7
G1 X-0.6S0
G1 X-1.38S569.7
G1 X-0.78S0
G1 X-1.02S569.7
G1 X-0.36S0
G1 X-0.36S569.7
G1 X-0.6S0
G1 X-0.42S569.7
G1 X-1.56S0
G1 X-0.54S569.7
G1 X-0.6S0
G1 X-1.38S569.7
G1 X-1.321S0
G1 X-5.4S532.3
G1 X-1.667S0
G1 Y0.06S0
G1 X1.667S0
G1 X5.4S532.3
G1 X1.321S0
G1 X1.44S569.7
G1 X0.54S0
G1 X0.48S569.7
G1 X1.68S0
G1 X0.36S569.7
G1 X0.6S0
G1 X1.62S569.7
G1 X0.9S0
G1 X1.44S569.7
G1 X0.48S0
G1 X0.48S569.7
G1 X1.32S0
G1 X0.36S569.7
G1 X2.221S0
G1 X0.36S569.7
G1 X1.32S0
G1 X1.38S569.7
G1 X0.66S0
G1 X1.38S569.7
G1 X0.54S0
G1 X1.5S569.7
G1 X1.667S0
G1 X-0.06Y0.06S0
G1 X-1.667S0
G1 X-1.44S569.7
G1 X-0.48S0
G1 X-1.44S569.7
G1 X-0.6S0
G1 X-1.44S569.7
G1 X-1.32S0
G1 X-0.36S569.7
G1 X-2.221S0
G1 X-0.36S569.7
G1 X-1.32S0
G1 X-0.54S569.7
G1 X-0.42S0
G1 X-1.44S569.7
G1 X-0.96S0
G1 X-1.56S569.7
G1 X-0.6S0
G1 X-0.3S569.7
G1 X-1.8S0
G1 X-0.48S569.7
G1 X-0.48S0
G1 X-1.44S569.7
G1 X-1.321S0
G1 X-5.4S532.3
G1 X-1.667S0
G1 Y0.06S0
G1 X1.667S0
G1 X5.4S532.3
G1 X1.321S0
G1 X1.44S569.7
G1 X0.42S0
G1 X0.54S569.7
G1 X1.8S0
G1 X0.3S569.7
G1 X0.6S0
G1 X1.44S569.7
G1 X1.08S0
G1 X1.44S569.7
G1 X0.36S0
G1 X0.54S569.7
G1 X1.38S0
G1 X0.36S569.7
G1 X2.221S0
G1 X0.36S569.7
G1 X1.32S0
G1 X1.44S569.7
G1 X0.6S0
G1 X1.44S569.7
G1 X0.48S0
G1 X1.32S569.7
G1 X1.667S0
G1 X-0.12Y0.06S0
G1 X-1.667S0
G1 X-1.08S569.7
G1 X-0.54S0
G1 X-1.5S569.7
G1 X-0.54S0
G1 X-1.5S569.7
G1 X-1.32S0
G1 X-0.36S569.7
G1 X-2.221S0
G1 X-0.36S569.7
G1 X-1.44S0
G1 X-0.54S569.7
G1 X-0.24S0
G1 X-1.5S569.7
G1 X-1.26S0
G1 X-1.2S569.7
G1 X-0.66S0
G1 X-0.24S569.7
G1 X-1.92S0
G1 X-0.48S569.7
G1 X-0.36S0
G1 X-1.5S569.7
G1 X-1.321S0
G1 X-5.4S532.3
G1 X-1.667S0
G1 X2.701Y0.06S0
G1 X1.666S0
G1 X2.7S532.3
G1 X6.961S0
G1 X0.42S569.7
G1 X14.041S0
G1 X0.36S569.7
G1 X1.667S0
G1 X-21.782Y0.06S0
G1 X-1.667S0
G1 X-2.7S532.3
G1 X-1.666S0
G1 Y0.06S0
G1 X1.666S0
G1 X2.7S532.3
G1 X1.667S0
G1 Y0.06S0
G1 X-1.667S0
G1 X-2.7S532.3
G1 X-1.666S0
G1 Y0.06S0
G1 X1.666S0
G1 X2.7S532.3
G1 X1.667S0
G1 Y0.06S0
G1 X-1.667S0
G1 X-2.7S532.3
G1 X-1.666S0
G1 X-3.061Y0.06S0
G1 X1.667S0
G1 X2.7S566.9
G1 X0.36S0
G1 X2.7S532.3
G1 X1.667S0
G1 Y0.06S0
G1 X-1.667S0
G1 X-2.7S532.3
G1 X-0.36S0
G1 X-2.7S566.9
G1 X-1.667S0
G1 Y0.06S0
G1 X1.667S0
G1 X2.7S566.9
G1 X0.36S0
G1 X2.7S532.3
G1 X1.667S0
G1 Y0.06S0
G1 X-1.667S0
G1 X-2.7S532.3
G1 X-0.36S0
G1 X-2.7S566.9
G1 X-1.667S0
G1 Y0.06S0
G1 X1.667S0
G1 X2.7S566.9
G1 X0.36S0
G1 X2.7S532.3
G1 X4.501S0
G1 X0.3S569.7
G1 X2.28S0
G1 X0.24S569.7
G1 X4.08S0
G1 X0.24S569.7
G1 X2.041S0
G1 X0.24S569.7
G1 X4.38S0
G1 X0.3S569.7
G1 X1.667S0
G1 X4.26Y0.06S0
G1 X-1.667S0
G1 X-1.02S569.7
G1 X-0.72S0
G1 X-1.02S569.7
G1 X-1.26S0
G1 X-0.72S569.7
G1 X-1.32S0
G1 X-0.3S569.7
G1 X-0.96S0
G1 X-0.3S569.7
G1 X-1.02S0
G1 X-0.781S569.7
G1 X-1.56S0
G1 X-0.78S569.7
G1 X-0.9S0
G1 X-0.3S569.7
G1 X-0.96S0
G1 X-0.36S569.7
G1 X-0.96S0
G1 X-0.84S569.7
G1 X-1.74S0
G1 X-0.78S569.7
G1 X-1.32S0
G1 X-0.3S569.7
G1 X-0.96S0
G1 X-0.36S569.7
G1 X-1.321S0
G1 X-2.7S532.3
G1 X-0.36S0
G1 X-2.7S566.9
G1 X-1.667S0
G1 Y0.06S0
G1 X1.667S0
G1 X2.7S566.9
G1 X0.36S0
G1 X2.7S532.3
G1 X1.321S0
G1 X0.36S569.7
G1 X0.96S0
G1 X0.3S569.7
G1 X1.2S0
G1 X1.02S569.7
G1 X1.5S0
G1 X1.08S569.7
G1 X0.84S0
G1 X0.36S569.7
G1 X0.96S0
G1 X0.3S569.7
G1 X0.84S0
G1 X0.9S569.7
G1 X1.32S0
G1 X1.081S569.7
G1 X0.9S0
G1 X0.3S569.7
G1 X0.96S0
G1 X0.3S569.7
G1 X1.2S0
G1 X0.9S569.7
G1 X1.2S0
G1 X1.02S569.7
G1 X0.72S0
G1 X1.08S569.7
G1 X1.667S0
G1 Y0.06S0
G1 X-1.667S0
G1 X-1.08S569.7
G1 X-0.66S0
G1 X-1.08S569.7
G1 X-1.08S0
G1 X-1.14S569.7
G1 X-1.08S0
G1 X-0.3S569.7
G1 X-0.96S0
G1 X-0.3S569.7
G1 X-0.78S0
G1 X-1.261S569.7
G1 X-1.2S0
G1 X-0.96S569.7
G1 X-0.84S0
G1 X-0.3S569.7
G1 X-0.96S0
G1 X-0.36S569.7
G1 X-0.78S0
G1 X-1.2S569.7
G1 X-1.38S0
G1 X-1.2S569.7
G1 X-1.08S0
G1 X-0.3S569.7
G1 X-0.96S0
G1 X-0.36S569.7
G1 X-1.321S0
G1 X-2.7S532.3
G1 X-0.36S0
G1 X-2.7S566.9
G1 X-1.667S0
G1 Y0.06S0
G1 X1.667S0
G1 X2.7S566.9
G1 X0.36S0
G1 X2.7S532.3
G1 X1.321S0
G1 X0.36S569.7
G1 X0.96S0
G1 X0.3S569.7
G1 X1.02S0
G1 X1.38S569.7
G1 X1.14S0
G1 X1.32S569.7
G1 X0.78S0
G1 X0.36S569.7
G1 X0.96S0
G1 X0.3S569.7
G1 X0.84S0
G1 X1.02S569.7
G1 X1.02S0
G1 X1.381S569.7
G1 X0.78S0
G1 X0.3S569.7
G1 X0.96S0
G1 X0.3S569.7
G1 X1.08S0
G1 X0.54S569.7
G1 X0.12S0
G1 X0.54S569.7
G1 X1.02S0
G1 X1.08S569.7
G1 X0.66S0
G1 X1.14S569.7
G1 X1.667S0
G1 X-0.84Y0.06S0
G1 X-1.667S0
G1 X-0.3S569.7
G1 X-1.44S0
G1 X-0.3S569.7
G1 X-1.02S0
G1 X-0.36S569.7
G1 X-0.48S0
G1 X-0.42S569.7
G1 X-1.02S0
G1 X-0.3S569.7
G1 X-0.96S0
G1 X-0.3S569.7
G1 X-0.78S0
G1 X-0.36S569.7
G1 X-0.541S0
G1 X-0.54S569.7
G1 X-0.9S0
G1 X-0.42S569.7
G1 X-0.48S0
G1 X-0.24S569.7
G1 X-0.78S0
G1 X-0.3S569.7
G1 X-0.96S0
G1 X-0.36S569.7
G1 X-0.78S0
G1 X-0.3S569.7
G1 X-0.54S0
G1 X-0.54S569.7
G1 X-1.02S0
G1 X-0.48S569.7
G1 X-0.54S0
G1 X-0.48S569.7
G1 X-0.96S0
G1 X-0.3S569.7
G1 X-0.96S0
G1 X-0.36S569.7
G1 X-1.321S0
G1 X-2.7S532.3
G1 X-0.36S0
G1 X-2.7S566.9
G1 X-1.667S0
G1 Y0.06S0
G1 X1.667S0
G1 X2.7S566.9
G1 X0.36S0
G1 X2.7S532.3
G1 X1.321S0
G1 X0.36S569.7
G1 X0.96S0
G1 X0.3S569.7
G1 X0.9S0
G1 X0.42S569.7
G1 X0.78S0
G1 X0.42S569.7
G1 X0.9S0
G1 X0.48S569.7
G1 X0.78S0
G1 X0.18S569.7
G1 X0.78S0
G1 X0.36S569.7
G1 X0.96S0
G1 X0.3S569.7
G1 X0.78S0
G1 X0.12S569.7
G1 X0.72S0
G1 X0.3S569.7
G1 X0.84S0
G1 X0.48S569.7
G1 X0.781S0
G1 X0.24S569.7
G1 X0.78S0
G1 X0.3S569.7
G1 X0.96S0
G1 X0.3S569.7
G1 X0.96S0
G1 X0.36S569.7
G1 X0.72S0
G1 X0.3S569.7
G1 X0.96S0
G1 X0.3S569.7
G1 X1.44S0
G1 X0.3S569.7
G1 X1.667S0
G1 Y0.06S0
G1 X-1.667S0
G1 X-0.3S569.7
G1 X-1.44S0
G1 X-0.3S569.7
G1 X-0.96S0
G1 X-0.3S569.7
G1 X-0.72S0
G1 X-0.36S569.7
G1 X-0.96S0
G1 X-0.3S569.7
G1 X-0.96S0
G1 X-0.3S569.7
G1 X-0.78S0
G1 X-0.12S569.7
G1 X-0.961S0
G1 X-0.42S569.7
G1 X-0.78S0
G1 X-0.36S569.7
G1 X-0.78S0
G1 X-0.06S569.7
G1 X-0.78S0
G1 X-0.3S569.7
G1 X-0.96S0
G1 X-0.36S569.7
G1 X-0.78S0
G1 X-0.06S569.7
G1 X-0.96S0
G1 X-0.42S569.7
G1 X-0.9S0
G1 X-0.36S569.7
G1 X-0.9S0
G1 X-0.36S569.7
G1 X-0.9S0
G1 X-0.3S569.7
G1 X-0.96S0
G1 X-0.36S569.7
G1 X-1.321S0
G1 X-2.7S532.3
G1 X-0.36S0
G1 X-2.7S566.9
G1 X-1.667S0
G1 Y0.06S0
G1 X1.667S0
G1 X2.7S566.9
G1 X0.36S0
G1 X2.7S532.3
G1 X1.321S0
G1 X0.36S569.7
G1 X0.96S0
G1 X0.3S569.7
G1 X0.84S0
G1 X0.36S569.7
G1 X1.02S0
G1 X0.36S569.7
G1 X0.78S0
G1 X0.42S569.7
G1 X1.86S0
G1 X0.36S569.7
G1 X0.96S0
G1 X0.3S569.7
G1 X1.68S0
G1 X0.3S569.7
G1 X0.72S0
G1 X0.42S569.7
G1 X1.921S0
G1 X0.3S569.7
G1 X0.96S0
G1 X0.3S569.7
G1 X0.9S0
G1 X0.36S569.7
G1 X0.84S0
G1 X0.3S569.7
G1 X0.9S0
G1 X0.3S569.7
G1 X1.44S0
G1 X0.3S569.7
G1 X1.667S0
G1 Y0.06S0
G1 X-1.667S0
G1 X-0.3S569.7
G1 X-1.44S0
G1 X-0.3S569.7
G1 X-0.9S0
G1 X-0.24S569.7
G1 X-0.96S0
G1 X-0.3S569.7
G1 X-0.9S0
G1 X-0.3S569.7
G1 X-0.96S0
G1 X-0.3S569.7
G1 X-1.981S0
G1 X-0.36S569.7
G1 X-0.72S0
G1 X-0.3S569.7
G1 X-1.68S0
G1 X-0.3S569.7
G1 X-0.96S0
G1 X-0.36S569.7
G1 X-1.92S0
G1 X-0.42S569.7
G1 X-0.72S0
G1 X-0.3S569.7
G1 X-1.14S0
G1 X-0.3S569.7
G1 X-0.84S0
G1 X-0.3S569.7
G1 X-0.96S0
G1 X-0.36S569.7
G1 X-1.321S0
G1 X-2.7S532.3
G1 X-0.36S0
G1 X-2.7S566.9
G1 X-1.667S0
G1 Y0.06S0
G1 X1.667S0
G1 X2.7S566.9
G1 X0.36S0
G1 X2.7S532.3
G1 X1.321S0
G1 X0.36S569.7
G1 X0.96S0
G1 X0.3S569.7
G1 X0.78S0
G1 X0.36S569.7
G1 X1.14S0
G1 X0.36S569.7
G1 X0.66S0
G1 X0.36S569.7
G1 X1.98S0
G1 X0.36S569.7
G1 X0.96S0
G1 X0.3S569.7
G1 X1.68S0
G1 X0.3S569.7
G1 X0.66S0
G1 X0.36S569.7
G1 X2.041S0
G1 X0.3S569.7
G1 X0.96S0
G1 X0.3S569.7
G1 X0.9S0
G1 X0.3S569.7
G1 X0.96S0
G1 X0.24S569.7
G1 X0.9S0
G1 X0.3S569.7
G1 X1.44S0
G1 X0.3S569.7
G1 X1.667S0
G1 Y0.06S0
G1 X-1.667S0
G1 X-0.3S569.7
G1 X-1.44S0
G1 X-0.3S569.7
G1 X-0.9S0
G1 X-0.24S569.7
G1 X-0.96S0
G1 X-0.3S569.7
G1 X-0.9S0
G1 X-0.3S569.7
G1 X-0.96S0
G1 X-0.3S569.7
G1 X-2.041S0
G1 X-0.36S569.7
G1 X-0.66S0
G1 X-0.36S569.7
G1 X-1.62S0
G1 X-0.3S569.7
G1 X-0.96S0
G1 X-0.36S569.7
G1 X-1.98S0
G1 X-0.36S569.7
G1 X-0.66S0
G1 X-0.3S569.7
G1 X-1.26S0
G1 X-0.3S569.7
G1 X-0.78S0
G1 X-0.3S569.7
G1 X-0.96S0
G1 X-0.36S569.7
G1 X-1.321S0
G1 X-2.7S532.3
G1 X-0.36S0
G1 X-2.7S566.9
G1 X-1.667S0
G1 Y0.06S0
G1 X1.667S0
G1 X2.7S566.9
G1 X0.36S0
G1 X2.7S532.3
G1 X1.321S0
G1 X0.36S569.7
G1 X0.96S0
G1 X0.3S569.7
G1 X0.72S0
G1 X0.36S569.7
G1 X1.26S0
G1 X0.3S569.7
G1 X0.6S0
G1 X0.36S569.7
G1 X2.04S0
G1 X0.36S569.7
G1 X0.96S0
G1 X0.3S569.7
G1 X1.56S0
G1 X0.42S569.7
G1 X0.6S0
G1 X0.36S569.7
G1 X2.101S0
G1 X0.3S569.7
G1 X0.96S0
G1 X0.3S569.7
G1 X0.9S0
G1 X0.3S569.7
G1 X0.96S0
G1 X0.3S569.7
G1 X0.84S0
G1 X0.3S569.7
G1 X1.44S0
G1 X0.3S569.7
G1 X1.667S0
G1 Y0.06S0
G1 X-1.667S0
G1 X-0.3S569.7
G1 X-1.44S0
G1 X-0.3S569.7
G1 X-0.84S0
G1 X-0.3S569.7
G1 X-0.96S0
G1 X-0.3S569.7
G1 X-0.9S0
G1 X-0.3S569.7
G1 X-0.96S0
G1 X-0.3S569.7
G1 X-2.101S0
G1 X-0.36S569.7
G1 X-0.66S0
G1 X-0.42S569.7
G1 X-1.5S0
G1 X-0.3S569.7
G1 X-0.96S0
G1 X-0.36S569.7
G1 X-2.04S0
G1 X-0.36S569.7
G1 X-0.54S0
G1 X-0.36S569.7
G1 X-1.26S0
G1 X-0.36S569.7
G1 X-0.72S0
G1 X-0.3S569.7
G1 X-0.96S0
G1 X-0.36S569.7
G1 X-1.321S0
G1 X-2.7S532.3
G1 X-0.36S0
G1 X-2.7S566.9
G1 X-1.667S0
G1 Y0.06S0
G1 X1.667S0
G1 X2.7S566.9
G1 X0.36S0
G1 X2.7S532.3
G1 X1.321S0
G1 X0.36S569.7
G1 X0.96S0
G1 X0.3S569.7
G1 X0.72S0
G1 X0.3S569.7
G1 X1.32S0
G1 X0.36S569.7
G1 X0.54S0
G1 X0.36S569.7
G1 X2.04S0
G1 X0.36S569.7
G1 X0.96S0
G1 X0.3S569.7
G1 X1.44S0
G1 X0.48S569.7
G1 X0.66S0
G1 X0.36S569.7
G1 X2.101S0
G1 X0.3S569.7
G1 X0.96S0
G1 X0.3S569.7
G1 X0.9S0
G1 X0.3S569.7
G1 X0.96S0
G1 X0.3S569.7
G1 X0.84S0
G1 X0.3S569.7
G1 X1.44S0
G1 X0.3S569.7
G1 X1.667S0
G1 Y0.06S0
G1 X-1.667S0
G1 X-0.3S569.7
G1 X-1.44S0
G1 X-0.3S569.7
G1 X-0.84S0
G1 X-0.3S569.7
G1 X-0.96S0
G1 X-0.3S569.7
G1 X-0.9S0
G1 X-0.3S569.7
G1 X-0.96S0
G1 X-0.3S569.7
G1 X-2.161S0
G1 X-0.3S569.7
G1 X-0.72S0
G1 X-0.54S569.7
G1 X-1.32S0
G1 X-0.3S569.7
G1 X-0.96S0
G1 X-0.36S569.7
G1 X-2.1S0
G1 X-0.3S569.7
G1 X-0.54S0
G1 X-0.3S569.7
G1 X-1.38S0
G1 X-0.3S569.7
G1 X-0.72S0
G1 X-0.3S569.7
G1 X-0.96S0
G1 X-0.36S569.7
G1 X-1.321S0
G1 X-2.7S532.3
G1 X-0.36S0
G1 X-2.7S566.9
G1 X-1.667S0
G1 Y0.06S0
G1 X1.667S0
G1 X2.7S566.9
G1 X0.36S0
G1 X2.7S532.3
G1 X1.321S0
G1 X0.36S569.7
G1 X0.96S0
G1 X0.3S569.7
G1 X0.72S0
G1 X0.3S569.7
G1 X1.38S0
G1 X0.3S569.7
G1 X0.54S0
G1 X0.3S569.7
G1 X2.1S0
G1 X0.36S569.7
G1 X0.96S0
G1 X0.3S569.7
G1 X1.2S0
G1 X0.6S569.7
G1 X0.78S0
G1 X0.3S569.7
G1 X2.161S0
G1 X0.3S569.7
G1 X0.96S0
G1 X0.3S569.7
G1 X0.9S0
G1 X0.3S569.7
G1 X0.96S0
G1 X0.3S569.7
G1 X0.84S0
G1 X0.3S569.7
G1 X1.44S0
G1 X0.84S569.7
G1 X1.667S0
G1 X0.06Y0.06S0
G1 X-1.667S0
G1 X-0.9S569.7
G1 X-1.44S0
G1 X-0.3S569.7
G1 X-0.84S0
G1 X-0.3S569.7
G1 X-0.96S0
G1 X-0.3S569.7
G1 X-0.9S0
G1 X-1.56S569.7
G1 X-2.161S0
G1 X-0.3S569.7
G1 X-0.9S0
G1 X-0.54S569.7
G1 X-1.14S0
G1 X-1.62S569.7
G1 X-2.1S0
G1 X-0.3S569.7
G1 X-0.54S0
G1 X-0.3S569.7
G1 X-1.38S0
G1 X-0.3S569.7
G1 X-0.72S0
G1 X-1.62S569.7
G1 X-1.321S0
G1 X-2.7S532.3
G1 X-0.36S0
G1 X-2.7S566.9
G1 X-1.667S0
G1 Y0.06S0
G1 X1.667S0
G1 X2.7S566.9
G1 X0.36S0
G1 X2.7S532.3
G1 X1.321S0
G1 X1.62S569.7
G1 X0.72S0
G1 X0.3S569.7
G1 X1.38S0
G1 X0.3S569.7
G1 X0.54S0
G1 X0.3S569.7
G1 X2.1S0
G1 X1.62S569.7
G1 X1.08S0
G1 X0.54S569.7
G1 X0.96S0
G1 X0.3S569.7
G1 X2.161S0
G1 X1.56S569.7
G1 X0.9S0
G1 X0.3S569.7
G1 X0.96S0
G1 X0.3S569.7
G1 X0.84S0
G1 X0.3S569.7
G1 X1.44S0
G1 X0.9S569.7
G1 X1.667S0
G1 Y0.06S0
G1 X-1.667S0
G1 X-0.9S569.7
G1 X-1.44S0
G1 X-0.3S569.7
G1 X-0.84S0
G1 X-0.3S569.7
G1 X-0.96S0
G1 X-0.3S569.7
G1 X-0.9S0
G1 X-1.56S569.7
G1 X-2.161S0
G1 X-0.3S569.7
G1 X-1.08S0
G1 X-0.54S569.7
G1 X-0.96S0
G1 X-1.62S569.7
G1 X-2.1S0
G1 X-0.3S569.7
G1 X-0.54S0
G1 X-0.3S569.7
G1 X-1.38S0
G1 X-0.3S569.7
G1 X-0.72S0
G1 X-1.62S569.7
G1 X-1.321S0
G1 X-2.7S532.3
G1 X-0.36S0
G1 X-2.7S566.9
G1 X-1.667S0
G1 Y0.06S0
G1 X1.667S0
G1 X2.7S566.9
G1 X0.36S0
G1 X2.7S532.3
G1 X1.321S0
G1 X1.62S569.7
G1 X0.72S0
G1 X0.3S569.7
G1 X1.38S0
G1 X0.3S569.7
G1 X0.54S0
G1 X0.3S569.7
G1 X2.1S0
G1 X1.62S569.7
G1 X0.96S0
G1 X0.48S569.7
G1 X1.14S0
G1 X0.3S569.7
G1 X2.161S0
G1 X1.56S569.7
G1 X0.9S0
G1 X0.3S569.7
G1 X0.96S0
G1 X0.3S569.7
G1 X0.84S0
G1 X0.3S569.7
G1 X1.44S0
G1 X0.3S569.7
G1 X1.667S0
G1 Y0.06S0
G1 X-1.667S0
G1 X-0.3S569.7
G1 X-1.44S0
G1 X-0.3S569.7
G1 X-0.84S0
G1 X-0.3S569.7
G1 X-0.96S0
G1 X-0.3S569.7
G1 X-0.9S0
G1 X-0.3S569.7
G1 X-0.96S0
G1 X-0.3S569.7
G1 X-2.101S0
G1 X-0.36S569.7
G1 X-1.26S0
G1 X-0.42S569.7
G1 X-0.9S0
G1 X-0.3S569.7
G1 X-0.96S0
G1 X-0.36S569.7
G1 X-2.1S0
G1 X-0.3S569.7
G1 X-0.54S0
G1 X-0.36S569.7
G1 X-1.32S0
G1 X-0.3S569.7
G1 X-0.72S0
G1 X-0.3S569.7
G1 X-0.96S0
G1 X-0.36S569.7
G1 X-1.321S0
G1 X-2.7S532.3
G1 X-0.36S0
G1 X-2.7S566.9
G1 X-1.667S0
G1 Y0.06S0
G1 X1.667S0
G1 X2.7S566.9
G1 X0.36S0
G1 X2.7S532.3
G1 X1.321S0
G1 X0.36S569.7
G1 X0.96S0
G1 X0.3S569.7
G1 X0.72S0
G1 X0.36S569.7
G1 X1.26S0
G1 X0.36S569.7
G1 X0.54S0
G1 X0.36S569.7
G1 X2.04S0
G1 X0.36S569.7
G1 X0.96S0
G1 X0.3S569.7
G1 X0.84S0
G1 X0.42S569.7
G1 X1.32S0
G1 X0.36S569.7
G1 X2.101S0
G1 X0.3S569.7
G1 X0.96S0
G1 X0.3S569.7
G1 X0.9S0
G1 X0.3S569.7
G1 X0.96S0
G1 X0.3S569.7
G1 X0.84S0
G1 X0.3S569.7
G1 X1.44S0
G1 X0.3S569.7
G1 X1.667S0
G1 Y0.06S0
G1 X-1.667S0
G1 X-0.3S569.7
G1 X-1.44S0
G1 X-0.3S569.7
G1 X-0.84S0
G1 X-0.3S569.7
G1 X-0.96S0
G1 X-0.3S569.7
G1 X-0.9S0
G1 X-0.3S569.7
G1 X-0.96S0
G1 X-0.3S569.7
G1 X-2.101S0
G1 X-0.3S569.7
G1 X-1.44S0
G1 X-0.36S569.7
G1 X-0.84S0
G1 X-0.3S569.7
G1 X-0.96S0
G1 X-0.36S569.7
G1 X-2.04S0
G1 X-0.36S569.7
G1 X-0.6S0
G1 X-0.3S569.7
G1 X-1.26S0
G1 X-0.36S569.7
G1 X-0.72S0
G1 X-0.3S569.7
G1 X-0.96S0
G1 X-0.36S569.7
G1 X-1.321S0
G1 X-2.7S532.3
G1 X-0.36S0
G1 X-2.7S566.9
G1 X-1.667S0
G1 Y0.06S0
G1 X1.667S0
G1 X2.7S566.9
G1 X0.36S0
G1 X2.7S532.3
G1 X1.321S0
G1 X0.36S569.7
G1 X0.96S0
G1 X0.3S569.7
G1 X0.78S0
G1 X0.3S569.7
G1 X1.26S0
G1 X0.3S569.7
G1 X0.66S0
G1 X0.3S569.7
G1 X2.04S0
G1 X0.36S569.7
G1 X0.96S0
G1 X0.3S569.7
G1 X0.84S0
G1 X0.3S569.7
G1 X1.5S0
G1 X0.3S569.7
G1 X2.101S0
G1 X0.3S569.7
G1 X0.96S0
G1 X0.3S569.7
G1 X0.9S0
G1 X0.3S569.7
G1 X0.96S0
G1 X0.3S569.7
G1 X0.84S0
G1 X0.3S569.7
G1 X1.44S0
G1 X0.3S569.7
G1 X1.667S0
G1 Y0.06S0
G1 X-1.667S0
G1 X-0.3S569.7
G1 X-1.44S0
G1 X-0.3S569.7
G1 X-0.84S0
G1 X-0.3S569.7
G1 X-0.96S0
G1 X-0.3S569.7
G1 X-0.9S0
G1 X-0.3S569.7
G1 X-0.96S0
G1 X-0.3S569.7
G1 X-2.041S0
G1 X-0.36S569.7
G1 X-1.5S0
G1 X-0.3S569.7
G1 X-0.84S0
G1 X-0.3S569.7
G1 X-0.96S0
G1 X-0.36S569.7
G1 X-1.98S0
G1 X-0.36S569.7
G1 X-0.66S0
G1 X-0.36S569.7
G1 X-1.14S0
G1 X-0.36S569.7
G1 X-0.78S0
G1 X-0.3S569.7
G1 X-0.96S0
G1 X-0.36S569.7
G1 X-1.321S0
G1 X-2.7S532.3
G1 X-0.36S0
G1 X-2.7S566.9
G1 X-1.667S0
G1 Y0.06S0
G1 X1.667S0
G1 X2.7S566.9
G1 X0.36S0
G1 X2.7S532.3
G1 X1.321S0
G1 X0.36S569.7
G1 X0.96S0
G1 X0.3S569.7
G1 X0.84S0
G1 X0.3S569.7
G1 X1.14S0
G1 X0.3S569.7
G1 X0.78S0
G1 X0.36S569.7
G1 X1.92S0
G1 X0.36S569.7
G1 X0.96S0
G1 X0.3S569.7
G1 X0.84S0
G1 X0.3S569.7
G1 X1.56S0
G1 X0.36S569.7
G1 X1.981S0
G1 X0.3S569.7
G1 X0.96S0
G1 X0.3S569.7
G1 X0.9S0
G1 X0.3S569.7
G1 X0.96S0
G1 X0.3S569.7
G1 X0.84S0
G1 X0.3S569.7
G1 X1.44S0
G1 X0.3S569.7
G1 X1.667S0
G1 Y0.06S0
G1 X-1.667S0
G1 X-0.3S569.7
G1 X-1.44S0
G1 X-0.3S569.7
G1 X-0.84S0
G1 X-0.3S569.7
G1 X-0.96S0
G1 X-0.3S569.7
G1 X-0.9S0
G1 X-0.3S569.7
G1 X-0.96S0
G1 X-0.3S569.7
G1 X-1.981S0
G1 X-0.36S569.7
G1 X-1.56S0
G1 X-0.3S569.7
G1 X-0.84S0
G1 X-0.3S569.7
G1 X-0.96S0
G1 X-0.36S569.7
G1 X-1.92S0
G1 X-0.36S569.7
G1 X-0.78S0
G1 X-0.36S569.7
G1 X-1.02S0
G1 X-0.36S569.7
G1 X-0.84S0
G1 X-0.3S569.7
G1 X-0.96S0
G1 X-0.36S569.7
G1 X-1.321S0
G1 X-2.7S532.3
G1 X-0.36S0
G1 X-2.7S566.9
G1 X-1.667S0
G1 Y0.06S0
G1 X1.667S0
G1 X2.7S566.9
G1 X0.36S0
G1 X2.7S532.3
G1 X1.321S0
G1 X0.36S569.7
G1 X0.96S0
G1 X0.3S569.7
G1 X0.9S0
G1 X0.36S569.7
G1 X0.9S0
G1 X0.36S569.7
G1 X0.9S0
G1 X0.36S569.7
G1 X1.02S0
G1 X0.06S569.7
G1 X0.78S0
G1 X0.36S569.7
G1 X0.96S0
G1 X0.3S569.7
G1 X0.84S0
G1 X0.3S569.7
G1 X1.62S0
G1 X0.36S569.7
G1 X1.021S0
G1 X0.12S569.7
G1 X0.78S0
G1 X0.3S569.7
G1 X0.96S0
G1 X0.3S569.7
G1 X0.9S0
G1 X0.3S569.7
G1 X0.96S0
G1 X0.3S569.7
G1 X0.84S0
G1 X0.3S569.7
G1 X1.44S0
G1 X0.3S569.7
G1 X1.667S0
G1 Y0.06S0
G1 X-1.667S0
G1 X-0.3S569.7
G1 X-1.44S0
G1 X-0.3S569.7
G1 X-0.84S0
G1 X-0.3S569.7
G1 X-0.96S0
G1 X-0.3S569.7
G1 X-0.9S0
G1 X-0.3S569.7
G1 X-0.96S0
G1 X-0.3S569.7
G1 X-0.78S0
G1 X-0.18S569.7
G1 X-0.841S0
G1 X-0.42S569.7
G1 X-0.9S0
G1 X-0.06S569.7
G1 X-0.66S0
G1 X-0.3S569.7
G1 X-0.9S0
G1 X-0.3S569.7
G1 X-0.96S0
G1 X-0.36S569.7
G1 X-0.78S0
G1 X-0.18S569.7
G1 X-0.78S0
G1 X-0.42S569.7
G1 X-1.02S0
G1 X-0.36S569.7
G1 X-0.78S0
G1 X-0.42S569.7
G1 X-0.9S0
G1 X-0.3S569.7
G1 X-0.96S0
G1 X-0.36S569.7
G1 X-1.321S0
G1 X-2.7S532.3
G1 X-0.36S0
G1 X-2.7S566.9
G1 X-1.667S0
G1 Y0.06S0
G1 X1.667S0
G1 X2.7S566.9
G1 X0.36S0
G1 X2.7S532.3
G1 X1.321S0
G1 X0.36S569.7
G1 X0.96S0
G1 X0.3S569.7
G1 X0.96S0
G1 X0.48S569.7
G1 X0.54S0
G1 X0.48S569.7
G1 X1.08S0
G1 X0.48S569.7
G1 X0.54S0
G1 X0.3S569.7
G1 X0.78S0
G1 X0.36S569.7
G1 X0.96S0
G1 X0.3S569.7
G1 X0.9S0
G1 X0.42S569.7
G1 X0.42S0
G1 X0.18S569.7
G1 X0.96S0
G1 X0.48S569.7
G1 X0.541S0
G1 X0.36S569.7
G1 X0.78S0
G1 X0.3S569.7
G1 X0.96S0
G1 X0.3S569.7
G1 X0.9S0
G1 X0.3S569.7
G1 X0.96S0
G1 X0.3S569.7
G1 X0.84S0
G1 X0.3S569.7
G1 X1.44S0
G1 X0.3S569.7
G1 X1.667S0
G1 X0.72Y0.06S0
G1 X-1.667S0
G1 X-1.02S569.7
G1 X-1.44S0
G1 X-0.3S569.7
G1 X-0.84S0
G1 X-0.3S569.7
G1 X-0.96S0
G1 X-0.3S569.7
G1 X-0.9S0
G1 X-0.3S569.7
G1 X-0.96S0
G1 X-0.3S569.7
G1 X-0.78S0
G1 X-1.321S569.7
G1 X-1.02S0
G1 X-0.96S569.7
G1 X-0.96S0
G1 X-0.3S569.7
G1 X-0.96S0
G1 X-0.36S569.7
G1 X-0.78S0
G1 X-1.26S569.7
G1 X-1.2S0
G1 X-1.38S569.7
G1 X-1.02S0
G1 X-0.3S569.7
G1 X-0.96S0
G1 X-0.36S569.7
G1 X-1.321S0
G1 X-2.7S532.3
G1 X-0.36S0
G1 X-2.7S566.9
G1 X-1.667S0
G1 Y0.06S0
G1 X1.667S0
G1 X2.7S566.9
G1 X0.36S0
G1 X2.7S532.3
G1 X1.321S0
G1 X0.36S569.7
G1 X0.96S0
G1 X0.3S569.7
G1 X1.14S0
G1 X1.14S569.7
G1 X1.38S0
G1 X1.2S569.7
G1 X0.78S0
G1 X0.36S569.7
G1 X0.96S0
G1 X0.3S569.7
G1 X1.02S0
G1 X0.9S569.7
G1 X1.08S0
G1 X1.261S569.7
G1 X0.78S0
G1 X0.3S569.7
G1 X0.96S0
G1 X0.3S569.7
G1 X0.9S0
G1 X0.3S569.7
G1 X0.96S0
G1 X0.3S569.7
G1 X0.84S0
G1 X0.3S569.7
G1 X1.44S0
G1 X1.02S569.7
G1 X1.667S0
G1 Y0.06S0
G1 X-1.667S0
G1 X-1.02S569.7
G1 X-1.44S0
G1 X-0.3S569.7
G1 X-0.84S0
G1 X-0.3S569.7
G1 X-0.96S0
G1 X-0.3S569.7
G1 X-0.9S0
G1 X-0.3S569.7
G1 X-0.96S0
G1 X-0.3S569.7
G1 X-0.9S0
G1 X-1.021S569.7
G1 X-1.2S0
G1 X-0.84S569.7
G1 X-1.08S0
G1 X-0.3S569.7
G1 X-0.96S0
G1 X-0.36S569.7
G1 X-0.84S0
G1 X-1.02S569.7
G1 X-1.56S0
G1 X-1.02S569.7
G1 X-1.2S0
G1 X-0.3S569.7
G1 X-0.96S0
G1 X-0.36S569.7
G1 X-1.321S0
G1 X-2.7S532.3
G1 X-0.36S0
G1 X-2.7S566.9
G1 X-1.667S0
G1 Y0.06S0
G1 X1.667S0
G1 X2.7S566.9
G1 X0.36S0
G1 X2.7S532.3
G1 X1.321S0
G1 X0.36S569.7
G1 X0.96S0
G1 X0.3S569.7
G1 X1.32S0
G1 X0.78S569.7
G1 X1.8S0
G1 X0.78S569.7
G1 X0.96S0
G1 X0.36S569.7
G1 X0.96S0
G1 X0.3S569.7
G1 X1.2S0
G1 X0.6S569.7
G1 X1.44S0
G1 X0.781S569.7
G1 X1.02S0
G1 X0.3S569.7
G1 X0.96S0
G1 X0.3S569.7
G1 X0.9S0
G1 X0.3S569.7
G1 X0.96S0
G1 X0.3S569.7
G1 X0.84S0
G1 X0.3S569.7
G1 X1.44S0
G1 X1.08S569.7
G1 X1.667S0
G1 X-9.001Y0.06S0
G1 X-1.666S0
G1 X-0.18S569.7
G1 X-6.421S0
G1 X-0.24S569.7
G1 X-2.34S0
G1 X-0.18S569.7
G1 X-7.621S0
G1 X-2.7S566.9
G1 X-1.667S0
G1 Y0.06S0
G1 X1.667S0
G1 X2.7S566.9
G1 X1.667S0
G1 Y0.06S0
G1 X-1.667S0
G1 X-2.7S566.9
G1 X-1.667S0
G1 Y0.06S0
G1 X1.667S0
G1 X2.7S566.9
G1 X1.667S0
G1 Y0.06S0
G1 X-1.667S0
G1 X-2.7S566.9
G1 X-1.667S0
G1 Y0.06S0
G1 X1.667S0
G1 X2.7S566.9
G1 X1.667S0
G0 X-41.69Y-5.76
G1 X1.667S0
G1 X0.36S571.3
G1 X1.666S0
G1 Y0.06S0
G1 X-1.666S0
G1 X-0.36S571.3
G1 X-1.667S0
G1 Y0.06S0
G1 X1.667S0
G1 X0.36S571.3
G1 X1.666S0
G1 X5.581Y0.06S0
G1 X-1.667S0
G1 X-0.06S570.5
G1 X-0.06S572.8
G1 X-0.06S571.7
G1 X-0.06S570.5
G1 X-5.34S0
G1 X-0.36S571.3
G1 X-1.667S0
G1 Y0.06S0
G1 X1.667S0
G1 X0.36S571.3
G1 X5.28S0
G1 X0.06S569.7
G1 X0.12S574
G1 X0.06S573.6
G1 X0.06S574
G1 X0.06S570.9
G1 X1.667S0
G1 X1.14Y0.06S0
G1 X-1.667S0
G1 X-0.06S566.9
G1 X-0.06S568.5
G1 X-0.96S0
G1 X-0.06S568.9
G1 X-0.06S573.6
G1 X-0.24S574
G1 X-0.06S573.6
G1 X-0.06S564.6
G1 X-5.22S0
G1 X-0.36S571.3
G1 X-1.667S0
G1 X-10.141Y0.06S0
G1 X1.667S0
G1 X0.18S543.3
G1 X7.8S543.7
G1 X0.06S543.3
G1 X2.101S0
G1 X0.36S571.3
G1 X5.22S0
G1 X0.06S571.7
G1 X0.06S574.4
G1 X0.06S574
G1 X0.06S574.4
G1 X0.18S574
G1 X0.06S572.8
G1 X0.84S0
G1 X0.06S568.9
G1 X0.06S571.7
G1 X0.06S570.1
G1 X0.06S571.3
G1 X0.06S570.9
G1 X0.06S568.1
G1 X1.667S0
G1 X0.06Y0.06S0
G1 X-1.667S0
G1 X-0.06S572
G1 X-0.06S567.7
G1 X-0.06S564.2
G1 X-0.12S0
G1 X-0.06S565.4
G1 X-0.06S566.9
G1 X-0.06S570.1
G1 X-0.72S0
G1 X-0.06S571.7
G1 X-0.06S574.4
G1 X-0.24S574
G1 X-0.06S574.4
G1 X-0.12S574
G1 X-0.06S570.5
G1 X-5.16S0
G1 X-0.36S571.3
G1 X-2.101S0
G1 X-7.98S543.3
G1 X-1.667S0
G1 X10.081Y0.06S0
G1 X1.667S0
G1 X0.36S571.3
G1 X5.1S0
G1 X0.06S568.5
G1 X0.12S574
G1 X0.12S574.4
G1 X0.36S574
G1 X0.06S571.3
G1 X0.6S0
G1 X0.06S568.5
G1 X0.06S568.1
G1 X0.06S0
G1 X0.06S571.3
G1 X0.06S0
G1 X0.06S569.3
G1 X0.06S568.9
G1 X0.06S0
G1 X0.06S570.5
G1 X0.06S570.1
G1 X1.667S0
G1 Y0.06S0
G1 X-1.667S0
G1 X-0.06S571.3
G1 X-0.06S565.4
G1 X-0.12S0
G1 X-0.06S568.9
G1 X-0.06S0
G1 X-0.06S572
G1 X-0.12S0
G1 X-0.06S570.1
G1 X-0.54S0
G1 X-0.06S568.1
G1 X-0.06S573.6
G1 X-0.06S574.4
G1 X-0.42S574
G1 X-0.06S574.4
G1 X-0.06S574
G1 X-0.06S573.2
G1 X-5.1S0
G1 X-0.36S571.3
G1 X-1.667S0
G1 Y0.06S0
G1 X1.667S0
G1 X0.36S571.3
G1 X5.04S0
G1 X0.06S571.3
G1 X0.18S574
G1 X0.06S574.4
G1 X0.42S574
G1 X0.06S574.4
G1 X0.06S572.8
G1 X0.54S0
G1 X0.06S570.9
G1 X0.12S0
G1 X0.06S572.8
G1 X0.06S570.9
G1 X0.06S571.3
G1 X0.06S563.8
G1 X0.12S0
G1 X0.06S570.1
G1 X1.667S0
G1 Y0.06S0
G1 X-1.667S0
G1 X-0.06S570.5
G1 X-0.06S564.6
G1 X-0.06S0
G1 X-0.06S569.7
G1 X-0.06S567.3
G1 X-0.06S0
G1 X-0.06S572.4
G1 X-0.12S0
G1 X-0.06S570.5
G1 X-0.48S0
G1 X-0.06S572.4
G1 X-0.78S574
G1 X-0.06S573.6
G1 X-0.06S570.1
G1 X-4.98S0
G1 X-0.36S571.3
G1 X-1.667S0
G1 Y0.06S0
G1 X1.667S0
G1 X0.36S571.3
G1 X4.92S0
G1 X0.06S568.5
G1 X0.06S573.6
G1 X0.18S574
G1 X0.06S574.4
G1 X0.48S574
G1 X0.06S574.4
G1 X0.06S574
G1 X0.06S573.6
G1 X0.06S570.9
G1 X0.42S0
G1 X0.06S568.9
G1 X0.06S568.5
G1 X0.06S0
G1 X0.06S572
G1 X0.06S565.4
G1 X0.06S568.9
G1 X0.06S568.5
G1 X0.06S0
G1 X0.06S570.5
G1 X0.06S569.3
G1 X1.667S0
G1 X15.361Y0.06S0
G1 X-1.667S0
G1 X-0.06S568.1
G1 X-0.06S568.9
G1 X-0.12S568.5
G1 X-0.06S568.9
G1 X-2.82S568.5
G1 X-0.12S568.9
G1 X-0.06S567.7
G1 X-0.72S0
G1 X-0.06S569.3
G1 X-0.18S568.5
G1 X-0.12S568.9
G1 X-2.58S568.5
G1 X-0.12S568.9
G1 X-0.06S568.5
G1 X-0.06S568.9
G1 X-0.06S568.5
G1 X-0.06S566.9
G1 X-0.72S0
G1 X-0.06S568.5
G1 X-0.3S568.9
G1 X-2.46S568.5
G1 X-0.42S568.9
G1 X-0.06S568.5
G1 X-0.661S0
G1 X-0.06S566.5
G1 X-0.06S568.9
G1 X-0.06S568.5
G1 X-0.9S568.9
G1 X-0.06S568.1
G1 X-0.06S568.5
G1 X-2.22S0
G1 X-0.06S571.7
G1 X-0.06S569.3
G1 X-0.24S0
G1 X-0.06S565.4
G1 X-0.06S571.7
G1 X-0.42S0
G1 X-0.06S569.3
G1 X-0.06S574
G1 X-0.12S574.4
G1 X-0.12S574
G1 X-0.06S574.4
G1 X-0.12S574
G1 X-0.12S574.4
G1 X-0.12S574
G1 X-0.06S574.4
G1 X-0.24S574
G1 X-0.06S573.2
G1 X-0.06S566.1
G1 X-4.86S0
G1 X-0.36S571.3
G1 X-1.667S0
G1 X-9.061Y0.06S0
G1 X1.667S0
G1 X0.24S543.3
G1 X1.38S0
G1 X0.24S543.3
G1 X0.06S542.9
G1 X0.18S543.3
G1 X0.06S542.9
G1 X2.94S0
G1 X0.06S543.7
G1 X0.18S543.3
G1 X3.721S0
G1 X0.36S571.3
G1 X4.86S0
G1 X0.06S573.2
G1 X0.06S574.4
G1 X0.12S574
G1 X0.06S574.4
G1 X0.06S573.6
G1 X0.06S574.4
G1 X0.12S574
G1 X0.06S572
G1 X0.06S571.7
G1 X0.06S573.2
G1 X0.12S574
G1 X0.06S574.4
G1 X0.06S574
G1 X0.06S574.4
G1 X0.06S574
G1 X0.06S574.4
G1 X0.06S574
G1 X0.06S567.3
G1 X0.36S0
G1 X0.06S565
G1 X0.06S572
G1 X0.06S570.5
G1 X0.06S563.8
G1 X0.06S565.7
G1 X0.06S572
G1 X0.06S570.5
G1 X2.28S0
G1 X0.12S573.6
G1 X0.06S574.4
G1 X0.84S574
G1 X0.12S574.4
G1 X0.06S572.4
G1 X0.661S0
G1 X0.06S573.6
G1 X3.18S574
G1 X0.06S574.4
G1 X0.72S0
G1 X0.06S572.4
G1 X0.06S574
G1 X0.06S574.4
G1 X3.06S574
G1 X0.06S574.8
G1 X0.06S568.9
G1 X0.66S0
G1 X0.06S573.6
G1 X3.18S574
G1 X0.06S573.6
G1 X0.06S570.1
G1 X1.667S0
G1 Y0.06S0
G1 X-1.667S0
G1 X-0.06S569.7
G1 X-3.12S574
G1 X-0.06S574.4
G1 X-0.12S574
G1 X-0.66S0
G1 X-0.06S568.1
G1 X-0.06S574.4
G1 X-3.12S574
G1 X-0.06S574.4
G1 X-0.06S572
G1 X-0.72S0
G1 X-3.18S574
G1 X-0.06S574.4
G1 X-0.06S573.6
G1 X-0.661S0
G1 X-0.06S572
G1 X-1.02S574
G1 X-0.12S573.6
G1 X-2.34S0
G1 X-0.06S566.1
G1 X-0.18S569.7
G1 X-0.42S0
G1 X-0.06S564.6
G1 X-0.06S573.2
G1 X-0.24S574
G1 X-0.06S574.4
G1 X-0.06S573.2
G1 X-0.06S571.7
G1 X-0.3S0
G1 X-0.06S571.3
G1 X-0.06S573.2
G1 X-0.3S574
G1 X-0.06S574.4
G1 X-0.06S572.4
G1 X-4.8S0
G1 X-0.36S571.3
G1 X-3.361S0
G1 X-0.06S543.7
G1 X-0.78S543.3
G1 X-0.06S543.7
G1 X-2.4S0
G1 X-0.06S543.7
G1 X-0.24S543.3
G1 X-0.06S543.7
G1 X-0.18S543.3
G1 X-0.06S543.7
G1 X-0.06S543.3
G1 X-0.06S543.7
G1 X-0.24S543.3
G1 X-0.06S543.7
G1 X-1.14S0
G1 X-0.42S543.3
G1 X-1.667S0
G1 X-0.12Y0.06S0
G1 X1.667S0
G1 X0.54S543.3
G1 X0.96S0
G1 X0.24S543.3
G1 X0.06S543.7
G1 X1.08S543.3
G1 X2.04S0
G1 X0.06S543.7
G1 X0.96S543.3
G1 X0.06S543.7
G1 X0.18S543.3
G1 X3.181S0
G1 X0.36S571.3
G1 X4.74S0
G1 X0.06S569.3
G1 X0.06S574
G1 X0.06S574.4
G1 X0.24S574
G1 X0.06S571.3
G1 X0.54S0
G1 X0.06S571.7
G1 X0.3S574
G1 X0.06S572
G1 X3S0
G1 X0.12S573.6
G1 X1.02S574
G1 X0.06S572
G1 X0.661S0
G1 X0.06S573.6
G1 X0.06S574.4
G1 X3.06S574
G1 X0.12S574.4
G1 X0.72S0
G1 X0.06S572
G1 X0.06S574.4
G1 X3.12S574
G1 X0.06S574.4
G1 X0.06S568.1
G1 X0.66S0
G1 X0.12S574
G1 X0.06S574.4
G1 X3.12S574
G1 X0.06S569.7
G1 X1.667S0
G1 Y0.06S0
G1 X-1.667S0
G1 X-0.06S569.7
G1 X-3.12S574
G1 X-0.06S574.4
G1 X-0.12S574
G1 X-0.66S0
G1 X-0.06S568.1
G1 X-0.06S574.4
G1 X-3.12S574
G1 X-0.06S574.4
G1 X-0.06S572
G1 X-0.72S0
G1 X-0.12S574.4
G1 X-3.06S574
G1 X-0.06S574.4
G1 X-0.06S574
G1 X-0.661S0
G1 X-0.06S572.4
G1 X-1.02S574
G1 X-0.12S573.6
G1 X-2.94S0
G1 X-0.06S571.3
G1 X-0.06S573.6
G1 X-0.12S574
G1 X-0.06S574.4
G1 X-0.06S573.6
G1 X-0.06S570.5
G1 X-0.24S0
G1 X-0.06S569.7
G1 X-0.06S570.5
G1 X-0.06S570.1
G1 X-0.24S0
G1 X-0.06S570.5
G1 X-0.06S573.2
G1 X-0.18S574
G1 X-0.06S574.4
G1 X-0.06S573.6
G1 X-0.06S568.5
G1 X-4.68S0
G1 X-0.36S571.3
G1 X-3.061S0
G1 X-1.38S543.3
G1 X-0.06S543.7
G1 X-0.12S543.3
G1 X-1.74S0
G1 X-0.06S543.7
G1 X-1.5S543.3
G1 X-0.06S543.7
G1 X-0.84S0
G1 X-0.6S543.3
G1 X-1.667S0
G1 X-0.06Y0.06S0
G1 X1.667S0
G1 X0.66S543.3
G1 X0.78S0
G1 X1.8S543.3
G1 X1.56S0
G1 X0.24S543.3
G1 X0.06S543.7
G1 X1.44S543.3
G1 X2.941S0
G1 X0.36S571.3
G1 X4.62S0
G1 X0.06S567.3
G1 X0.06S573.2
G1 X0.18S574
G1 X0.06S574.4
G1 X0.06S572.8
G1 X0.24S0
G1 X0.06S570.1
G1 X0.06S572.8
G1 X0.06S573.6
G1 X0.06S574
G1 X0.06S573.6
G1 X0.06S572.8
G1 X0.06S568.1
G1 X0.18S0
G1 X0.06S565.7
G1 X0.06S573.2
G1 X0.12S574
G1 X0.06S574.4
G1 X0.06S574
G1 X0.06S571.7
G1 X2.88S0
G1 X0.12S573.6
G1 X1.02S574
G1 X0.06S572.4
G1 X0.661S0
G1 X0.06S574
G1 X0.06S574.4
G1 X3.06S574
G1 X0.12S574.4
G1 X0.72S0
G1 X0.06S572
G1 X0.06S574.4
G1 X3.12S574
G1 X0.06S574.4
G1 X0.06S568.1
G1 X0.66S0
G1 X0.12S574
G1 X0.06S574.4
G1 X3.12S574
G1 X0.06S569.7
G1 X1.667S0
G1 Y0.06S0
G1 X-1.667S0
G1 X-0.06S569.7
G1 X-3.12S574
G1 X-0.06S574.4
G1 X-0.12S574
G1 X-0.66S0
G1 X-0.06S568.1
G1 X-0.06S574.4
G1 X-3.12S574
G1 X-0.06S574.4
G1 X-0.06S572
G1 X-0.72S0
G1 X-0.12S574.4
G1 X-3.06S574
G1 X-0.06S574.4
G1 X-0.06S574
G1 X-0.661S0
G1 X-0.06S572.4
G1 X-1.02S574
G1 X-0.12S573.6
G1 X-2.82S0
G1 X-0.06S569.7
G1 X-0.12S574.4
G1 X-0.12S574
G1 X-0.06S573.2
G1 X-0.06S566.9
G1 X-0.18S0
G1 X-0.06S568.5
G1 X-0.12S574
G1 X-0.12S574.4
G1 X-0.06S574
G1 X-0.12S574.4
G1 X-0.06S570.5
G1 X-0.24S0
G1 X-0.06S572.4
G1 X-0.06S574
G1 X-0.06S574.4
G1 X-0.06S574
G1 X-0.12S574.4
G1 X-0.06S564.2
G1 X-4.56S0
G1 X-0.36S571.3
G1 X-2.881S0
G1 X-1.92S543.3
G1 X-1.38S0
G1 X-1.86S543.3
G1 X-0.06S543.7
G1 X-0.06S543.3
G1 X-0.66S0
G1 X-0.78S543.3
G1 X-1.667S0
G1 X-0.06Y0.06S0
G1 X1.667S0
G1 X0.84S543.3
G1 X0.6S0
G1 X0.12S543.3
G1 X0.06S543.7
G1 X1.8S543.3
G1 X0.06S543.7
G1 X0.06S543.3
G1 X1.26S0
G1 X2.1S543.3
G1 X2.761S0
G1 X0.36S571.3
G1 X4.56S0
G1 X0.06S572.8
G1 X0.18S574
G1 X0.06S573.6
G1 X0.06S570.1
G1 X0.18S0
G1 X0.06S568.5
G1 X0.06S572.4
G1 X0.18S574
G1 X0.12S574.4
G1 X0.12S574
G1 X0.06S574.4
G1 X0.06S574
G1 X0.06S571.7
G1 X0.24S0
G1 X0.06S570.9
G1 X0.06S574.4
G1 X0.18S574
G1 X0.06S569.3
G1 X2.76S0
G1 X0.12S573.6
G1 X1.02S574
G1 X0.06S572
G1 X0.661S0
G1 X0.06S574
G1 X0.06S574.4
G1 X3.06S574
G1 X0.12S574.4
G1 X0.72S0
G1 X0.06S572
G1 X0.06S574.4
G1 X3.12S574
G1 X0.06S574.4
G1 X0.06S568.1
G1 X0.66S0
G1 X0.12S574
G1 X0.06S574.4
G1 X3.12S574
G1 X0.06S569.7
G1 X1.667S0
G1 Y0.06S0
G1 X-1.667S0
G1 X-0.06S569.7
G1 X-3.12S574
G1 X-0.06S574.4
G1 X-0.12S574
G1 X-0.66S0
G1 X-0.06S568.1
G1 X-0.06S574.4
G1 X-3.12S574
G1 X-0.06S574.4
G1 X-0.06S572
G1 X-0.72S0
G1 X-0.12S574.4
G1 X-3.06S574
G1 X-0.06S574.4
G1 X-0.06S574
G1 X-0.661S0
G1 X-0.06S572
G1 X-1.02S574
G1 X-0.12S573.6
G1 X-2.7S0
G1 X-0.06S568.5
G1 X-0.06S573.6
G1 X-0.06S574.4
G1 X-0.06S574
G1 X-0.06S573.6
G1 X-0.06S571.3
G1 X-0.18S0
G1 X-0.06S568.9
G1 X-0.06S572.8
G1 X-0.42S574
G1 X-0.06S574.4
G1 X-0.18S574
G1 X-0.06S573.6
G1 X-0.06S568.9
G1 X-0.18S0
G1 X-0.06S569.3
G1 X-0.06S573.2
G1 X-0.06S574
G1 X-0.06S574.4
G1 X-0.06S574
G1 X-0.06S572
G1 X-4.5S0
G1 X-0.36S571.3
G1 X-2.701S0
G1 X-2.22S543.3
G1 X-1.08S0
G1 X-0.12S543.3
G1 X-0.06S543.7
G1 X-2.1S543.3
G1 X-0.54S0
G1 X-0.9S543.3
G1 X-1.667S0
G1 Y0.06S0
G1 X1.667S0
G1 X0.9S543.3
G1 X0.48S0
G1 X0.06S543.3
G1 X0.06S543.7
G1 X2.28S543.3
G1 X0.9S0
G1 X2.4S543.3
G1 X2.641S0
G1 X0.36S571.3
G1 X4.44S0
G1 X0.06S572
G1 X0.06S573.6
G1 X0.06S574.4
G1 X0.06S574
G1 X0.06S573.2
G1 X0.06S568.1
G1 X0.18S0
G1 X0.06S571.3
G1 X0.06S573.6
G1 X0.06S574.4
G1 X0.48S574
G1 X0.12S574.4
G1 X0.12S574
G1 X0.06S573.2
G1 X0.06S570.5
G1 X0.18S0
G1 X0.06S569.7
G1 X0.06S573.2
G1 X0.06S574
G1 X0.06S574.4
G1 X0.06S572.8
G1 X0.06S566.9
G1 X2.64S0
G1 X0.12S573.6
G1 X1.02S574
G1 X0.06S572
G1 X0.661S0
G1 X0.06S574
G1 X0.06S574.4
G1 X3.06S574
G1 X0.12S574.4
G1 X0.72S0
G1 X0.06S572
G1 X0.06S574.4
G1 X3.12S574
G1 X0.06S574.4
G1 X0.06S568.1
G1 X0.66S0
G1 X0.12S574
G1 X0.06S574.4
G1 X3.12S574
G1 X0.06S569.7
G1 X1.667S0
G1 Y0.06S0
G1 X-1.667S0
G1 X-0.06S569.7
G1 X-3.12S574
G1 X-0.06S574.4
G1 X-0.12S574
G1 X-0.66S0
G1 X-0.06S568.1
G1 X-0.06S574.4
G1 X-3.12S574
G1 X-0.06S574.4
G1 X-0.06S572
G1 X-0.72S0
G1 X-0.12S574.4
G1 X-3.06S574
G1 X-0.06S574.4
G1 X-0.06S574
G1 X-0.661S0
G1 X-0.06S572
G1 X-1.02S574
G1 X-0.12S573.6
G1 X-2.58S0
G1 X-0.06S566.9
G1 X-0.12S573.6
G1 X-0.06S574
G1 X-0.06S573.6
G1 X-0.06S567.3
G1 X-0.18S0
G1 X-0.06S572
G1 X-0.06S574.4
G1 X-0.66S574
G1 X-0.06S574.4
G1 X-0.06S574
G1 X-0.12S574.4
G1 X-0.06S574
G1 X-0.06S572.4
G1 X-0.24S0
G1 X-0.06S573.2
G1 X-0.06S574.4
G1 X-0.12S574
G1 X-0.06S571.3
G1 X-4.38S0
G1 X-0.36S571.3
G1 X-2.581S0
G1 X-0.12S543.3
G1 X-0.06S543.7
G1 X-2.34S543.3
G1 X-0.78S0
G1 X-0.18S543.7
G1 X-2.34S543.3
G1 X-0.42S0
G1 X-0.96S543.3
G1 X-1.667S0
G1 X-0.06Y0.06S0
G1 X1.667S0
G1 X1.02S543.3
G1 X0.36S0
G1 X2.58S543.3
G1 X0.78S0
G1 X2.58S543.3
G1 X2.521S0
G1 X0.36S571.3
G1 X4.32S0
G1 X0.06S571.3
G1 X0.06S574.4
G1 X0.12S574
G1 X0.06S572.4
G1 X0.18S0
G1 X0.06S566.9
G1 X0.06S572.4
G1 X0.06S574.4
G1 X0.06S574
G1 X0.06S574.4
G1 X0.06S574
G1 X0.06S574.4
G1 X0.72S574
G1 X0.12S574.4
G1 X0.06S572.8
G1 X0.18S0
G1 X0.06S566.9
G1 X0.06S572.8
G1 X0.06S574
G1 X0.06S574.4
G1 X0.06S572.8
G1 X0.06S567.3
G1 X2.52S0
G1 X0.12S573.6
G1 X1.02S574
G1 X0.06S572
G1 X0.661S0
G1 X0.06S574
G1 X0.06S574.4
G1 X3.06S574
G1 X0.12S574.4
G1 X0.72S0
G1 X0.06S572
G1 X0.06S574.4
G1 X3.12S574
G1 X0.06S574.4
G1 X0.06S568.1
G1 X0.66S0
G1 X0.12S574
G1 X0.06S574.4
G1 X3.12S574
G1 X0.06S569.7
G1 X1.667S0
G1 Y0.06S0
G1 X-1.667S0
G1 X-0.06S569.7
G1 X-0.12S574
G1 X-1.92S574.4
G1 X-0.18S574
G1 X-0.06S574.4
G1 X-0.84S574
G1 X-0.06S574.4
G1 X-0.12S574
G1 X-0.66S0
G1 X-0.06S568.1
G1 X-0.06S574.4
G1 X-0.06S574
G1 X-1.92S574.4
G1 X-1.14S574
G1 X-0.06S574.4
G1 X-0.06S572
G1 X-0.72S0
G1 X-2.04S574.4
G1 X-0.06S574
G1 X-0.06S574.4
G1 X-0.06S574
G1 X-0.06S574.4
G1 X-0.9S574
G1 X-0.06S574.4
G1 X-0.06S574
G1 X-0.661S0
G1 X-0.06S572
G1 X-1.02S574
G1 X-0.12S573.6
G1 X-2.46S0
G1 X-0.06S566.9
G1 X-0.06S573.6
G1 X-0.12S574
G1 X-0.06S572.8
G1 X-0.18S0
G1 X-0.06S568.5
G1 X-0.06S573.2
G1 X-0.06S574.4
G1 X-0.42S574
G1 X-0.18S574.4
G1 X-0.36S574
G1 X-0.06S574.4
G1 X-0.18S574
G1 X-0.06S572.8
G1 X-0.06S569.3
G1 X-0.18S0
G1 X-0.06S572
G1 X-0.18S574
G1 X-0.06S571.7
G1 X-4.26S0
G1 X-0.36S571.3
G1 X-2.461S0
G1 X-2.7S543.3
G1 X-0.66S0
G1 X-2.7S543.3
G1 X-0.3S0
G1 X-1.08S543.3
G1 X-1.667S0
G1 Y0.06S0
G1 X1.667S0
G1 X1.08S543.3
G1 X0.24S0
G1 X2.76S543.3
G1 X0.06S543.7
G1 X0.54S0
G1 X2.64S543.3
G1 X0.06S543.7
G1 X0.12S543.3
G1 X2.401S0
G1 X0.36S571.3
G1 X4.2S0
G1 X0.06S571.3
G1 X0.18S573.6
G1 X0.06S571.3
G1 X0.18S0
G1 X0.06S570.5
G1 X0.06S572.8
G1 X0.24S574
G1 X0.06S574.4
G1 X0.18S574
G1 X0.06S572.4
G1 X0.06S572
G1 X0.06S571.7
G1 X0.18S572
G1 X0.06S573.2
G1 X0.48S574
G1 X0.06S572.8
G1 X0.06S569.7
G1 X0.18S0
G1 X0.06S572.4
G1 X0.06S573.6
G1 X0.06S574.4
G1 X0.06S572.8
G1 X0.06S568.1
G1 X2.4S0
G1 X0.12S573.6
G1 X1.02S574
G1 X0.06S572
G1 X0.661S0
G1 X0.06S574
G1 X0.06S574.4
G1 X0.9S574
G1 X0.12S574.4
G1 X0.06S574
G1 X0.06S574.4
G1 X0.06S574
G1 X1.86S573.6
G1 X0.06S574
G1 X0.06S573.6
G1 X0.72S0
G1 X0.06S572
G1 X0.06S574.4
G1 X1.14S574
G1 X1.98S573.6
G1 X0.06S574.4
G1 X0.06S568.1
G1 X0.66S0
G1 X0.12S574
G1 X0.06S574.4
G1 X1.08S574
G1 X1.92S573.6
G1 X0.06S574
G1 X0.06S573.6
G1 X0.06S569.3
G1 X1.667S0
G1 X-2.1Y0.06S0
G1 X-1.667S0
G1 X-0.06S561.4
G1 X-0.06S573.2
G1 X-0.06S574
G1 X-0.06S574.4
G1 X-0.84S574
G1 X-0.06S574.4
G1 X-0.12S574
G1 X-2.76S0
G1 X-0.06S562.2
G1 X-0.06S572.4
G1 X-1.02S574
G1 X-0.06S574.4
G1 X-0.06S572
G1 X-2.76S0
G1 X-0.06S563.8
G1 X-0.06S571.7
G1 X-1.02S574
G1 X-0.06S574.4
G1 X-0.06S574
G1 X-0.661S0
G1 X-0.06S572
G1 X-1.02S574
G1 X-0.12S573.6
G1 X-2.34S0
G1 X-0.06S568.1
G1 X-0.06S572.8
G1 X-0.06S574.4
G1 X-0.06S574
G1 X-0.06S571.3
G1 X-0.18S0
G1 X-0.06S570.1
G1 X-0.06S573.6
G1 X-0.06S574
G1 X-0.06S574.4
G1 X-0.06S574
G1 X-0.12S574.4
G1 X-0.18S574
G1 X-0.06S573.6
G1 X-0.06S568.9
G1 X-0.36S0
G1 X-0.06S571.7
G1 X-0.12S574.4
G1 X-0.12S574
G1 X-0.18S574.4
G1 X-0.06S574
G1 X-0.06S573.2
G1 X-0.06S569.7
G1 X-0.18S0
G1 X-0.06S570.9
G1 X-0.18S574
G1 X-0.06S570.9
G1 X-4.14S0
G1 X-0.36S571.3
G1 X-2.401S0
G1 X-0.06S543.3
G1 X-0.06S543.7
G1 X-2.64S543.3
G1 X-0.06S543.7
G1 X-0.06S542.9
G1 X-0.42S0
G1 X-0.18S543.3
G1 X-0.06S543.7
G1 X-2.64S543.3
G1 X-0.24S0
G1 X-1.14S543.3
G1 X-1.667S0
G1 X-0.06Y0.06S0
G1 X1.667S0
G1 X0.06S543.7
G1 X1.14S543.3
G1 X0.18S0
G1 X2.94S543.3
G1 X0.42S0
G1 X2.94S543.3
G1 X2.341S0
G1 X0.36S571.3
G1 X4.08S0
G1 X0.06S570.5
G1 X0.06S574
G1 X0.12S574.4
G1 X0.06S570.5
G1 X0.18S0
G1 X0.06S570.5
G1 X0.54S574
G1 X0.06S574.4
G1 X0.06S572
G1 X0.36S0
G1 X0.06S569.7
G1 X0.06S573.6
G1 X0.3S574
G1 X0.06S574.4
G1 X0.06S574
G1 X0.06S574.4
G1 X0.12S574
G1 X0.06S570.1
G1 X0.18S0
G1 X0.06S572.4
G1 X0.12S574
G1 X0.06S572.4
G1 X0.06S565.7
G1 X2.28S0
G1 X0.12S573.6
G1 X1.02S574
G1 X0.06S572.4
G1 X0.661S0
G1 X0.06S574
G1 X0.06S574.4
G1 X0.9S574
G1 X0.06S574.4
G1 X0.06S574
G1 X0.06S572
G1 X2.82S0
G1 X0.06S572
G1 X0.06S574.4
G1 X1.02S574
G1 X0.06S573.2
G1 X2.82S0
G1 X0.12S574
G1 X0.06S574.4
G1 X0.84S574
G1 X0.12S574.4
G1 X0.06S572
G1 X1.667S0
G1 Y0.06S0
G1 X-1.667S0
G1 X-0.06S572
G1 X-0.06S574
G1 X-0.06S574.4
G1 X-0.84S574
G1 X-0.06S574.4
G1 X-0.12S574
G1 X-2.82S0
G1 X-0.06S572.4
G1 X-1.02S574
G1 X-0.06S574.4
G1 X-0.06S572
G1 X-2.82S0
G1 X-0.06S571.7
G1 X-0.06S574.4
G1 X-0.96S574
G1 X-0.06S574.4
G1 X-0.06S574
G1 X-0.661S0
G1 X-0.06S572.4
G1 X-1.02S574
G1 X-0.12S573.6
G1 X-2.22S0
G1 X-0.06S564.2
G1 X-0.06S573.2
G1 X-0.12S574
G1 X-0.06S571.7
G1 X-0.18S0
G1 X-0.06S571.3
G1 X-0.06S573.6
G1 X-0.06S574.4
G1 X-0.12S574
G1 X-0.06S574.4
G1 X-0.3S574
G1 X-0.06S574.4
G1 X-0.06S573.6
G1 X-0.06S570.5
G1 X-0.36S0
G1 X-0.06S572.8
G1 X-0.54S574
G1 X-0.06S574.4
G1 X-0.06S574
G1 X-0.06S570.5
G1 X-0.18S0
G1 X-0.06S570.1
G1 X-0.18S574
G1 X-0.06S571.3
G1 X-4.02S0
G1 X-0.36S571.3
G1 X-2.341S0
G1 X-3S543.3
G1 X-0.3S0
G1 X-3.06S543.3
G1 X-0.12S0
G1 X-1.2S543.3
G1 X-1.667S0
G1 X-0.06Y0.06S0
G1 X1.667S0
G1 X1.26S543.3
G1 X0.12S0
G1 X3.06S543.3
G1 X0.3S0
G1 X1.5S543.3
G1 X0.06S0
G1 X1.5S543.3
G1 X2.281S0
G1 X0.36S571.3
G1 X3.96S0
G1 X0.06S571.7
G1 X0.12S574
G1 X0.06S573.2
G1 X0.06S570.5
G1 X0.18S0
G1 X0.06S570.9
G1 X0.06S573.6
G1 X0.6S574
G1 X0.06S574.4
G1 X0.06S573.6
G1 X0.36S0
G1 X0.06S571.3
G1 X0.48S574
G1 X0.06S574.4
G1 X0.18S574
G1 X0.06S573.6
G1 X0.06S570.5
G1 X0.18S0
G1 X0.06S571.7
G1 X0.12S574
G1 X0.06S573.2
G1 X0.06S568.9
G1 X2.16S0
G1 X0.12S573.6
G1 X1.02S574
G1 X0.06S572.4
G1 X0.661S0
G1 X0.06S574
G1 X0.06S574.4
G1 X0.9S574
G1 X0.06S574.4
G1 X0.06S574
G1 X0.06S571.7
G1 X2.82S0
G1 X0.06S572
G1 X0.06S574.4
G1 X1.02S574
G1 X0.06S572.4
G1 X2.82S0
G1 X0.12S574
G1 X0.06S574.4
G1 X0.84S574
G1 X0.06S574.4
G1 X0.06S574
G1 X0.06S572
G1 X1.667S0
G1 Y0.06S0
G1 X-1.667S0
G1 X-0.06S572
G1 X-0.96S574
G1 X-0.06S574.4
G1 X-0.12S574
G1 X-2.82S0
G1 X-0.06S572.4
G1 X-1.02S574
G1 X-0.06S574.4
G1 X-0.06S572
G1 X-2.82S0
G1 X-0.06S571.7
G1 X-1.02S574
G1 X-0.06S574.4
G1 X-0.06S574
G1 X-0.661S0
G1 X-0.06S572.4
G1 X-1.02S574
G1 X-0.12S573.6
G1 X-2.1S0
G1 X-0.06S569.7
G1 X-0.06S573.6
G1 X-0.06S574
G1 X-0.06S573.6
G1 X-0.06S571.3
G1 X-0.18S0
G1 X-0.06S570.9
G1 X-0.06S573.6
G1 X-0.78S574
G1 X-0.06S570.5
G1 X-0.36S0
G1 X-0.06S574
G1 X-0.06S573.6
G1 X-0.06S574
G1 X-0.06S574.4
G1 X-0.36S574
G1 X-0.06S574.4
G1 X-0.18S574
G1 X-0.06S571.7
G1 X-0.18S0
G1 X-0.06S570.1
G1 X-0.06S573.2
G1 X-0.06S574
G1 X-0.06S573.6
G1 X-0.06S571.3
G1 X-3.9S0
G1 X-0.36S571.3
G1 X-2.281S0
G1 X-1.32S543.3
G1 X-0.42S0
G1 X-1.38S543.3
G1 X-0.18S0
G1 X-3.12S543.3
G1 X-0.06S543.7
G1 X-0.06S0
G1 X-1.26S543.3
G1 X-1.667S0
G1 Y0.06S0
G1 X1.667S0
G1 X1.26S543.3
G1 X0.06S0
G1 X3.18S543.3
G1 X0.18S0
G1 X1.2S543.3
G1 X0.06S543.7
G1 X0.6S0
G1 X1.32S543.3
G1 X2.221S0
G1 X0.36S571.3
G1 X3.84S0
G1 X0.06S571.3
G1 X0.06S574
G1 X0.06S574.4
G1 X0.06S574
G1 X0.06S569.3
G1 X0.18S0
G1 X0.06S572.4
G1 X0.18S574
G1 X0.06S574.4
G1 X0.42S574
G1 X0.06S574.4
G1 X0.12S574
G1 X0.06S574.4
G1 X0.36S0
G1 X0.06S569.7
G1 X0.06S574
G1 X0.06S574.4
G1 X0.78S574
G1 X0.06S570.5
G1 X0.18S0
G1 X0.06S571.7
G1 X0.12S574.4
G1 X0.06S573.6
G1 X0.06S568.1
G1 X2.04S0
G1 X0.12S573.6
G1 X1.02S574
G1 X0.06S572.4
G1 X0.661S0
G1 X0.06S574
G1 X0.06S574.4
G1 X1.02S574
G1 X0.06S571.7
G1 X2.82S0
G1 X0.06S572
G1 X0.06S574.4
G1 X1.02S574
G1 X0.06S572.4
G1 X2.82S0
G1 X0.12S574
G1 X0.06S574.4
G1 X0.96S574
G1 X0.06S572
G1 X1.667S0
G1 Y0.06S0
G1 X-1.667S0
G1 X-0.06S572
G1 X-0.96S574
G1 X-0.06S574.4
G1 X-0.12S574
G1 X-2.82S0
G1 X-0.06S572.4
G1 X-1.02S574
G1 X-0.06S574.4
G1 X-0.06S572
G1 X-2.82S0
G1 X-0.06S571.7
G1 X-1.02S574
G1 X-0.06S574.4
G1 X-0.06S574
G1 X-0.661S0
G1 X-0.06S572.4
G1 X-1.02S574
G1 X-0.12S573.6
G1 X-1.98S0
G1 X-0.06S566.5
G1 X-0.18S574
G1 X-0.06S572.8
G1 X-0.18S0
G1 X-0.06S572
G1 X-0.9S574
G1 X-0.06S574.4
G1 X-0.06S570.1
G1 X-0.36S0
G1 X-0.18S574.4
G1 X-0.72S574
G1 X-0.06S574.4
G1 X-0.06S572
G1 X-0.18S0
G1 X-0.06S568.1
G1 X-0.18S574
G1 X-0.06S572.8
G1 X-3.78S0
G1 X-0.36S571.3
G1 X-2.221S0
G1 X-1.14S543.3
G1 X-0.06S543.7
G1 X-0.06S543.3
G1 X-0.72S0
G1 X-1.14S543.3
G1 X-0.12S543.7
G1 X-0.12S0
G1 X-4.44S543.3
G1 X-0.06S543.7
G1 X-1.667S0
G1 Y0.06S0
G1 X1.667S0
G1 X4.56S543.3
G1 X0.06S0
G1 X1.2S543.3
G1 X0.84S0
G1 X1.2S543.3
G1 X2.221S0
G1 X0.36S571.3
G1 X3.72S0
G1 X0.06S572.8
G1 X0.12S574
G1 X0.06S573.2
G1 X0.06S570.9
G1 X0.18S0
G1 X0.06S571.3
G1 X0.84S574
G1 X0.06S574.4
G1 X0.12S574
G1 X0.36S0
G1 X0.06S570.5
G1 X1.02S574
G1 X0.06S570.5
G1 X0.18S0
G1 X0.06S572
G1 X0.06S574.4
G1 X0.06S573.6
G1 X0.06S574
G1 X0.06S569.3
G1 X1.92S0
G1 X0.12S573.6
G1 X1.02S574
G1 X0.06S572.4
G1 X0.661S0
G1 X0.06S574
G1 X0.06S574.4
G1 X1.02S574
G1 X0.06S571.7
G1 X2.82S0
G1 X0.06S572
G1 X0.06S574.4
G1 X1.02S574
G1 X0.06S572.4
G1 X2.82S0
G1 X0.12S574
G1 X0.06S574.4
G1 X0.96S574
G1 X0.06S572
G1 X1.667S0
G1 Y0.06S0
G1 X-1.667S0
G1 X-0.06S572
G1 X-0.96S574
G1 X-0.06S574.4
G1 X-0.12S574
G1 X-2.82S0
G1 X-0.06S572.4
G1 X-1.02S574
G1 X-0.06S574.4
G1 X-0.06S572
G1 X-2.82S0
G1 X-0.06S571.7
G1 X-1.02S574
G1 X-0.06S574.4
G1 X-0.06S574
G1 X-0.661S0
G1 X-0.06S572.4
G1 X-1.02S574
G1 X-0.12S573.6
G1 X-1.86S0
G1 X-0.06S570.5
G1 X-0.06S573.6
G1 X-0.12S574
G1 X-0.06S572
G1 X-0.18S0
G1 X-0.06S570.5
G1 X-0.06S573.6
G1 X-0.06S574.4
G1 X-0.96S574
G1 X-0.06S571.3
G1 X-0.36S0
G1 X-0.06S573.6
G1 X-1.02S574
G1 X-0.06S572
G1 X-0.18S0
G1 X-0.06S570.5
G1 X-0.06S573.6
G1 X-0.12S574
G1 X-0.06S572.8
G1 X-0.06S568.9
G1 X-3.6S0
G1 X-0.36S571.3
G1 X-2.161S0
G1 X-1.2S543.3
G1 X-0.9S0
G1 X-1.2S543.3
G1 X-0.06S0
G1 X-1.44S543.3
G1 X-0.48S0
G1 X-1.26S543.3
G1 X-0.06S543.7
G1 X-1.32S543.3
G1 X-1.667S0
G1 Y0.06S0
G1 X1.667S0
G1 X2.58S543.3
G1 X0.6S0
G1 X2.64S543.3
G1 X0.9S0
G1 X1.2S543.3
G1 X2.161S0
G1 X0.36S571.3
G1 X3.54S0
G1 X0.06S569.7
G1 X0.06S573.2
G1 X0.18S574
G1 X0.06S570.9
G1 X0.18S0
G1 X0.06S570.5
G1 X0.18S574
G1 X0.06S574.4
G1 X0.9S574
G1 X0.36S0
G1 X0.06S571.7
G1 X1.08S574
G1 X0.06S573.6
G1 X0.06S569.7
G1 X0.18S0
G1 X0.06S572.8
G1 X0.18S574
G1 X0.06S571.3
G1 X1.8S0
G1 X0.12S573.6
G1 X1.02S574
G1 X0.06S572.4
G1 X0.661S0
G1 X0.06S574
G1 X0.06S574.4
G1 X1.02S574
G1 X0.06S571.7
G1 X2.82S0
G1 X0.06S572
G1 X0.06S574.4
G1 X1.02S574
G1 X0.06S572.4
G1 X2.82S0
G1 X0.12S574
G1 X0.06S574.4
G1 X0.96S574
G1 X0.06S572
G1 X1.667S0
G1 Y0.06S0
G1 X-1.667S0
G1 X-0.06S572
G1 X-0.96S574
G1 X-0.06S574.4
G1 X-0.12S574
G1 X-2.82S0
G1 X-0.06S572.4
G1 X-1.02S574
G1 X-0.06S574.4
G1 X-0.06S572
G1 X-2.82S0
G1 X-0.06S571.7
G1 X-1.02S574
G1 X-0.06S574.4
G1 X-0.06S574
G1 X-0.661S0
G1 X-0.06S572
G1 X-1.02S574
G1 X-0.12S573.6
G1 X-1.74S0
G1 X-0.06S572.4
G1 X-0.18S574
G1 X-0.06S574.4
G1 X-0.18S0
G1 X-0.06S570.9
G1 X-1.08S574
G1 X-0.06S574.4
G1 X-0.06S574
G1 X-0.06S571.7
G1 X-0.36S0
G1 X-1.08S574
G1 X-0.06S574.4
G1 X-0.06S574
G1 X-0.06S571.3
G1 X-0.18S0
G1 X-0.06S570.9
G1 X-0.18S574.4
G1 X-0.06S574
G1 X-0.06S570.1
G1 X-3.48S0
G1 X-0.36S571.3
G1 X-2.161S0
G1 X-1.08S543.3
G1 X-0.06S543.7
G1 X-1.02S0
G1 X-0.12S543.3
G1 X-0.9S542.9
G1 X-0.12S543.3
G1 X-0.06S543.7
G1 X-1.14S543.3
G1 X-0.06S543.7
G1 X-0.12S543.3
G1 X-0.72S0
G1 X-0.06S543.3
G1 X-0.06S543.7
G1 X-2.4S543.3
G1 X-1.667S0
G1 Y0.06S0
G1 X1.667S0
G1 X0.06S543.7
G1 X1.2S543.3
G1 X0.06S543.7
G1 X1.02S543.3
G1 X0.12S543.7
G1 X0.84S0
G1 X0.18S543.3
G1 X0.9S543.7
G1 X0.24S543.3
G1 X2.16S0
G1 X0.06S543.3
G1 X0.06S543.7
G1 X1.02S543.3
G1 X2.161S0
G1 X0.36S571.3
G1 X3.42S0
G1 X0.06S571.7
G1 X0.06S574.4
G1 X0.06S574
G1 X0.06S574.4
G1 X0.06S574
G1 X0.06S572
G1 X0.18S0
G1 X0.06S569.7
G1 X0.06S574
G1 X0.06S574.4
G1 X1.08S574
G1 X0.06S573.6
G1 X0.36S0
G1 X0.06S572
G1 X0.06S574
G1 X0.06S574.4
G1 X1.08S574
G1 X0.06S574.4
G1 X0.06S570.5
G1 X0.12S0
G1 X0.06S568.5
G1 X0.06S573.6
G1 X0.06S574.4
G1 X0.12S574
G1 X0.06S572.8
G1 X0.06S565
G1 X1.62S0
G1 X0.12S573.6
G1 X1.02S574
G1 X0.06S572
G1 X0.661S0
G1 X0.06S574
G1 X0.06S574.4
G1 X1.02S574
G1 X0.06S571.7
G1 X2.82S0
G1 X0.06S572
G1 X0.06S574.4
G1 X1.02S574
G1 X0.06S572.4
G1 X2.82S0
G1 X0.12S574
G1 X0.06S574.4
G1 X0.96S574
G1 X0.06S572
G1 X1.667S0
G1 Y0.06S0
G1 X-1.667S0
G1 X-0.06S572
G1 X-0.06S574
G1 X-0.06S574.4
G1 X-0.84S574
G1 X-0.06S574.4
G1 X-0.12S574
G1 X-2.82S0
G1 X-0.06S572.8
G1 X-1.02S574
G1 X-0.06S574.4
G1 X-0.06S572
G1 X-2.82S0
G1 X-0.06S571.7
G1 X-1.02S574
G1 X-0.06S574.4
G1 X-0.06S574
G1 X-0.661S0
G1 X-0.06S572
G1 X-1.02S574
G1 X-0.12S573.6
G1 X-1.56S0
G1 X-0.06S568.9
G1 X-0.06S573.2
G1 X-0.24S574
G1 X-0.06S569.3
G1 X-0.12S0
G1 X-0.06S569.3
G1 X-0.06S573.6
G1 X-1.26S574
G1 X-0.06S571.7
G1 X-0.36S0
G1 X-0.06S573.6
G1 X-1.2S574
G1 X-0.06S573.6
G1 X-0.06S570.1
G1 X-0.18S0
G1 X-0.06S572
G1 X-0.12S574.4
G1 X-0.12S574
G1 X-0.06S571.7
G1 X-3.36S0
G1 X-0.36S571.3
G1 X-2.161S0
G1 X-2.22S543.3
G1 X-0.96S543.7
G1 X-0.06S543.3
G1 X-0.06S543.7
G1 X-0.06S543.3
G1 X-1.62S0
G1 X-0.18S543.3
G1 X-0.3S0
G1 X-0.06S543.3
G1 X-0.06S543.7
G1 X-2.34S543.3
G1 X-1.667S0
G1 Y0.06S0
G1 X1.667S0
G1 X2.4S543.3
G1 X0.36S0
G1 X0.3S543.3
G1 X1.5S0
G1 X2.22S543.3
G1 X0.06S543.7
G1 X1.14S543.3
G1 X2.101S0
G1 X0.36S571.3
G1 X3.24S0
G1 X0.06S565.7
G1 X0.06S571.7
G1 X0.12S574
G1 X0.12S574.4
G1 X0.06S573.2
G1 X0.18S0
G1 X0.06S569.3
G1 X0.06S573.2
G1 X1.14S574
G1 X0.12S574.4
G1 X0.06S573.6
G1 X0.36S0
G1 X0.06S571.7
G1 X0.06S574.4
G1 X1.02S574
G1 X0.12S574.4
G1 X0.12S574
G1 X0.06S572.8
G1 X0.18S0
G1 X0.06S571.3
G1 X0.24S574
G1 X0.06S573.6
G1 X0.06S569.3
G1 X1.5S0
G1 X0.12S573.6
G1 X1.02S574
G1 X0.06S572
G1 X0.661S0
G1 X0.06S574
G1 X0.06S574.4
G1 X1.02S574
G1 X0.06S572
G1 X2.82S0
G1 X0.06S572
G1 X0.06S574.4
G1 X1.02S574
G1 X0.06S572.4
G1 X2.82S0
G1 X0.12S574
G1 X0.06S574.4
G1 X0.96S574
G1 X0.06S572
G1 X1.667S0
G1 Y0.06S0
G1 X-1.667S0
G1 X-0.06S572
G1 X-0.96S574
G1 X-0.06S574.4
G1 X-0.12S574
G1 X-2.82S0
G1 X-0.06S573.2
G1 X-1.02S574
G1 X-0.06S574.4
G1 X-0.06S572
G1 X-2.82S0
G1 X-0.06S571.7
G1 X-0.06S574.4
G1 X-0.96S574
G1 X-0.06S574.4
G1 X-0.06S574
G1 X-0.661S0
G1 X-0.06S572
G1 X-1.02S574
G1 X-0.12S573.6
G1 X-1.44S0
G1 X-0.06S571.7
G1 X-0.24S574
G1 X-0.06S573.6
G1 X-0.06S570.9
G1 X-0.18S0
G1 X-0.06S572
G1 X-0.12S574
G1 X-0.18S574.4
G1 X-0.66S574
G1 X-0.06S574.4
G1 X-0.3S574
G1 X-0.06S574.4
G1 X-0.06S572.4
G1 X-0.36S0
G1 X-0.06S573.6
G1 X-0.12S574.4
G1 X-0.12S574
G1 X-0.12S574.4
G1 X-0.78S574
G1 X-0.06S574.4
G1 X-0.12S574
G1 X-0.06S573.2
G1 X-0.06S567.7
G1 X-0.12S0
G1 X-0.06S568.9
G1 X-0.06S573.6
G1 X-0.06S574
G1 X-0.06S574.4
G1 X-0.12S574
G1 X-0.06S572.4
G1 X-0.06S569.7
G1 X-3.18S0
G1 X-0.36S571.3
G1 X-2.101S0
G1 X-0.12S543.3
G1 X-0.06S543.7
G1 X-3.24S543.3
G1 X-1.38S0
G1 X-0.06S543.7
G1 X-0.42S543.3
G1 X-0.3S0
G1 X-2.28S543.3
G1 X-0.06S543.7
G1 X-0.06S543.3
G1 X-1.667S0
G1 Y0.06S0
G1 X1.667S0
G1 X0.06S543.3
G1 X0.06S543.7
G1 X2.22S543.3
G1 X0.3S0
G1 X0.66S543.3
G1 X1.26S0
G1 X3.42S543.3
G1 X2.101S0
G1 X0.36S571.3
G1 X3.12S0
G1 X0.06S571.3
G1 X0.06S574.4
G1 X0.06S573.6
G1 X0.12S574
G1 X0.06S574.8
G1 X0.06S574
G1 X0.06S570.5
G1 X0.18S0
G1 X0.06S573.2
G1 X0.06S574
G1 X0.06S574.4
G1 X0.54S574
G1 X0.24S574.4
G1 X0.36S574
G1 X0.12S574.4
G1 X0.06S573.6
G1 X0.06S568.5
G1 X0.06S562.2
G1 X0.12S563.4
G1 X0.06S561.4
G1 X0.06S567.7
G1 X0.06S573.6
G1 X0.24S574
G1 X0.06S574.4
G1 X0.12S574
G1 X0.06S574.4
G1 X0.78S574
G1 X0.06S574.4
G1 X0.12S574
G1 X0.06S572.4
G1 X0.18S0
G1 X0.06S572.8
G1 X0.06S574.4
G1 X0.06S574
G1 X0.06S574.4
G1 X0.18S574
G1 X0.06S564.2
G1 X1.32S0
G1 X0.12S573.6
G1 X1.02S574
G1 X0.06S572
G1 X0.661S0
G1 X0.06S574
G1 X0.06S574.4
G1 X0.96S574
G1 X0.06S574.4
G1 X0.06S571.7
G1 X2.82S0
G1 X0.06S572
G1 X0.06S574.4
G1 X1.02S574
G1 X0.06S572.4
G1 X2.82S0
G1 X0.12S574
G1 X0.06S574.4
G1 X0.9S574
G1 X0.06S574.4
G1 X0.06S571.7
G1 X1.667S0
G1 X1.98Y0.06S0
G1 X-1.667S0
G1 X-0.06S565.7
G1 X-0.48S570.9
G1 X-0.06S570.5
G1 X-0.36S570.9
G1 X-0.06S570.5
G1 X-0.48S570.9
G1 X-0.24S570.5
G1 X-0.06S570.9
G1 X-0.12S570.5
G1 X-0.06S570.9
G1 X-0.06S573.6
G1 X-0.06S574
G1 X-0.06S574.4
G1 X-0.84S574
G1 X-0.06S574.4
G1 X-0.12S574
G1 X-0.84S0
G1 X-0.06S562.2
G1 X-0.06S570.1
G1 X-0.3S570.9
G1 X-0.18S570.5
G1 X-0.78S570.9
G1 X-0.6S570.5
G1 X-0.06S573.2
G1 X-1.02S574
G1 X-0.06S574.4
G1 X-0.06S572
G1 X-0.9S0
G1 X-0.06S569.7
G1 X-0.6S570.9
G1 X-0.66S570.5
G1 X-0.3S570.9
G1 X-0.24S570.5
G1 X-0.06S571.3
G1 X-0.06S573.2
G1 X-0.06S574.4
G1 X-0.96S574
G1 X-0.06S574.4
G1 X-0.06S574
G1 X-0.661S0
G1 X-0.06S572
G1 X-1.02S574
G1 X-0.12S573.6
G1 X-1.26S0
G1 X-0.06S568.9
G1 X-0.06S573.6
G1 X-0.18S574
G1 X-0.06S574.4
G1 X-0.06S574
G1 X-0.06S573.2
G1 X-0.06S566.9
G1 X-0.12S0
G1 X-0.06S570.1
G1 X-0.18S574
G1 X-0.06S574.4
G1 X-0.66S574
G1 X-0.06S574.4
G1 X-0.18S574
G1 X-0.06S573.6
G1 X-0.06S572.8
G1 X-0.06S571.7
G1 X-0.06S570.9
G1 X-0.06S569.7
G1 X-0.06S567.7
G1 X-0.06S566.9
G1 X-0.06S567.7
G1 X-0.3S0
G1 X-0.06S567.7
G1 X-0.06S566.9
G1 X-0.06S568.1
G1 X-0.06S570.1
G1 X-0.06S570.9
G1 X-0.06S572.4
G1 X-0.06S572.8
G1 X-0.06S573.6
G1 X-0.12S574
G1 X-0.06S574.4
G1 X-0.72S574
G1 X-0.06S574.4
G1 X-0.06S574
G1 X-0.06S572.8
G1 X-0.18S0
G1 X-0.06S571.7
G1 X-0.12S574
G1 X-0.12S574.4
G1 X-0.06S574
G1 X-0.06S574.4
G1 X-0.06S572
G1 X-3.06S0
G1 X-0.36S571.3
G1 X-2.101S0
G1 X-3.42S543.3
G1 X-1.2S0
G1 X-0.72S543.3
G1 X-0.3S0
G1 X-2.22S543.3
G1 X-0.06S543.7
G1 X-0.06S543.3
G1 X-1.667S0
G1 Y0.06S0
G1 X1.667S0
G1 X0.06S543.3
G1 X0.06S543.7
G1 X2.22S543.3
G1 X0.24S0
G1 X0.9S543.3
G1 X1.08S0
G1 X3.42S543.3
G1 X2.101S0
G1 X0.36S571.3
G1 X2.94S0
G1 X0.06S566.5
G1 X0.06S572.4
G1 X0.06S574
G1 X0.06S574.4
G1 X0.06S574
G1 X0.12S574.4
G1 X0.06S574
G1 X0.06S572.8
G1 X0.18S0
G1 X0.06S571.7
G1 X0.06S574.4
G1 X0.42S574
G1 X0.06S574.4
G1 X0.06S574
G1 X0.06S574.4
G1 X0.18S574
G1 X0.06S573.2
G1 X0.06S572.8
G1 X0.06S572.4
G1 X0.06S570.1
G1 X0.06S567.7
G1 X1.2S0
G1 X0.06S568.9
G1 X0.06S571.7
G1 X0.06S572.4
G1 X0.06S573.2
G1 X0.24S574
G1 X0.06S574.4
G1 X0.06S574
G1 X0.06S574.4
G1 X0.24S574
G1 X0.06S574.4
G1 X0.18S574
G1 X0.06S573.6
G1 X0.06S569.3
G1 X0.12S0
G1 X0.06S568.1
G1 X0.06S573.6
G1 X0.06S574
G1 X0.12S574.4
G1 X0.06S574
G1 X0.06S574.4
G1 X0.06S574
G1 X0.06S570.5
G1 X1.2S0
G1 X0.12S573.6
G1 X1.02S574
G1 X0.06S572
G1 X0.661S0
G1 X0.06S574
G1 X0.06S574.4
G1 X0.9S574
G1 X0.06S574.4
G1 X1.98S574
G1 X0.06S573.2
G1 X0.06S570.1
G1 X0.84S0
G1 X0.06S572
G1 X0.06S574.4
G1 X2.94S574
G1 X0.06S573.6
G1 X0.06S565.7
G1 X0.84S0
G1 X0.12S574
G1 X0.06S574.4
G1 X0.9S574
G1 X0.06S574.4
G1 X1.92S574
G1 X0.06S574.4
G1 X0.06S569.3
G1 X1.667S0
G1 Y0.06S0
G1 X-1.667S0
G1 X-0.06S569.3
G1 X-0.12S574.4
G1 X-2.82S574
G1 X-0.06S574.4
G1 X-0.12S574
G1 X-0.84S0
G1 X-0.06S566.1
G1 X-0.06S573.6
G1 X-2.94S574
G1 X-0.06S574.4
G1 X-0.06S572
G1 X-0.84S0
G1 X-0.06S569.7
G1 X-0.06S573.2
G1 X-2.94S574
G1 X-0.06S574.4
G1 X-0.06S574
G1 X-0.661S0
G1 X-0.06S572
G1 X-1.02S574
G1 X-0.12S573.6
G1 X-1.08S0
G1 X-0.06S568.9
G1 X-0.06S571.7
G1 X-0.18S574
G1 X-0.24S574.4
G1 X-0.06S571.3
G1 X-0.12S0
G1 X-0.06S568.1
G1 X-0.06S573.2
G1 X-0.12S574.4
G1 X-0.54S574
G1 X-0.12S574.4
G1 X-0.06S574
G1 X-0.06S572
G1 X-0.06S569.7
G1 X-0.6S0
G1 X-0.12S568.9
G1 X-0.24S568.1
G1 X-0.72S0
G1 X-0.06S569.7
G1 X-0.06S570.1
G1 X-0.06S572.4
G1 X-0.72S574
G1 X-0.06S573.6
G1 X-0.06S569.7
G1 X-0.12S0
G1 X-0.06S567.7
G1 X-0.06S573.2
G1 X-0.18S574
G1 X-0.12S574.4
G1 X-0.06S574
G1 X-0.06S573.2
G1 X-0.06S570.1
G1 X-2.88S0
G1 X-0.36S571.3
G1 X-2.101S0
G1 X-3.42S543.3
G1 X-0.96S0
G1 X-0.9S543.3
G1 X-0.06S543.7
G1 X-0.06S543.3
G1 X-0.24S0
G1 X-2.22S543.3
G1 X-0.06S543.7
G1 X-0.06S543.3
G1 X-1.667S0
G1 Y0.06S0
G1 X1.667S0
G1 X0.06S543.3
G1 X0.06S543.7
G1 X2.28S543.3
G1 X0.18S0
G1 X1.02S543.3
G1 X0.06S543.7
G1 X0.06S543.3
G1 X0.84S0
G1 X1.2S543.3
G1 X4.321S0
G1 X0.36S571.3
G1 X2.76S0
G1 X0.06S565.7
G1 X0.06S572.4
G1 X0.06S574
G1 X0.06S574.4
G1 X0.18S574
G1 X0.06S574.4
G1 X0.06S574
G1 X0.06S573.6
G1 X0.06S569.3
G1 X0.12S0
G1 X0.06S565.7
G1 X0.06S573.6
G1 X0.06S574.4
G1 X0.06S574
G1 X0.06S574.4
G1 X0.36S574
G1 X0.06S574.4
G1 X0.06S574
G1 X0.06S574.4
G1 X0.06S569.7
G1 X0.54S0
G1 X0.06S569.7
G1 X0.06S572
G1 X0.12S573.2
G1 X0.06S573.6
G1 X0.06S569.3
G1 X0.24S0
G1 X0.06S568.5
G1 X0.06S573.2
G1 X0.18S573.6
G1 X0.06S572.4
G1 X0.06S570.5
G1 X0.06S567.3
G1 X0.36S0
G1 X0.06S568.9
G1 X0.06S573.6
G1 X0.06S574
G1 X0.06S574.4
G1 X0.66S574
G1 X0.06S572
G1 X0.18S0
G1 X0.06S572.4
G1 X0.18S574.4
G1 X0.24S574
G1 X0.06S573.6
G1 X0.06S569.7
G1 X1.02S0
G1 X0.12S573.6
G1 X1.02S574
G1 X0.06S572
G1 X0.661S0
G1 X0.06S573.6
G1 X0.06S574.4
G1 X2.94S574
G1 X0.06S573.2
G1 X0.06S569.7
G1 X0.84S0
G1 X0.06S572
G1 X0.06S574.4
G1 X2.94S574
G1 X0.06S573.6
G1 X0.06S566.1
G1 X0.84S0
G1 X0.12S574
G1 X0.06S574.4
G1 X2.82S574
G1 X0.12S574.4
G1 X0.06S569.3
G1 X1.667S0
G1 Y0.06S0
G1 X-1.667S0
G1 X-0.06S569.3
G1 X-0.12S574.4
G1 X-2.82S574
G1 X-0.06S574.4
G1 X-0.12S574
G1 X-0.84S0
G1 X-0.06S566.1
G1 X-0.06S573.6
G1 X-2.94S574
G1 X-0.06S574.4
G1 X-0.06S572
G1 X-0.84S0
G1 X-0.06S569.7
G1 X-0.06S573.2
G1 X-2.94S574
G1 X-0.06S574.4
G1 X-0.06S574
G1 X-0.661S0
G1 X-0.06S572
G1 X-1.02S574
G1 X-0.12S573.6
G1 X-0.9S0
G1 X-0.06S566.1
G1 X-0.06S571.7
G1 X-0.12S574
G1 X-0.06S574.4
G1 X-0.12S574
G1 X-0.06S574.4
G1 X-0.06S574
G1 X-0.06S574.4
G1 X-0.06S574
G1 X-0.06S567.7
G1 X-0.12S0
G1 X-0.06S569.3
G1 X-0.78S574
G1 X-0.06S572.8
G1 X-0.06S567.7
G1 X-0.24S0
G1 X-0.06S567.7
G1 X-0.06S571.3
G1 X-0.06S573.2
G1 X-0.06S574
G1 X-0.06S574.4
G1 X-0.24S574
G1 X-0.06S573.6
G1 X-0.06S568.5
G1 X-0.24S0
G1 X-0.06S571.3
G1 X-0.06S573.2
G1 X-0.3S574
G1 X-0.06S572.4
G1 X-0.06S569.3
G1 X-0.48S0
G1 X-0.06S572
G1 X-0.54S574
G1 X-0.12S574.4
G1 X-0.06S573.2
G1 X-0.18S0
G1 X-0.06S572.4
G1 X-0.18S574
G1 X-0.06S574.4
G1 X-0.24S574
G1 X-0.06S573.6
G1 X-0.06S568.1
G1 X-2.7S0
G1 X-0.36S571.3
G1 X-4.321S0
G1 X-0.06S543.7
G1 X-0.06S543.3
G1 X-0.06S543.7
G1 X-1.02S543.3
G1 X-0.72S0
G1 X-1.08S543.3
G1 X-0.06S543.7
G1 X-0.3S0
G1 X-2.28S543.3
G1 X-0.06S543.7
G1 X-0.06S543.3
G1 X-1.667S0
G1 Y0.06S0
G1 X1.667S0
G1 X0.06S543.3
G1 X0.06S543.7
G1 X1.14S543.3
G1 X0.06S543.7
G1 X1.14S543.3
G1 X0.3S0
G1 X0.06S543.7
G1 X1.08S543.3
G1 X0.66S0
G1 X1.2S543.3
G1 X0.96S0
G1 X1.2S543.3
G1 X2.161S0
G1 X0.36S571.3
G1 X2.64S0
G1 X0.06S570.9
G1 X0.18S574
G1 X0.06S574.4
G1 X0.18S574
G1 X0.06S574.4
G1 X0.06S574.8
G1 X0.06S573.6
G1 X0.06S568.1
G1 X0.12S0
G1 X0.06S569.7
G1 X0.12S574
G1 X0.18S574.4
G1 X0.24S574
G1 X0.06S574.4
G1 X0.06S574
G1 X0.06S571.7
G1 X0.42S0
G1 X0.06S568.9
G1 X0.06S573.6
G1 X0.3S574
G1 X0.06S574.4
G1 X0.06S574
G1 X0.06S573.6
G1 X0.06S570.9
G1 X0.24S0
G1 X0.06S569.3
G1 X0.24S574
G1 X0.12S574.4
G1 X0.06S574
G1 X0.06S574.4
G1 X0.12S574
G1 X0.06S572.8
G1 X0.06S564.6
G1 X0.18S0
G1 X0.06S568.1
G1 X0.06S574
G1 X0.18S574.4
G1 X0.42S574
G1 X0.18S574.4
G1 X0.06S566.9
G1 X0.12S0
G1 X0.06S571.7
G1 X0.12S574
G1 X0.06S574.4
G1 X0.06S574
G1 X0.06S574.4
G1 X0.06S574
G1 X0.06S574.4
G1 X0.12S574
G1 X0.06S573.6
G1 X0.06S569.7
G1 X0.84S0
G1 X0.12S573.6
G1 X1.02S574
G1 X0.06S572
G1 X0.661S0
G1 X0.06S574
G1 X0.06S574.4
G1 X2.94S574
G1 X0.06S573.2
G1 X0.06S569.7
G1 X0.84S0
G1 X0.06S572
G1 X0.06S574.4
G1 X2.94S574
G1 X0.06S573.6
G1 X0.06S566.1
G1 X0.84S0
G1 X0.12S574
G1 X0.06S574.4
G1 X2.82S574
G1 X0.12S574.4
G1 X0.06S569.3
G1 X1.667S0
G1 Y0.06S0
G1 X-1.667S0
G1 X-0.06S569.3
G1 X-0.12S574.4
G1 X-2.82S574
G1 X-0.06S574.4
G1 X-0.12S574
G1 X-0.84S0
G1 X-0.06S566.1
G1 X-0.06S573.6
G1 X-2.94S574
G1 X-0.06S574.4
G1 X-0.06S572
G1 X-0.84S0
G1 X-0.06S569.7
G1 X-0.06S573.2
G1 X-2.94S574
G1 X-0.06S574.4
G1 X-0.06S574
G1 X-0.661S0
G1 X-0.06S572
G1 X-1.02S574
G1 X-0.12S573.6
G1 X-0.78S0
G1 X-0.06S569.3
G1 X-0.06S574.4
G1 X-0.06S574
G1 X-0.12S574.4
G1 X-0.06S574
G1 X-0.06S574.4
G1 X-0.3S574
G1 X-0.06S570.9
G1 X-0.12S0
G1 X-0.06S571.3
G1 X-0.78S574
G1 X-0.06S572
G1 X-0.18S0
G1 X-0.06S566.5
G1 X-0.06S573.2
G1 X-0.06S574.4
G1 X-0.18S574
G1 X-0.06S574.4
G1 X-0.24S574
G1 X-0.06S574.4
G1 X-0.06S574
G1 X-0.06S570.5
G1 X-0.24S0
G1 X-0.06S570.9
G1 X-0.06S573.6
G1 X-0.06S574.4
G1 X-0.06S574
G1 X-0.06S574.4
G1 X-0.06S574
G1 X-0.06S574.4
G1 X-0.24S574
G1 X-0.06S567.7
G1 X-0.42S0
G1 X-0.06S572.8
G1 X-0.06S574
G1 X-0.06S574.4
G1 X-0.48S574
G1 X-0.06S573.6
G1 X-0.18S0
G1 X-0.06S572.4
G1 X-0.12S574.4
G1 X-0.24S574
G1 X-0.12S574.4
G1 X-0.06S574
G1 X-0.06S573.6
G1 X-0.06S571.7
G1 X-2.58S0
G1 X-0.36S571.3
G1 X-2.161S0
G1 X-0.12S543.3
G1 X-0.96S543.7
G1 X-0.12S543.3
G1 X-0.96S0
G1 X-1.14S543.3
G1 X-0.6S0
G1 X-1.2S543.3
G1 X-0.3S0
G1 X-2.4S543.3
G1 X-0.06S543.7
G1 X-0.06S543.3
G1 X-1.667S0
G1 Y0.06S0
G1 X1.667S0
G1 X0.06S543.3
G1 X0.06S543.7
G1 X2.46S543.3
G1 X0.36S0
G1 X1.2S543.3
G1 X0.48S0
G1 X1.2S543.3
G1 X0.84S0
G1 X1.26S543.3
G1 X2.161S0
G1 X0.36S571.3
G1 X2.52S0
G1 X0.06S567.7
G1 X0.12S574
G1 X0.12S574.4
G1 X0.3S574
G1 X0.12S574.4
G1 X0.06S572
G1 X0.12S0
G1 X0.06S566.5
G1 X0.06S574.4
G1 X0.6S574
G1 X0.06S570.5
G1 X0.42S0
G1 X0.06S570.1
G1 X0.06S574
G1 X0.06S574.4
G1 X0.36S574
G1 X0.06S574.4
G1 X0.06S573.6
G1 X0.06S570.9
G1 X0.24S0
G1 X0.06S570.9
G1 X0.42S574
G1 X0.06S574.4
G1 X0.06S574
G1 X0.12S574.4
G1 X0.06S574
G1 X0.06S572.4
G1 X0.18S0
G1 X0.06S569.7
G1 X0.78S574
G1 X0.06S571.7
G1 X0.12S0
G1 X0.06S569.7
G1 X0.06S574
G1 X0.06S574.4
G1 X0.54S574
G1 X0.06S573.2
G1 X0.78S0
G1 X0.12S573.6
G1 X1.02S574
G1 X0.06S572
G1 X0.661S0
G1 X0.06S574
G1 X0.06S574.4
G1 X2.94S574
G1 X0.06S573.2
G1 X0.06S569.7
G1 X0.84S0
G1 X0.06S572
G1 X0.06S574.4
G1 X2.94S574
G1 X0.06S573.6
G1 X0.06S566.1
G1 X0.84S0
G1 X0.12S574
G1 X0.06S574.4
G1 X2.82S574
G1 X0.12S574.4
G1 X0.06S569.3
G1 X1.667S0
G1 Y0.06S0
G1 X-1.667S0
G1 X-0.06S569.3
G1 X-0.12S574.4
G1 X-2.82S574
G1 X-0.06S574.4
G1 X-0.12S574
G1 X-0.84S0
G1 X-0.06S566.1
G1 X-0.06S573.6
G1 X-2.94S574
G1 X-0.06S574.4
G1 X-0.06S572
G1 X-0.84S0
G1 X-0.06S569.7
G1 X-0.06S573.2
G1 X-2.94S574
G1 X-0.06S574.4
G1 X-0.06S574
G1 X-0.661S0
G1 X-0.06S572
G1 X-1.02S574
G1 X-0.12S573.6
G1 X-0.78S0
G1 X-0.06S572
G1 X-0.54S574
G1 X-0.06S574.4
G1 X-0.06S574
G1 X-0.06S570.9
G1 X-0.12S0
G1 X-0.06S572
G1 X-0.78S574
G1 X-0.06S572
G1 X-0.18S0
G1 X-0.06S572.8
G1 X-0.06S574.4
G1 X-0.12S574
G1 X-0.06S574.4
G1 X-0.06S574
G1 X-0.06S574.4
G1 X-0.24S574
G1 X-0.12S574.4
G1 X-0.06S570.5
G1 X-0.24S0
G1 X-0.06S571.7
G1 X-0.06S573.6
G1 X-0.06S574.4
G1 X-0.18S574
G1 X-0.12S574.4
G1 X-0.12S574
G1 X-0.06S573.6
G1 X-0.06S566.1
G1 X-0.42S0
G1 X-0.06S570.1
G1 X-0.48S574
G1 X-0.18S574.4
G1 X-0.06S565.7
G1 X-0.12S0
G1 X-0.06S572
G1 X-0.06S574.4
G1 X-0.06S574.8
G1 X-0.3S574
G1 X-0.06S574.4
G1 X-0.12S574
G1 X-0.06S573.6
G1 X-0.06S568.1
G1 X-2.52S0
G1 X-0.36S571.3
G1 X-2.221S0
G1 X-1.2S543.3
G1 X-0.78S0
G1 X-1.26S543.3
G1 X-0.36S0
G1 X-1.2S543.3
G1 X-0.06S543.7
G1 X-0.06S543.3
G1 X-0.18S0
G1 X-0.06S543.3
G1 X-0.06S543.7
G1 X-2.52S543.3
G1 X-0.06S543.7
G1 X-0.06S543.3
G1 X-1.667S0
G1 Y0.06S0
G1 X1.667S0
G1 X0.06S543.3
G1 X0.06S543.7
G1 X1.14S543.3
G1 X0.06S0
G1 X2.82S543.3
G1 X0.06S543.7
G1 X0.12S543.3
G1 X0.36S0
G1 X1.26S543.3
G1 X0.66S0
G1 X0.06S543.7
G1 X1.14S543.3
G1 X0.06S543.7
G1 X2.221S0
G1 X0.36S571.3
G1 X2.58S0
G1 X0.06S573.2
G1 X0.12S574
G1 X0.06S574.4
G1 X0.06S574
G1 X0.06S574.4
G1 X0.18S574
G1 X0.12S574.4
G1 X0.06S572.4
G1 X0.18S0
G1 X0.12S574
G1 X0.06S574.4
G1 X0.48S574
G1 X0.06S571.3
G1 X0.48S0
G1 X0.06S568.1
G1 X0.12S574
G1 X0.12S574.4
G1 X0.06S574
G1 X0.06S574.4
G1 X0.06S574
G1 X0.06S574.4
G1 X0.06S574
G1 X0.06S570.9
G1 X0.24S0
G1 X0.06S570.1
G1 X0.06S574.4
G1 X0.18S574
G1 X0.06S574.4
G1 X0.18S574
G1 X0.12S574.4
G1 X0.12S574
G1 X0.06S562.6
G1 X0.18S0
G1 X0.06S573.2
G1 X0.6S574
G1 X0.06S574.4
G1 X0.06S574
G1 X0.06S574.4
G1 X0.06S568.9
G1 X0.12S0
G1 X0.06S571.7
G1 X0.06S574
G1 X0.06S574.4
G1 X0.48S574
G1 X0.06S574.4
G1 X0.06S567.7
G1 X0.78S0
G1 X0.12S573.6
G1 X1.02S574
G1 X0.06S572
G1 X0.661S0
G1 X0.06S574
G1 X0.06S574.4
G1 X2.94S574
G1 X0.06S573.2
G1 X0.06S569.7
G1 X0.84S0
G1 X0.06S572
G1 X0.06S574.4
G1 X2.94S574
G1 X0.06S573.6
G1 X0.06S566.1
G1 X0.84S0
G1 X0.12S574
G1 X0.06S574.4
G1 X2.82S574
G1 X0.12S574.4
G1 X0.06S569.3
G1 X1.667S0
G1 Y0.06S0
G1 X-1.667S0
G1 X-0.06S569.3
G1 X-0.12S574.4
G1 X-2.82S574
G1 X-0.06S574.4
G1 X-0.12S574
G1 X-0.84S0
G1 X-0.06S566.1
G1 X-0.06S573.6
G1 X-2.94S574
G1 X-0.06S574.4
G1 X-0.06S572
G1 X-0.84S0
G1 X-0.06S569.7
G1 X-0.06S573.2
G1 X-2.94S574
G1 X-0.06S574.4
G1 X-0.06S574
G1 X-0.661S0
G1 X-0.06S572
G1 X-1.02S574
G1 X-0.12S573.6
G1 X-0.84S0
G1 X-0.06S569.3
G1 X-0.06S572.8
G1 X-0.06S573.6
G1 X-0.06S574
G1 X-0.06S574.4
G1 X-0.24S574
G1 X-0.06S574.4
G1 X-0.06S574
G1 X-0.06S572.8
G1 X-0.18S0
G1 X-0.06S572.8
G1 X-0.06S574
G1 X-0.12S574.4
G1 X-0.6S574
G1 X-0.06S572.4
G1 X-0.24S0
G1 X-0.06S572
G1 X-0.06S572.8
G1 X-0.12S573.2
G1 X-0.06S572.4
G1 X-0.06S573.6
G1 X-0.12S574.4
G1 X-0.06S574
G1 X-0.12S574.4
G1 X-0.06S570.5
G1 X-0.24S0
G1 X-0.06S570.9
G1 X-0.12S574
G1 X-0.12S574.4
G1 X-0.06S574
G1 X-0.06S573.6
G1 X-0.06S572.8
G1 X-0.06S572.4
G1 X-0.06S566.9
G1 X-0.48S0
G1 X-0.06S569.3
G1 X-0.12S574
G1 X-0.06S574.4
G1 X-0.42S574
G1 X-0.06S573.6
G1 X-0.06S570.5
G1 X-0.12S0
G1 X-0.06S569.3
G1 X-0.06S573.6
G1 X-0.12S574
G1 X-0.06S574.4
G1 X-0.06S574
G1 X-0.06S574.4
G1 X-0.06S574
G1 X-0.12S574.4
G1 X-0.06S573.6
G1 X-0.06S572.8
G1 X-0.06S566.5
G1 X-2.58S0
G1 X-0.36S571.3
G1 X-2.221S0
G1 X-1.2S543.3
G1 X-0.06S543.7
G1 X-0.06S543.3
G1 X-0.54S0
G1 X-0.06S542.9
G1 X-1.26S543.3
G1 X-0.24S0
G1 X-0.12S543.3
G1 X-0.06S543.7
G1 X-1.56S543.3
G1 X-0.06S543.7
G1 X-1.2S543.3
G1 X-0.06S543.7
G1 X-0.06S543.3
G1 X-0.06S0
G1 X-1.14S543.3
G1 X-0.06S543.7
G1 X-0.06S543.3
G1 X-1.667S0
G1 Y0.06S0
G1 X1.667S0
G1 X0.06S543.3
G1 X0.06S543.7
G1 X1.14S543.3
G1 X0.12S0
G1 X3.06S543.3
G1 X0.24S0
G1 X1.2S543.3
G1 X0.06S543.7
G1 X0.12S543.3
G1 X0.36S0
G1 X1.38S543.3
G1 X2.281S0
G1 X0.36S571.3
G1 X2.7S0
G1 X0.06S570.1
G1 X0.06S573.6
G1 X0.48S574
G1 X0.06S572.4
G1 X0.18S0
G1 X0.06S572
G1 X0.48S574
G1 X0.06S574.4
G1 X0.06S574
G1 X0.06S573.2
G1 X0.06S566.9
G1 X0.6S0
G1 X0.06S569.3
G1 X0.06S570.5
G1 X0.06S573.2
G1 X0.06S574
G1 X0.06S574.4
G1 X0.06S574
G1 X0.06S570.9
G1 X0.24S0
G1 X0.06S571.3
G1 X0.12S574.4
G1 X0.18S574
G1 X0.06S570.5
G1 X0.42S0
G1 X0.06S570.5
G1 X0.06S572.8
G1 X0.06S574.4
G1 X0.48S574
G1 X0.06S574.4
G1 X0.06S574
G1 X0.06S574.4
G1 X0.06S574
G1 X0.06S572.8
G1 X0.06S567.7
G1 X0.12S0
G1 X0.06S570.9
G1 X0.12S574
G1 X0.06S574.4
G1 X0.3S574
G1 X0.06S573.6
G1 X0.06S570.1
G1 X0.96S0
G1 X0.12S573.6
G1 X1.02S574
G1 X0.06S572
G1 X0.661S0
G1 X0.06S574
G1 X0.06S574.4
G1 X0.9S574
G1 X0.12S574.4
G1 X0.12S574
G1 X1.8S574.4
G1 X0.06S573.2
G1 X0.06S569.7
G1 X0.84S0
G1 X0.06S572
G1 X0.06S574.4
G1 X0.96S574
G1 X0.06S574.4
G1 X0.06S574
G1 X1.8S574.4
G1 X0.06S574
G1 X0.06S573.6
G1 X0.06S565.7
G1 X0.84S0
G1 X0.12S574
G1 X0.06S574.4
G1 X0.84S574
G1 X1.98S574.4
G1 X0.06S574
G1 X0.06S574.4
G1 X0.06S569.3
G1 X1.667S0
G1 Y0.06S0
G1 X-1.667S0
G1 X-0.06S569.3
G1 X-0.06S574.4
G1 X-1.8S574
G1 X-0.06S574.4
G1 X-0.12S574
G1 X-0.06S574.4
G1 X-0.84S574
G1 X-0.06S574.4
G1 X-0.12S574
G1 X-0.84S0
G1 X-0.06S565.7
G1 X-0.06S573.6
G1 X-1.8S574
G1 X-0.12S574.4
G1 X-0.06S574
G1 X-0.06S574.4
G1 X-0.9S574
G1 X-0.06S574.4
G1 X-0.06S572
G1 X-0.84S0
G1 X-0.06S569.7
G1 X-0.06S573.2
G1 X-1.8S574
G1 X-0.06S574.4
G1 X-1.08S574
G1 X-0.06S574.4
G1 X-0.06S574
G1 X-0.661S0
G1 X-0.06S572
G1 X-1.02S574
G1 X-0.12S573.6
G1 X-1.02S0
G1 X-0.06S569.7
G1 X-0.06S573.2
G1 X-0.18S574
G1 X-0.06S574.4
G1 X-0.06S574
G1 X-0.06S574.4
G1 X-0.06S574
G1 X-0.06S573.6
G1 X-0.06S568.5
G1 X-0.12S0
G1 X-0.06S570.1
G1 X-0.06S573.6
G1 X-0.12S574.4
G1 X-0.54S574
G1 X-0.06S574.4
G1 X-0.06S573.2
G1 X-0.06S569.7
G1 X-0.42S0
G1 X-0.06S568.1
G1 X-0.06S573.2
G1 X-0.12S574
G1 X-0.12S574.4
G1 X-0.06S571.7
G1 X-0.24S0
G1 X-0.06S570.9
G1 X-0.12S574
G1 X-0.06S573.2
G1 X-0.06S566.9
G1 X-0.66S0
G1 X-0.06S568.9
G1 X-0.06S572.8
G1 X-0.42S574
G1 X-0.06S574.4
G1 X-0.12S574
G1 X-0.06S572.4
G1 X-0.18S0
G1 X-0.06S570.1
G1 X-0.06S573.6
G1 X-0.36S574
G1 X-0.06S574.4
G1 X-0.06S572.4
G1 X-0.06S568.5
G1 X-2.76S0
G1 X-0.36S571.3
G1 X-2.281S0
G1 X-0.06S543.3
G1 X-0.06S543.7
G1 X-1.2S543.3
G1 X-0.06S543.7
G1 X-0.18S543.3
G1 X-0.06S543.7
G1 X-1.44S543.3
G1 X-0.3S0
G1 X-3S543.3
G1 X-0.06S543.7
G1 X-0.12S0
G1 X-1.14S543.3
G1 X-0.06S543.7
G1 X-0.06S543.3
G1 X-1.667S0
G1 Y0.06S0
G1 X1.667S0
G1 X0.06S543.3
G1 X0.06S543.7
G1 X1.14S543.3
G1 X0.18S0
G1 X2.94S543.3
G1 X0.36S0
G1 X3S543.3
G1 X2.341S0
G1 X0.36S571.3
G1 X2.88S0
G1 X0.06S571.7
G1 X0.18S574
G1 X0.12S574.4
G1 X0.12S574
G1 X0.06S573.6
G1 X0.06S566.1
G1 X0.12S0
G1 X0.06S569.7
G1 X0.06S573.6
G1 X0.54S574
G1 X0.06S573.6
G1 X0.06S574
G1 X0.06S572.4
G1 X0.06S567.7
G1 X0.48S0
G1 X0.06S565.7
G1 X0.06S571.7
G1 X0.06S573.6
G1 X0.12S574
G1 X0.06S570.9
G1 X0.24S0
G1 X0.06S571.7
G1 X0.06S574.4
G1 X0.18S574
G1 X0.06S572.4
G1 X0.36S0
G1 X0.06S568.1
G1 X0.06S570.1
G1 X0.06S571.7
G1 X0.06S573.6
G1 X0.12S574
G1 X0.06S574.4
G1 X0.42S574
G1 X0.06S574.8
G1 X0.06S573.6
G1 X0.06S572.4
G1 X0.18S0
G1 X0.06S572.8
G1 X0.12S574
G1 X0.06S574.4
G1 X0.06S574
G1 X0.06S574.4
G1 X0.06S574
G1 X0.06S573.6
G1 X0.06S571.3
G1 X1.14S0
G1 X0.12S573.6
G1 X1.02S574
G1 X0.06S572
G1 X0.661S0
G1 X0.06S574
G1 X0.06S574.4
G1 X1.08S574
G1 X0.06S573.6
G1 X1.8S573.2
G1 X0.06S572.4
G1 X0.06S569.3
G1 X0.84S0
G1 X0.06S572
G1 X0.06S574.4
G1 X1.08S574
G1 X0.06S573.6
G1 X1.8S573.2
G1 X0.06S572.8
G1 X0.06S565.4
G1 X0.84S0
G1 X0.12S574
G1 X0.06S574.4
G1 X1.02S574
G1 X0.06S573.6
G1 X1.8S573.2
G1 X0.06S573.6
G1 X0.06S568.9
G1 X1.667S0
G1 X-1.98Y0.06S0
G1 X-1.667S0
G1 X-0.06S572.4
G1 X-0.06S574.4
G1 X-0.9S574
G1 X-0.06S574.4
G1 X-0.12S574
G1 X-2.82S0
G1 X-0.06S572
G1 X-1.02S574
G1 X-0.06S574.4
G1 X-0.06S572
G1 X-2.82S0
G1 X-0.06S570.9
G1 X-1.02S574
G1 X-0.06S574.4
G1 X-0.06S574
G1 X-0.661S0
G1 X-0.06S572
G1 X-1.02S574
G1 X-0.12S573.6
G1 X-1.2S0
G1 X-0.06S570.5
G1 X-0.24S574
G1 X-0.12S574.4
G1 X-0.06S574
G1 X-0.06S572.4
G1 X-0.18S0
G1 X-0.06S572.8
G1 X-0.48S574
G1 X-0.06S574.4
G1 X-0.06S574
G1 X-0.06S574.4
G1 X-0.12S574
G1 X-0.18S574.4
G1 X-0.06S572.8
G1 X-0.06S570.1
G1 X-0.06S563.8
G1 X-0.12S0
G1 X-0.06S572
G1 X-0.12S574.4
G1 X-0.06S574
G1 X-0.06S574.4
G1 X-0.06S571.7
G1 X-0.24S0
G1 X-0.06S571.3
G1 X-0.3S574
G1 X-0.06S568.5
G1 X-0.3S0
G1 X-0.06S562.2
G1 X-0.06S571.3
G1 X-0.06S574.4
G1 X-0.06S574
G1 X-0.06S574.4
G1 X-0.06S574
G1 X-0.06S574.4
G1 X-0.36S574
G1 X-0.06S574.4
G1 X-0.06S574
G1 X-0.06S572
G1 X-0.18S0
G1 X-0.18S574
G1 X-0.12S574.4
G1 X-0.12S574
G1 X-0.06S573.6
G1 X-0.06S569.3
G1 X-2.94S0
G1 X-0.36S571.3
G1 X-2.341S0
G1 X-2.94S543.3
G1 X-0.42S0
G1 X-2.94S543.3
G1 X-0.18S0
G1 X-1.14S543.3
G1 X-0.06S543.7
G1 X-0.06S543.3
G1 X-1.667S0
G1 Y0.06S0
G1 X1.667S0
G1 X0.06S543.3
G1 X0.06S543.7
G1 X1.14S543.3
G1 X0.24S0
G1 X2.82S543.3
G1 X0.54S0
G1 X2.76S543.3
G1 X0.06S543.7
G1 X2.401S0
G1 X0.36S571.3
G1 X3S0
G1 X0.06S567.7
G1 X0.06S572
G1 X0.06S574
G1 X0.06S574.4
G1 X0.24S574
G1 X0.06S572
G1 X0.18S0
G1 X0.06S571.3
G1 X0.66S574
G1 X0.12S574.4
G1 X0.06S574
G1 X0.06S571.7
G1 X0.12S569.3
G1 X0.06S568.1
G1 X0.06S572
G1 X0.36S574
G1 X0.06S572
G1 X0.24S0
G1 X0.06S572
G1 X0.12S574.4
G1 X0.12S574
G1 X0.06S572
G1 X0.06S570.9
G1 X0.06S572
G1 X0.06S574
G1 X0.06S574.4
G1 X0.18S574
G1 X0.06S574.4
G1 X0.18S574
G1 X0.06S574.4
G1 X0.36S574
G1 X0.06S574.4
G1 X0.06S574
G1 X0.06S573.6
G1 X0.06S566.9
G1 X0.12S0
G1 X0.06S571.7
G1 X0.06S574.4
G1 X0.3S574
G1 X0.06S573.2
G1 X0.06S568.5
G1 X1.26S0
G1 X0.12S573.6
G1 X1.02S574
G1 X0.06S572
G1 X0.661S0
G1 X0.06S574
G1 X0.06S574.4
G1 X1.02S574
G1 X0.06S571.7
G1 X2.82S0
G1 X0.06S572
G1 X0.06S574.4
G1 X1.02S574
G1 X0.06S572.4
G1 X2.82S0
G1 X0.12S574
G1 X0.06S574.4
G1 X0.96S574
G1 X0.06S572
G1 X1.667S0
G1 Y0.06S0
G1 X-1.667S0
G1 X-0.06S572
G1 X-0.96S574
G1 X-0.06S574.4
G1 X-0.12S574
G1 X-2.82S0
G1 X-0.06S572.4
G1 X-1.02S574
G1 X-0.06S574.4
G1 X-0.06S572
G1 X-2.82S0
G1 X-0.06S571.7
G1 X-1.02S574
G1 X-0.06S574.4
G1 X-0.06S574
G1 X-0.661S0
G1 X-0.06S572
G1 X-1.02S574
G1 X-0.12S573.6
G1 X-1.32S0
G1 X-0.06S566.1
G1 X-0.06S571.7
G1 X-0.3S574
G1 X-0.06S573.6
G1 X-0.06S568.9
G1 X-0.12S0
G1 X-0.06S569.3
G1 X-0.18S574
G1 X-0.06S574.4
G1 X-0.96S574
G1 X-0.12S574.4
G1 X-0.06S574
G1 X-0.12S574.4
G1 X-0.06S572
G1 X-0.24S0
G1 X-0.06S572.8
G1 X-0.78S574
G1 X-0.06S574.4
G1 X-0.36S574
G1 X-0.12S574.4
G1 X-0.12S574
G1 X-0.06S572
G1 X-0.18S0
G1 X-0.06S570.9
G1 X-0.06S573.6
G1 X-0.06S574
G1 X-0.12S574.4
G1 X-0.12S574
G1 X-0.06S572
G1 X-3.12S0
G1 X-0.36S571.3
G1 X-2.461S0
G1 X-2.76S543.3
G1 X-0.6S0
G1 X-2.7S543.3
G1 X-0.3S0
G1 X-1.14S543.3
G1 X-0.06S543.7
G1 X-0.06S543.3
G1 X-1.667S0
G1 Y0.06S0
G1 X1.667S0
G1 X0.06S543.3
G1 X0.06S543.7
G1 X1.14S543.3
G1 X0.3S0
G1 X0.06S543.3
G1 X0.06S543.7
G1 X2.58S543.3
G1 X0.66S0
G1 X0.12S543.3
G1 X0.06S543.7
G1 X2.52S543.3
G1 X2.461S0
G1 X0.36S571.3
G1 X3.18S0
G1 X0.06S568.5
G1 X0.06S573.6
G1 X0.06S574.4
G1 X0.18S574
G1 X0.06S573.6
G1 X0.06S570.1
G1 X0.18S0
G1 X0.06S572
G1 X0.72S574
G1 X0.24S574.4
G1 X0.24S574
G1 X0.06S574.4
G1 X0.12S574
G1 X0.06S571.7
G1 X0.24S0
G1 X0.06S571.7
G1 X0.36S574
G1 X0.06S574.4
G1 X0.12S574
G1 X0.06S574.4
G1 X0.78S574
G1 X0.06S573.6
G1 X0.06S570.5
G1 X0.12S0
G1 X0.06S567.3
G1 X0.06S572.8
G1 X0.24S574
G1 X0.06S573.6
G1 X0.06S570.5
G1 X1.44S0
G1 X0.12S573.6
G1 X1.02S574
G1 X0.06S572
G1 X0.661S0
G1 X0.06S574
G1 X0.06S574.4
G1 X1.02S574
G1 X0.06S571.7
G1 X2.82S0
G1 X0.06S572
G1 X0.06S574.4
G1 X1.02S574
G1 X0.06S572.4
G1 X2.82S0
G1 X0.12S574
G1 X0.06S574.4
G1 X0.96S574
G1 X0.06S572
G1 X1.667S0
G1 Y0.06S0
G1 X-1.667S0
G1 X-0.06S572
G1 X-0.96S574
G1 X-0.06S574.4
G1 X-0.12S574
G1 X-2.82S0
G1 X-0.06S572.4
G1 X-1.02S574
G1 X-0.06S574.4
G1 X-0.06S572
G1 X-2.82S0
G1 X-0.06S571.7
G1 X-1.02S574
G1 X-0.06S574.4
G1 X-0.06S574
G1 X-0.661S0
G1 X-0.06S572
G1 X-1.02S574
G1 X-0.12S573.6
G1 X-1.5S0
G1 X-0.06S567.3
G1 X-0.06S573.6
G1 X-0.06S574.4
G1 X-0.06S574
G1 X-0.06S574.4
G1 X-0.06S574
G1 X-0.06S572.4
G1 X-0.18S0
G1 X-0.06S572
G1 X-0.06S574.4
G1 X-0.06S574
G1 X-0.06S574.4
G1 X-0.72S574
G1 X-0.06S574.4
G1 X-0.18S574
G1 X-0.06S572
G1 X-0.06S559.8
G1 X-0.6S0
G1 X-0.06S568.1
G1 X-0.54S574
G1 X-0.06S574.4
G1 X-0.36S574
G1 X-0.06S574.4
G1 X-0.06S574
G1 X-0.06S574.4
G1 X-0.06S573.2
G1 X-0.18S0
G1 X-0.06S563.8
G1 X-0.06S573.6
G1 X-0.06S574
G1 X-0.06S574.4
G1 X-0.06S574
G1 X-0.06S574.4
G1 X-0.06S574
G1 X-0.06S565.7
G1 X-3.24S0
G1 X-0.36S571.3
G1 X-2.521S0
G1 X-2.46S543.3
G1 X-0.06S543.7
G1 X-0.06S543.3
G1 X-0.78S0
G1 X-0.06S542.9
G1 X-2.52S543.3
G1 X-0.36S0
G1 X-1.14S543.3
G1 X-0.06S543.7
G1 X-0.06S543.3
G1 X-1.667S0
G1 Y0.06S0
G1 X1.667S0
G1 X1.26S543.3
G1 X0.42S0
G1 X2.46S543.3
G1 X0.9S0
G1 X2.46S543.3
G1 X2.581S0
G1 X0.36S571.3
G1 X3.3S0
G1 X0.06S566.9
G1 X0.06S572.4
G1 X0.12S574
G1 X0.06S574.4
G1 X0.06S574
G1 X0.06S573.2
G1 X0.18S0
G1 X0.06S568.5
G1 X0.06S573.2
G1 X0.12S574
G1 X0.06S574.4
G1 X0.72S574
G1 X0.06S574.4
G1 X0.06S574
G1 X0.06S574.4
G1 X0.06S571.3
G1 X0.66S0
G1 X0.06S573.6
G1 X0.9S574
G1 X0.06S574.4
G1 X0.12S574
G1 X0.06S572.4
G1 X0.18S0
G1 X0.06S570.9
G1 X0.24S574
G1 X0.06S573.2
G1 X0.06S567.7
G1 X1.56S0
G1 X0.12S573.6
G1 X1.02S574
G1 X0.06S572
G1 X0.661S0
G1 X0.06S574
G1 X0.06S574.4
G1 X1.02S574
G1 X0.06S571.7
G1 X2.82S0
G1 X0.06S572
G1 X0.06S574.4
G1 X1.02S574
G1 X0.06S572.4
G1 X2.82S0
G1 X0.12S574
G1 X0.06S574.4
G1 X0.96S574
G1 X0.06S572
G1 X1.667S0
G1 Y0.06S0
G1 X-1.667S0
G1 X-0.06S572
G1 X-0.96S574
G1 X-0.06S574.4
G1 X-0.12S574
G1 X-2.82S0
G1 X-0.06S572.4
G1 X-1.02S574
G1 X-0.06S574.4
G1 X-0.06S572
G1 X-2.82S0
G1 X-0.06S571.7
G1 X-1.02S574
G1 X-0.06S574.4
G1 X-0.06S574
G1 X-0.661S0
G1 X-0.06S572
G1 X-1.02S574
G1 X-0.12S573.6
G1 X-1.68S0
G1 X-0.06S572
G1 X-0.12S574
G1 X-0.06S574.4
G1 X-0.06S574
G1 X-0.06S570.5
G1 X-0.18S0
G1 X-0.06S572.8
G1 X-0.24S574
G1 X-0.06S574.4
G1 X-0.78S574
G1 X-0.06S569.3
G1 X-0.6S0
G1 X-0.06S573.2
G1 X-0.06S574
G1 X-0.06S574.4
G1 X-0.6S574
G1 X-0.06S574.4
G1 X-0.06S574
G1 X-0.06S574.4
G1 X-0.12S574
G1 X-0.06S573.6
G1 X-0.06S570.1
G1 X-0.18S0
G1 X-0.06S572.8
G1 X-0.18S574
G1 X-0.06S573.6
G1 X-0.06S571.7
G1 X-3.42S0
G1 X-0.36S571.3
G1 X-2.641S0
G1 X-2.34S543.3
G1 X-1.02S0
G1 X-2.34S543.3
G1 X-0.48S0
G1 X-1.26S543.3
G1 X-1.667S0
G1 Y0.06S0
G1 X1.667S0
G1 X0.9S543.3
G1 X0.12S543.7
G1 X0.18S543.3
G1 X0.6S0
G1 X2.22S543.3
G1 X1.14S0
G1 X2.22S543.3
G1 X2.701S0
G1 X0.36S571.3
G1 X3.48S0
G1 X0.06S570.9
G1 X0.06S573.6
G1 X0.06S574.4
G1 X0.12S574
G1 X0.06S572
G1 X0.18S0
G1 X0.06S569.7
G1 X0.12S574
G1 X0.06S574.4
G1 X0.06S574
G1 X0.06S574.4
G1 X0.66S574
G1 X0.06S574.4
G1 X0.06S574
G1 X0.06S566.9
G1 X0.54S0
G1 X0.06S573.2
G1 X0.06S574
G1 X0.06S574.4
G1 X0.72S574
G1 X0.06S574.4
G1 X0.06S574
G1 X0.06S574.4
G1 X0.06S572.8
G1 X0.06S567.7
G1 X0.12S0
G1 X0.06S570.1
G1 X0.06S573.6
G1 X0.12S574.4
G1 X0.06S573.6
G1 X0.06S570.9
G1 X1.74S0
G1 X0.12S573.6
G1 X1.02S574
G1 X0.06S572
G1 X0.661S0
G1 X0.06S573.6
G1 X0.06S574.4
G1 X1.02S574
G1 X0.06S571.7
G1 X2.82S0
G1 X0.06S572
G1 X0.06S574.4
G1 X1.02S574
G1 X0.06S572.4
G1 X2.82S0
G1 X0.12S574
G1 X0.06S574.4
G1 X0.96S574
G1 X0.06S572
G1 X1.667S0
G1 Y0.06S0
G1 X-1.667S0
G1 X-0.06S572
G1 X-0.96S574
G1 X-0.06S574.4
G1 X-0.12S574
G1 X-2.82S0
G1 X-0.06S572.4
G1 X-1.02S574
G1 X-0.06S574.4
G1 X-0.06S572
G1 X-2.82S0
G1 X-0.06S571.7
G1 X-1.02S574
G1 X-0.06S574.4
G1 X-0.06S573.6
G1 X-0.661S0
G1 X-0.06S572
G1 X-1.02S574
G1 X-0.12S573.6
G1 X-1.8S0
G1 X-0.06S570.5
G1 X-0.06S573.6
G1 X-0.06S574.4
G1 X-0.06S574
G1 X-0.06S573.6
G1 X-0.06S568.5
G1 X-0.18S0
G1 X-0.06S573.6
G1 X-0.12S574
G1 X-0.06S574.4
G1 X-0.84S574
G1 X-0.06S569.3
G1 X-0.48S0
G1 X-0.06S571.3
G1 X-0.72S574
G1 X-0.06S574.4
G1 X-0.06S574
G1 X-0.06S574.4
G1 X-0.06S574
G1 X-0.06S573.6
G1 X-0.06S568.1
G1 X-0.18S0
G1 X-0.06S572
G1 X-0.18S574
G1 X-0.06S573.6
G1 X-0.06S568.1
G1 X-3.54S0
G1 X-0.36S571.3
G1 X-2.821S0
G1 X-0.06S543.7
G1 X-1.98S543.3
G1 X-1.32S0
G1 X-1.98S543.3
G1 X-0.84S0
G1 X-0.12S543.3
G1 X-0.06S0
G1 X-0.12S543.3
G1 X-0.12S0
G1 X-0.12S543.3
G1 X-0.06S0
G1 X-0.12S543.3
G1 X-0.06S0
G1 X-0.18S543.3
G1 X-1.667S0
G1 X0.06Y0.06S0
G1 X1.667S0
G1 X0.06S543.7
G1 X0.06S543.3
G1 X0.06S0
G1 X0.12S543.3
G1 X0.06S0
G1 X0.12S543.3
G1 X0.06S0
G1 X0.18S543.3
G1 X0.06S0
G1 X0.12S543.3
G1 X0.9S0
G1 X1.86S543.3
G1 X1.44S0
G1 X0.12S543.7
G1 X1.8S543.3
G1 X2.881S0
G1 X0.36S571.3
G1 X3.6S0
G1 X0.06S568.1
G1 X0.06S572.8
G1 X0.18S574
G1 X0.06S570.5
G1 X0.18S0
G1 X0.06S570.9
G1 X0.06S573.6
G1 X0.06S574
G1 X0.06S574.4
G1 X0.06S574
G1 X0.06S574.4
G1 X0.54S574
G1 X0.06S574.4
G1 X0.12S574
G1 X0.48S0
G1 X0.06S572.8
G1 X0.06S573.6
G1 X0.06S574.4
G1 X0.84S574
G1 X0.06S573.2
G1 X0.06S567.7
G1 X0.12S0
G1 X0.06S568.1
G1 X0.06S573.6
G1 X0.06S574
G1 X0.06S574.4
G1 X0.06S574
G1 X0.06S570.1
G1 X1.86S0
G1 X0.12S573.6
G1 X1.02S574
G1 X0.06S572
G1 X0.661S0
G1 X0.06S573.6
G1 X0.06S574.4
G1 X1.02S574
G1 X0.06S571.7
G1 X2.82S0
G1 X0.06S572
G1 X0.06S574.4
G1 X1.02S574
G1 X0.06S572.4
G1 X2.82S0
G1 X0.12S574
G1 X0.06S574.4
G1 X0.96S574
G1 X0.06S572
G1 X1.667S0
G1 Y0.06S0
G1 X-1.667S0
G1 X-0.06S572
G1 X-0.96S574
G1 X-0.06S574.4
G1 X-0.12S574
G1 X-2.82S0
G1 X-0.06S572.4
G1 X-1.02S574
G1 X-0.06S574.4
G1 X-0.06S572
G1 X-2.82S0
G1 X-0.06S571.7
G1 X-1.02S574
G1 X-0.06S574.4
G1 X-0.06S573.6
G1 X-0.661S0
G1 X-0.06S572
G1 X-1.02S574
G1 X-0.12S573.6
G1 X-1.92S0
G1 X-0.06S570.1
G1 X-0.06S573.6
G1 X-0.12S574.4
G1 X-0.06S572.8
G1 X-0.18S0
G1 X-0.06S568.5
G1 X-0.06S573.6
G1 X-0.9S574
G1 X-0.06S573.2
G1 X-0.42S0
G1 X-0.06S570.1
G1 X-0.12S574.4
G1 X-0.66S574
G1 X-0.06S573.6
G1 X-0.12S574
G1 X-0.06S570.9
G1 X-0.18S0
G1 X-0.06S571.3
G1 X-0.06S574.4
G1 X-0.06S574
G1 X-0.06S573.6
G1 X-0.06S573.2
G1 X-0.06S568.1
G1 X-3.66S0
G1 X-0.36S571.3
G1 X-2.941S0
G1 X-1.74S543.3
G1 X-1.68S0
G1 X-1.62S543.3
G1 X-0.42S0
G1 X-0.18S543.3
G1 X-0.24S0
G1 X-0.12S543.3
G1 X-0.12S0
G1 X-0.84S543.3
G1 X-0.12S0
G1 X-0.12S543.3
G1 X-0.24S0
G1 X-0.18S543.3
G1 X-1.667S0
G1 X0.06Y0.06S0
G1 X1.667S0
G1 X0.24S543.3
G1 X0.18S0
G1 X0.12S543.3
G1 X0.12S0
G1 X0.78S543.3
G1 X0.06S0
G1 X0.12S543.3
G1 X0.24S0
G1 X0.06S543.3
G1 X0.06S543.7
G1 X0.06S543.3
G1 X0.6S0
G1 X0.06S543.3
G1 X0.06S543.7
G1 X1.26S543.3
G1 X1.92S0
G1 X1.5S543.3
G1 X3.061S0
G1 X0.36S571.3
G1 X3.72S0
G1 X0.06S567.3
G1 X0.06S572.4
G1 X0.06S574
G1 X0.12S574.4
G1 X0.06S570.1
G1 X0.18S0
G1 X0.06S570.9
G1 X0.06S574.8
G1 X0.24S574
G1 X0.06S574.4
G1 X0.42S574
G1 X0.12S574.4
G1 X0.06S573.2
G1 X0.36S0
G1 X0.06S569.7
G1 X0.06S573.6
G1 X0.06S574
G1 X0.06S574.4
G1 X0.54S574
G1 X0.06S574.4
G1 X0.12S574
G1 X0.06S573.2
G1 X0.06S569.3
G1 X0.18S0
G1 X0.06S572.8
G1 X0.12S574
G1 X0.06S572.8
G1 X0.06S568.9
G1 X1.98S0
G1 X0.12S573.6
G1 X1.02S574
G1 X0.06S572
G1 X0.661S0
G1 X0.06S573.6
G1 X0.06S574.4
G1 X1.02S574
G1 X0.06S571.7
G1 X2.82S0
G1 X0.06S572
G1 X0.06S574.4
G1 X1.02S574
G1 X0.06S572.4
G1 X2.82S0
G1 X0.12S574
G1 X0.06S574.4
G1 X0.84S574
G1 X0.06S574.4
G1 X0.06S574
G1 X0.06S572
G1 X1.667S0
G1 Y0.06S0
G1 X-1.667S0
G1 X-0.06S572
G1 X-0.06S574
G1 X-0.06S574.4
G1 X-0.84S574
G1 X-0.06S574.4
G1 X-0.12S574
G1 X-2.82S0
G1 X-0.06S572.4
G1 X-1.02S574
G1 X-0.06S574.4
G1 X-0.06S572
G1 X-2.82S0
G1 X-0.06S571.7
G1 X-1.02S574
G1 X-0.06S574.4
G1 X-0.06S573.6
G1 X-0.661S0
G1 X-0.06S572
G1 X-1.02S574
G1 X-0.12S573.6
G1 X-2.04S0
G1 X-0.06S568.1
G1 X-0.06S573.2
G1 X-0.12S574.4
G1 X-0.06S572.4
G1 X-0.18S0
G1 X-0.06S566.1
G1 X-0.06S573.6
G1 X-0.12S574
G1 X-0.06S574.4
G1 X-0.66S574
G1 X-0.06S571.3
G1 X-0.36S0
G1 X-0.12S574
G1 X-0.06S574.4
G1 X-0.42S574
G1 X-0.06S574.4
G1 X-0.06S574
G1 X-0.12S574.4
G1 X-0.06S574
G1 X-0.06S569.3
G1 X-0.18S0
G1 X-0.06S571.7
G1 X-0.18S574
G1 X-0.06S571.3
G1 X-3.84S0
G1 X-0.36S571.3
G1 X-3.241S0
G1 X-1.14S543.3
G1 X-0.06S543.7
G1 X-2.16S0
G1 X-0.12S543.7
G1 X-0.3S543.3
G1 X-0.12S543.7
G1 X-0.54S543.3
G1 X-0.84S0
G1 X-0.24S543.3
G1 X-0.12S0
G1 X-1.14S543.3
G1 X-0.12S0
G1 X-0.06S543.3
G1 X-0.06S543.7
G1 X-0.12S543.3
G1 X-1.667S0
G1 X0.06Y0.06S0
G1 X1.667S0
G1 X0.48S543.3
G1 X0.06S543.7
G1 X0.84S543.3
G1 X0.06S0
G1 X0.06S543.3
G1 X0.06S543.7
G1 X0.12S543.3
G1 X1.14S0
G1 X0.12S543.3
G1 X0.06S543.7
G1 X0.3S543.3
G1 X0.06S543.7
G1 X0.12S543.3
G1 X2.64S0
G1 X0.36S543.3
G1 X0.06S543.7
G1 X0.18S543.3
G1 X0.12S543.7
G1 X0.06S543.3
G1 X3.421S0
G1 X0.36S571.3
G1 X3.9S0
G1 X0.06S572.4
G1 X0.18S574
G1 X0.06S570.9
G1 X0.18S0
G1 X0.06S570.5
G1 X0.06S574
G1 X0.06S574.4
G1 X0.06S574
G1 X0.06S574.4
G1 X0.48S574
G1 X0.06S574.4
G1 X0.06S574
G1 X0.06S570.9
G1 X0.3S0
G1 X0.06S573.6
G1 X0.6S574
G1 X0.06S574.4
G1 X0.06S574
G1 X0.06S574.4
G1 X0.06S573.6
G1 X0.06S567.7
G1 X0.18S0
G1 X0.06S571.7
G1 X0.06S574.4
G1 X0.06S574
G1 X0.06S572.8
G1 X0.06S566.9
G1 X2.1S0
G1 X0.12S573.6
G1 X1.02S574
G1 X0.06S572
G1 X0.661S0
G1 X0.06S573.6
G1 X0.06S574.4
G1 X0.9S574
G1 X0.06S574.4
G1 X0.06S574
G1 X0.06S571.7
G1 X2.82S0
G1 X0.06S572
G1 X0.06S574.4
G1 X1.02S574
G1 X0.06S572.8
G1 X2.82S0
G1 X0.12S574
G1 X0.06S574.4
G1 X0.84S574
G1 X0.06S574.4
G1 X0.06S574
G1 X0.06S572
G1 X1.667S0
G1 Y0.06S0
G1 X-1.667S0
G1 X-0.06S572
G1 X-0.06S574
G1 X-0.06S574.4
G1 X-0.84S574
G1 X-0.06S574.4
G1 X-0.12S574
G1 X-2.82S0
G1 X-0.06S572.8
G1 X-0.06S574.4
G1 X-0.96S574
G1 X-0.06S574.4
G1 X-0.06S572
G1 X-2.82S0
G1 X-0.06S572
G1 X-0.12S574.4
G1 X-0.9S574
G1 X-0.06S574.4
G1 X-0.06S573.6
G1 X-0.661S0
G1 X-0.06S572
G1 X-1.02S574
G1 X-0.12S573.6
G1 X-2.16S0
G1 X-0.06S564.6
G1 X-0.06S573.6
G1 X-0.12S574
G1 X-0.06S572
G1 X-0.18S0
G1 X-0.06S565.4
G1 X-0.06S573.2
G1 X-0.06S574.4
G1 X-0.12S574
G1 X-0.06S574.4
G1 X-0.36S574
G1 X-0.12S574.4
G1 X-0.06S574
G1 X-0.06S570.5
G1 X-0.24S0
G1 X-0.06S571.7
G1 X-0.06S574
G1 X-0.06S574.4
G1 X-0.36S574
G1 X-0.06S574.4
G1 X-0.18S574
G1 X-0.06S574.4
G1 X-0.06S570.1
G1 X-0.18S0
G1 X-0.06S571.3
G1 X-0.06S574
G1 X-0.06S573.6
G1 X-0.06S574
G1 X-0.06S572
G1 X-3.96S0
G1 X-0.36S571.3
G1 X-8.761S0
G1 X-1.44S543.3
G1 X-1.667S0
G1 X0.12Y0.06S0
G1 X1.667S0
G1 X1.08S543.3
G1 X0.06S543.7
G1 X0.12S543.3
G1 X8.821S0
G1 X0.36S571.3
G1 X4.02S0
G1 X0.06S572.4
G1 X0.06S573.6
G1 X0.12S574
G1 X0.06S570.5
G1 X0.18S0
G1 X0.06S570.5
G1 X0.06S573.6
G1 X0.06S574
G1 X0.12S574.4
G1 X0.36S574
G1 X0.06S574.4
G1 X0.06S574
G1 X0.06S572.8
G1 X0.24S0
G1 X0.06S572
G1 X0.12S574.4
G1 X0.54S574
G1 X0.06S573.6
G1 X0.06S573.2
G1 X0.06S569.7
G1 X0.18S0
G1 X0.06S570.9
G1 X0.12S574
G1 X0.06S572.8
G1 X0.06S567.7
G1 X2.22S0
G1 X0.12S573.6
G1 X1.02S574
G1 X0.06S572
G1 X0.661S0
G1 X0.06S573.6
G1 X0.06S574.4
G1 X0.9S574
G1 X0.06S574.4
G1 X0.06S574
G1 X0.06S572.4
G1 X0.06S565.7
G1 X0.06S564.2
G1 X1.92S564.6
G1 X0.06S564.2
G1 X0.72S0
G1 X0.06S572
G1 X0.06S574.4
G1 X0.9S574
G1 X0.06S574.4
G1 X0.06S574
G1 X0.06S572.4
G1 X2.04S564.6
G1 X0.06S565
G1 X0.72S0
G1 X0.12S574
G1 X0.06S574.4
G1 X0.9S574
G1 X0.06S574.4
G1 X0.06S573.6
G1 X0.06S565
G1 X1.98S564.6
G1 X0.06S563.8
G1 X1.667S0
G1 X0.06Y0.06S0
G1 X-1.667S0
G1 X-0.06S569.7
G1 X-3.12S574
G1 X-0.06S574.4
G1 X-0.12S574
G1 X-0.66S0
G1 X-0.06S568.1
G1 X-0.06S574.4
G1 X-2.1S574
G1 X-0.12S574.4
G1 X-0.9S574
G1 X-0.06S574.4
G1 X-0.06S572
G1 X-0.72S0
G1 X-2.1S574
G1 X-0.06S574.4
G1 X-0.06S574
G1 X-0.06S574.4
G1 X-0.9S574
G1 X-0.06S574.4
G1 X-0.06S573.6
G1 X-0.661S0
G1 X-0.06S572
G1 X-1.02S574
G1 X-0.12S573.6
G1 X-2.34S0
G1 X-0.06S572
G1 X-0.12S574
G1 X-0.06S571.3
G1 X-0.18S0
G1 X-0.06S567.7
G1 X-0.06S572.8
G1 X-0.48S574
G1 X-0.18S574.4
G1 X-0.06S573.6
G1 X-0.18S0
G1 X-0.06S569.3
G1 X-0.06S574
G1 X-0.06S574.4
G1 X-0.24S574
G1 X-0.24S574.4
G1 X-0.06S574
G1 X-0.06S573.6
G1 X-0.06S568.5
G1 X-0.18S0
G1 X-0.06S570.9
G1 X-0.18S574
G1 X-0.06S570.9
G1 X-4.08S0
G1 X-0.36S571.3
G1 X-8.641S0
G1 X-1.38S543.3
G1 X-0.06S543.7
G1 X-0.06S543.3
G1 X-0.06S543.7
G1 X-0.12S543.3
G1 X-1.667S0
G1 X0.06Y0.06S0
G1 X1.667S0
G1 X0.06S543.3
G1 X0.12S543.7
G1 X1.26S543.3
G1 X0.06S543.7
G1 X0.12S543.3
G1 X8.641S0
G1 X0.36S571.3
G1 X4.14S0
G1 X0.06S571.7
G1 X0.12S574
G1 X0.06S573.6
G1 X0.06S572
G1 X0.18S0
G1 X0.06S567.7
G1 X0.06S572.8
G1 X0.06S574
G1 X0.06S574.4
G1 X0.3S574
G1 X0.06S574.4
G1 X0.06S574
G1 X0.06S574.4
G1 X0.06S572.4
G1 X0.12S0
G1 X0.06S569.3
G1 X0.18S574.4
G1 X0.48S574
G1 X0.06S572
G1 X0.24S0
G1 X0.06S572
G1 X0.06S573.6
G1 X0.06S574.4
G1 X0.06S572.8
G1 X0.06S567.3
G1 X2.34S0
G1 X0.12S573.6
G1 X1.02S574
G1 X0.06S572
G1 X0.661S0
G1 X0.06S573.6
G1 X0.06S574.4
G1 X1.02S574
G1 X0.06S574.4
G1 X0.06S574
G1 X2.04S574.4
G1 X0.72S0
G1 X0.06S572
G1 X0.06S574.4
G1 X1.08S574
G1 X2.1S574.4
G1 X0.06S568.1
G1 X0.66S0
G1 X0.12S574
G1 X0.06S574.4
G1 X0.9S574
G1 X0.06S574.4
G1 X0.12S574
G1 X1.92S574.4
G1 X0.12S574
G1 X0.06S570.1
G1 X1.667S0
G1 Y0.06S0
G1 X-1.667S0
G1 X-0.06S569.7
G1 X-0.18S574
G1 X-1.8S574.4
G1 X-0.18S574
G1 X-0.06S574.4
G1 X-0.9S574
G1 X-0.06S574.4
G1 X-0.12S574
G1 X-0.66S0
G1 X-0.06S568.1
G1 X-0.06S574.4
G1 X-0.06S574
G1 X-1.92S574.4
G1 X-0.06S574
G1 X-0.12S574.4
G1 X-0.96S574
G1 X-0.06S574.4
G1 X-0.06S572
G1 X-0.72S0
G1 X-2.04S574.4
G1 X-1.14S574
G1 X-0.06S574.4
G1 X-0.06S573.6
G1 X-0.661S0
G1 X-0.06S572
G1 X-1.02S574
G1 X-0.12S573.6
G1 X-2.4S0
G1 X-0.06S567.3
G1 X-0.06S573.2
G1 X-0.12S574
G1 X-0.06S572
G1 X-0.24S0
G1 X-0.06S572
G1 X-0.18S574
G1 X-0.06S574.4
G1 X-0.18S574
G1 X-0.06S574.4
G1 X-0.06S574
G1 X-0.06S574.4
G1 X-0.06S572.4
G1 X-0.12S0
G1 X-0.06S574
G1 X-0.06S574.4
G1 X-0.06S574
G1 X-0.06S574.4
G1 X-0.36S574
G1 X-0.06S572
G1 X-0.06S565.7
G1 X-0.18S0
G1 X-0.06S572.4
G1 X-0.06S574
G1 X-0.06S574.4
G1 X-0.06S574
G1 X-0.06S572
G1 X-4.2S0
G1 X-0.36S571.3
G1 X-8.821S0
G1 X-1.26S543.3
G1 X-1.667S0
G1 X-0.6Y0.06S0
G1 X1.667S0
G1 X0.06S543.7
G1 X0.42S543.3
G1 X0.12S543.7
G1 X1.26S543.3
G1 X0.06S543.7
G1 X6.66S543.3
G1 X2.101S0
G1 X0.36S571.3
G1 X4.26S0
G1 X0.06S572.4
G1 X0.18S574
G1 X0.06S572
G1 X0.24S0
G1 X0.06S572.8
G1 X0.06S574.4
G1 X0.06S574
G1 X0.12S574.4
G1 X0.06S574
G1 X0.06S574.4
G1 X0.18S574
G1 X0.06S568.5
G1 X0.06S564.6
G1 X0.12S574.4
G1 X0.48S574
G1 X0.06S572.4
G1 X0.24S0
G1 X0.06S573.2
G1 X0.06S574.4
G1 X0.06S574
G1 X0.06S573.6
G1 X0.06S568.1
G1 X2.46S0
G1 X0.12S573.6
G1 X1.02S574
G1 X0.06S572
G1 X0.661S0
G1 X0.06S573.6
G1 X0.06S574.4
G1 X3.06S574
G1 X0.12S574.4
G1 X0.72S0
G1 X0.06S572
G1 X0.06S574.4
G1 X3.12S574
G1 X0.06S574.4
G1 X0.06S568.1
G1 X0.66S0
G1 X0.12S574
G1 X0.06S574.4
G1 X3.12S574
G1 X0.06S569.7
G1 X1.667S0
G1 Y0.06S0
G1 X-1.667S0
G1 X-0.06S569.7
G1 X-3.12S574
G1 X-0.06S574.4
G1 X-0.12S574
G1 X-0.66S0
G1 X-0.06S568.1
G1 X-0.06S574.4
G1 X-3.12S574
G1 X-0.06S574.4
G1 X-0.06S572
G1 X-0.72S0
G1 X-0.12S574.4
G1 X-3.06S574
G1 X-0.06S574.4
G1 X-0.06S573.6
G1 X-0.661S0
G1 X-0.06S572
G1 X-1.02S574
G1 X-0.12S573.6
G1 X-2.52S0
G1 X-0.06S568.1
G1 X-0.06S573.2
G1 X-0.06S574.4
G1 X-0.06S574
G1 X-0.06S573.2
G1 X-0.06S568.9
G1 X-0.18S0
G1 X-0.06S570.5
G1 X-0.06S573.6
G1 X-0.42S574
G1 X-0.06S574.4
G1 X-0.06S571.7
G1 X-0.06S572
G1 X-0.12S574
G1 X-0.12S574.4
G1 X-0.18S574
G1 X-0.06S573.6
G1 X-0.06S571.3
G1 X-0.18S0
G1 X-0.06S566.5
G1 X-0.06S572.4
G1 X-0.06S574.4
G1 X-0.06S574
G1 X-0.06S573.6
G1 X-0.06S572.4
G1 X-4.32S0
G1 X-0.36S571.3
G1 X-2.101S0
G1 X-0.06S543.3
G1 X-0.06S543.7
G1 X-7.92S543.3
G1 X-0.06S543.7
G1 X-0.06S543.3
G1 X-0.06S543.7
G1 X-0.3S543.3
G1 X-0.06S543.7
G1 X-1.667S0
G1 X0.6Y0.06S0
G1 X1.667S0
G1 X1.26S543.3
G1 X8.821S0
G1 X0.36S571.3
G1 X4.38S0
G1 X0.06S572.4
G1 X0.06S574
G1 X0.06S574.4
G1 X0.06S574
G1 X0.06S572.8
G1 X0.06S568.5
G1 X0.18S0
G1 X0.06S570.5
G1 X0.06S573.6
G1 X0.18S574
G1 X0.06S574.4
G1 X0.18S574
G1 X0.24S574.4
G1 X0.06S574
G1 X0.06S574.4
G1 X0.12S574
G1 X0.06S573.2
G1 X0.06S569.7
G1 X0.18S0
G1 X0.06S568.9
G1 X0.18S574
G1 X0.06S573.6
G1 X0.06S568.9
G1 X2.58S0
G1 X0.12S573.6
