; LightBurn 1.2.01
; GRBL device profile, current position
; Bounds: X-1.67 Y0.05 to X2.22 Y0.5
G00 G17 G40 G21 G54
G91
M4
; Scan @ 4000.002 mm/min, 70% power
M8
G0 X-1.667Y0.049
; Layer C02 Pass 1 of 2
G1 X1.667F4000S0
G1 X0.549S700
G1 X1.667S0
G1 Y0.05S0
G1 X-1.667S0
G1 X-0.549S700
G1 X-1.667S0
G1 Y0.05S0
G1 X1.667S0
G1 X0.549S700
G1 X1.667S0
G1 Y0.05S0
G1 X-1.667S0
G1 X-0.549S700
G1 X-1.667S0
G1 Y0.05S0
G1 X1.667S0
G1 X0.549S700
G1 X1.667S0
G1 Y0.05S0
G1 X-1.667S0
G1 X-0.549S700
G1 X-1.667S0
G1 Y0.05S0
G1 X1.667S0
G1 X0.549S700
G1 X1.667S0
G1 Y0.05S0
G1 X-1.667S0
G1 X-0.549S700
G1 X-1.667S0
G1 Y0.05S0
G1 X1.667S0
G1 X0.549S700
G1 X1.667S0
G1 Y0.05S0
G1 X-1.667S0
G1 X-0.549S700
G1 X-1.667S0
; Layer C02 Pass 2 of 2
G1 Y-0.45S0
G1 X1.667S0
G1 X0.549S700
G1 X1.667S0
G1 Y0.05S0
G1 X-1.667S0
G1 X-0.549S700
G1 X-1.667S0
G1 Y0.05S0
G1 X1.667S0
G1 X0.549S700
G1 X1.667S0
G1 Y0.05S0
G1 X-1.667S0
G1 X-0.549S700
G1 X-1.667S0
G1 Y0.05S0
G1 X1.667S0
G1 X0.549S700
G1 X1.667S0
G1 Y0.05S0
G1 X-1.667S0
G1 X-0.549S700
G1 X-1.667S0
G1 Y0.05S0
G1 X1.667S0
G1 X0.549S700
G1 X1.667S0
G1 Y0.05S0
G1 X-1.667S0
G1 X-0.549S700
G1 X-1.667S0
G1 Y0.05S0
G1 X1.667S0
G1 X0.549S700
G1 X1.667S0
G1 Y0.05S0
G1 X-1.667S0
G1 X-0.549S700
G1 X-1.667S0
M9
G1 S0
M5
; return to starting pos
G0 X1.667Y-0.499
M2
