; LightBurn 1.2.01
; GRBL device profile, current position
; Bounds: X-1.67 Y0.03 to X3.15 Y0.98
G00 G17 G40 G21 G54
G91
M4
; Scan @ 4000.002 mm/min, 70% power
M8
G0 X-1.569Y0.034
; Layer C02 Pass 1 of 2
G1 X1.666F4000S0
G1 X0.417S700
G1 X0.464S0
G1 X0.416S700
G1 X1.667S0
G1 X0.008Y0.05S0
G1 X-1.666S0
G1 X-0.435S700
G1 X-0.446S0
G1 X-0.435S700
G1 X-1.666S0
G1 X-0.01Y0.05S0
G1 X1.667S0
G1 X0.452S700
G1 X0.428S0
G1 X0.453S700
G1 X1.667S0
G1 X0.008Y0.05S0
G1 X-1.666S0
G1 X-0.471S700
G1 X-0.41S0
G1 X-0.471S700
G1 X-1.667S0
G1 X-0.009Y0.05S0
G1 X1.666S0
G1 X0.489S700
G1 X0.392S0
G1 X0.489S700
G1 X1.667S0
G1 X0.008Y0.05S0
G1 X-1.666S0
G1 X-0.508S700
G1 X-0.373S0
G1 X-0.507S700
G1 X-1.667S0
G1 X-0.01Y0.05S0
G1 X1.667S0
G1 X0.525S700
G1 X0.355S0
G1 X0.526S700
G1 X1.667S0
G1 X0.008Y0.05S0
G1 X-1.667S0
G1 X-0.543S700
G1 X-0.338S0
G1 X-0.543S700
G1 X-1.667S0
G1 X-0.009Y0.05S0
G1 X1.666S0
G1 X0.562S700
G1 X0.319S0
G1 X0.562S700
G1 X1.667S0
G1 X0.008Y0.05S0
G1 X-1.667S0
G1 X-0.58S700
G1 X-0.301S0
G1 X-0.579S700
G1 X-1.667S0
G1 X-0.01Y0.05S0
G1 X1.667S0
G1 X0.597S700
G1 X0.284S0
G1 X0.598S700
G1 X1.666S0
G1 Y0.05S0
G1 X-1.666S0
G1 X-0.598S700
G1 X-0.284S0
G1 X-0.597S700
G1 X-1.667S0
G1 Y0.05S0
G1 X1.667S0
G1 X0.597S700
G1 X0.284S0
G1 X0.598S700
G1 X1.666S0
G1 Y0.05S0
G1 X-1.666S0
G1 X-0.598S700
G1 X-0.284S0
G1 X-0.597S700
G1 X-1.667S0
G1 Y0.05S0
G1 X1.667S0
G1 X0.597S700
G1 X0.284S0
G1 X0.598S700
G1 X1.666S0
G1 Y0.05S0
G1 X-1.666S0
G1 X-0.598S700
G1 X-0.284S0
G1 X-0.597S700
G1 X-1.667S0
G1 Y0.05S0
G1 X1.667S0
G1 X0.597S700
G1 X0.284S0
G1 X0.598S700
G1 X1.666S0
G1 Y0.05S0
G1 X-1.666S0
G1 X-0.598S700
G1 X-0.284S0
G1 X-0.597S700
G1 X-1.667S0
G1 Y0.05S0
G1 X1.667S0
G1 X0.597S700
G1 X0.284S0
G1 X0.598S700
G1 X1.666S0
G1 Y0.05S0
G1 X-1.666S0
G1 X-0.598S700
G1 X-0.284S0
G1 X-0.597S700
G1 X-1.667S0
; Layer C02 Pass 2 of 2
G1 X0.098Y-0.95S0
G1 X1.666S0
G1 X0.417S700
G1 X0.464S0
G1 X0.416S700
G1 X1.667S0
G1 X0.008Y0.05S0
G1 X-1.666S0
G1 X-0.435S700
G1 X-0.446S0
G1 X-0.435S700
G1 X-1.666S0
G1 X-0.01Y0.05S0
G1 X1.667S0
G1 X0.452S700
G1 X0.428S0
G1 X0.453S700
G1 X1.667S0
G1 X0.008Y0.05S0
G1 X-1.666S0
G1 X-0.471S700
G1 X-0.41S0
G1 X-0.471S700
G1 X-1.667S0
G1 X-0.009Y0.05S0
G1 X1.666S0
G1 X0.489S700
G1 X0.392S0
G1 X0.489S700
G1 X1.667S0
G1 X0.008Y0.05S0
G1 X-1.666S0
G1 X-0.508S700
G1 X-0.373S0
G1 X-0.507S700
G1 X-1.667S0
G1 X-0.01Y0.05S0
G1 X1.667S0
G1 X0.525S700
G1 X0.355S0
G1 X0.526S700
G1 X1.667S0
G1 X0.008Y0.05S0
G1 X-1.667S0
G1 X-0.543S700
G1 X-0.338S0
G1 X-0.543S700
G1 X-1.667S0
G1 X-0.009Y0.05S0
G1 X1.666S0
G1 X0.562S700
G1 X0.319S0
G1 X0.562S700
G1 X1.667S0
G1 X0.008Y0.05S0
G1 X-1.667S0
G1 X-0.58S700
G1 X-0.301S0
G1 X-0.579S700
G1 X-1.667S0
G1 X-0.01Y0.05S0
G1 X1.667S0
G1 X0.597S700
G1 X0.284S0
G1 X0.598S700
G1 X1.666S0
G1 Y0.05S0
G1 X-1.666S0
G1 X-0.598S700
G1 X-0.284S0
G1 X-0.597S700
G1 X-1.667S0
G1 Y0.05S0
G1 X1.667S0
G1 X0.597S700
G1 X0.284S0
G1 X0.598S700
G1 X1.666S0
G1 Y0.05S0
G1 X-1.666S0
G1 X-0.598S700
G1 X-0.284S0
G1 X-0.597S700
G1 X-1.667S0
G1 Y0.05S0
G1 X1.667S0
G1 X0.597S700
G1 X0.284S0
G1 X0.598S700
G1 X1.666S0
G1 Y0.05S0
G1 X-1.666S0
G1 X-0.598S700
G1 X-0.284S0
G1 X-0.597S700
G1 X-1.667S0
G1 Y0.05S0
G1 X1.667S0
G1 X0.597S700
G1 X0.284S0
G1 X0.598S700
G1 X1.666S0
G1 Y0.05S0
G1 X-1.666S0
G1 X-0.598S700
G1 X-0.284S0
G1 X-0.597S700
G1 X-1.667S0
G1 Y0.05S0
G1 X1.667S0
G1 X0.597S700
G1 X0.284S0
G1 X0.598S700
G1 X1.666S0
G1 Y0.05S0
G1 X-1.666S0
G1 X-0.598S700
G1 X-0.284S0
G1 X-0.597S700
G1 X-1.667S0
M9
G1 S0
M5
; return to starting pos
G0 X1.667Y-0.984
M2
