; LightBurn 1.2.01
; GRBL device profile, current position
; Bounds: X-1.67 Y0.01 to X3.94 Y2.86
G00 G17 G40 G21 G54
G91
M4
; Scan @ 4000.002 mm/min, 70% power
M8
G0 X-1.667Y0.007
; Layer C02 Pass 1 of 2
G1 X1.667F4000S0
G1 X0.537S700
G1 X1.15S0
G1 X0.584S700
G1 X1.667S0
G1 Y0.05S0
G1 X-1.667S0
G1 X-0.615S700
G1 X-1.119S0
G1 X-0.537S700
G1 X-1.667S0
G1 Y0.05S0
G1 X1.667S0
G1 X0.537S700
G1 X1.088S0
G1 X0.646S700
G1 X1.667S0
G1 Y0.05S0
G1 X-1.667S0
G1 X-0.677S700
G1 X-1.057S0
G1 X-0.537S700
G1 X-1.667S0
G1 Y0.05S0
G1 X1.667S0
G1 X0.537S700
G1 X1.026S0
G1 X0.708S700
G1 X1.667S0
G1 Y0.05S0
G1 X-1.667S0
G1 X-0.738S700
G1 X-0.996S0
G1 X-0.537S700
G1 X-1.667S0
G1 Y0.05S0
G1 X1.667S0
G1 X0.537S700
G1 X0.965S0
G1 X0.769S700
G1 X1.667S0
G1 Y0.05S0
G1 X-1.667S0
G1 X-0.8S700
G1 X-0.934S0
G1 X-0.537S700
G1 X-1.667S0
G1 Y0.05S0
G1 X1.667S0
G1 X0.537S700
G1 X0.903S0
G1 X0.831S700
G1 X1.667S0
G1 Y0.05S0
G1 X-1.667S0
G1 X-0.862S700
G1 X-0.872S0
G1 X-0.537S700
G1 X-1.667S0
G1 Y0.05S0
G1 X1.667S0
G1 X0.537S700
G1 X0.841S0
G1 X0.893S700
G1 X1.667S0
G1 Y0.05S0
G1 X-1.667S0
G1 X-0.924S700
G1 X-0.81S0
G1 X-0.537S700
G1 X-1.667S0
G1 Y0.05S0
G1 X1.667S0
G1 X0.537S700
G1 X0.779S0
G1 X0.955S700
G1 X1.667S0
G1 Y0.05S0
G1 X-1.667S0
G1 X-0.986S700
G1 X-0.748S0
G1 X-0.537S700
G1 X-1.667S0
G1 Y0.05S0
G1 X1.667S0
G1 X0.537S700
G1 X0.717S0
G1 X1.017S700
G1 X1.667S0
G1 Y0.05S0
G1 X-1.667S0
G1 X-1.048S700
G1 X-0.686S0
G1 X-0.537S700
G1 X-1.667S0
G1 Y0.05S0
G1 X1.667S0
G1 X0.537S700
G1 X0.656S0
G1 X1.078S700
G1 X1.667S0
G1 Y0.05S0
G1 X-1.667S0
G1 X-1.109S700
G1 X-0.625S0
G1 X-0.537S700
G1 X-1.667S0
G1 Y0.05S0
G1 X1.667S0
G1 X0.537S700
G1 X0.594S0
G1 X1.14S700
G1 X1.667S0
G1 Y0.05S0
G1 X-1.667S0
G1 X-0.537S700
G1 X-0.634
G1 X-0.563S0
G1 X-0.537S700
G1 X-1.667S0
G1 Y0.05S0
G1 X1.667S0
G1 X0.537S700
G1 X0.532S0
G1 X0.631S700
G1 X0.034S0
G1 X0.537S700
G1 X1.667S0
G1 Y0.05S0
G1 X-1.667S0
G1 X-0.537S700
G1 X-0.064S0
G1 X-0.632S700
G1 X-0.501S0
G1 X-0.537S700
G1 X-1.667S0
G1 Y0.05S0
G1 X1.667S0
G1 X0.537S700
G1 X0.47S0
G1 X0.632S700
G1 X0.095S0
G1 X0.537S700
G1 X1.667S0
G1 Y0.05S0
G1 X-1.667S0
G1 X-0.537S700
G1 X-0.125S0
G1 X-0.633S700
G1 X-0.439S0
G1 X-0.537S700
G1 X-1.667S0
G1 Y0.05S0
G1 X1.667S0
G1 X0.537S700
G1 X0.408S0
G1 X0.633S700
G1 X0.156S0
G1 X0.537S700
G1 X1.667S0
G1 Y0.05S0
G1 X-1.667S0
G1 X-0.537S700
G1 X-0.187S0
G1 X-0.633S700
G1 X-0.377S0
G1 X-0.537S700
G1 X-1.667S0
G1 Y0.05S0
G1 X1.667S0
G1 X0.537S700
G1 X0.346S0
G1 X0.634S700
G1 X0.217S0
G1 X0.537S700
G1 X1.667S0
G1 Y0.05S0
G1 X-1.667S0
G1 X-0.537S700
G1 X-0.248S0
G1 X-0.633S700
G1 X-0.316S0
G1 X-0.537S700
G1 X-1.667S0
G1 Y0.05S0
G1 X1.667S0
G1 X0.537S700
G1 X0.285S0
G1 X0.633S700
G1 X0.279S0
G1 X0.537S700
G1 X1.667S0
G1 Y0.05S0
G1 X-1.667S0
G1 X-0.537S700
G1 X-0.309S0
G1 X-0.634S700
G1 X-0.254S0
G1 X-0.537S700
G1 X-1.667S0
G1 Y0.05S0
G1 X1.667S0
G1 X0.537S700
G1 X0.223S0
G1 X0.634S700
G1 X0.34S0
G1 X0.537S700
G1 X1.667S0
G1 Y0.05S0
G1 X-1.667S0
G1 X-0.537S700
G1 X-0.371S0
G1 X-0.634S700
G1 X-0.192S0
G1 X-0.537S700
G1 X-1.667S0
G1 Y0.05S0
G1 X1.667S0
G1 X0.537S700
G1 X0.161S0
G1 X0.635S700
G1 X0.401S0
G1 X0.537S700
G1 X1.667S0
G1 Y0.05S0
G1 X-1.667S0
G1 X-0.537S700
G1 X-0.432S0
G1 X-0.635S700
G1 X-0.13S0
G1 X-0.537S700
G1 X-1.667S0
G1 Y0.05S0
G1 X1.667S0
G1 X0.537S700
G1 X0.099S0
G1 X0.635S700
G1 X0.463S0
G1 X0.537S700
G1 X1.667S0
G1 Y0.05S0
G1 X-1.667S0
G1 X-0.537S700
G1 X-0.493S0
G1 X-0.636S700
G1 X-0.068S0
G1 X-0.537S700
G1 X-1.667S0
G1 Y0.05S0
G1 X1.667S0
G1 X0.537S700
G1 X0.037S0
G1 X0.636S700
G1 X0.524S0
G1 X0.537S700
G1 X1.667S0
G1 Y0.05S0
G1 X-1.667S0
G1 X-0.537S700
G1 X-0.555S0
G1 X-0.635S700
G1 X-0.544
G1 X-1.667S0
G1 Y0.05S0
G1 X1.667S0
G1 X1.149S700
G1 X0.585S0
G1 X0.537S700
G1 X1.667S0
G1 Y0.05S0
G1 X-1.667S0
G1 X-0.537S700
G1 X-0.616S0
G1 X-1.118S700
G1 X-1.667S0
G1 Y0.05S0
G1 X1.667S0
G1 X1.088S700
G1 X0.646S0
G1 X0.537S700
G1 X1.667S0
G1 Y0.05S0
G1 X-1.667S0
G1 X-0.537S700
G1 X-0.677S0
G1 X-1.057S700
G1 X-1.667S0
G1 Y0.05S0
G1 X1.667S0
G1 X1.026S700
G1 X0.708S0
G1 X0.537S700
G1 X1.667S0
G1 Y0.05S0
G1 X-1.667S0
G1 X-0.537S700
G1 X-0.738S0
G1 X-0.996S700
G1 X-1.667S0
G1 Y0.05S0
G1 X1.667S0
G1 X0.965S700
G1 X0.769S0
G1 X0.537S700
G1 X1.667S0
G1 Y0.05S0
G1 X-1.667S0
G1 X-0.537S700
G1 X-0.8S0
G1 X-0.934S700
G1 X-1.667S0
G1 Y0.05S0
G1 X1.667S0
G1 X0.904S700
G1 X0.83S0
G1 X0.537S700
G1 X1.667S0
G1 Y0.05S0
G1 X-1.667S0
G1 X-0.537S700
G1 X-0.861S0
G1 X-0.873S700
G1 X-1.667S0
G1 Y0.05S0
G1 X1.667S0
G1 X0.842S700
G1 X0.892S0
G1 X0.537S700
G1 X1.667S0
G1 Y0.05S0
G1 X-1.667S0
G1 X-0.537S700
G1 X-0.922S0
G1 X-0.812S700
G1 X-1.667S0
G1 Y0.05S0
G1 X1.667S0
G1 X0.781S700
G1 X0.953S0
G1 X0.537S700
G1 X1.667S0
G1 Y0.05S0
G1 X-1.667S0
G1 X-0.537S700
G1 X-0.984S0
G1 X-0.75S700
G1 X-1.667S0
G1 Y0.05S0
G1 X1.667S0
G1 X0.72S700
G1 X1.014S0
G1 X0.537S700
G1 X1.667S0
G1 Y0.05S0
G1 X-1.667S0
G1 X-0.537S700
G1 X-1.045S0
G1 X-0.689S700
G1 X-1.667S0
G1 Y0.05S0
G1 X1.667S0
G1 X0.659S700
G1 X1.075S0
G1 X0.537S700
G1 X1.667S0
G1 Y0.05S0
G1 X-1.667S0
G1 X-0.537S700
G1 X-1.106S0
G1 X-0.628S700
G1 X-1.667S0
G1 Y0.05S0
G1 X1.667S0
G1 X0.597S700
G1 X1.137S0
G1 X0.537S700
G1 X1.667S0
G1 Y0.05S0
G1 X-1.667S0
G1 X-0.537S700
G1 X-1.167S0
G1 X-0.567S700
G1 X-1.667S0
; Layer C02 Pass 2 of 2
G1 Y-2.85S0
G1 X1.667S0
G1 X0.537S700
G1 X1.15S0
G1 X0.584S700
G1 X1.667S0
G1 Y0.05S0
G1 X-1.667S0
G1 X-0.615S700
G1 X-1.119S0
G1 X-0.537S700
G1 X-1.667S0
G1 Y0.05S0
G1 X1.667S0
G1 X0.537S700
G1 X1.088S0
G1 X0.646S700
G1 X1.667S0
G1 Y0.05S0
G1 X-1.667S0
G1 X-0.677S700
G1 X-1.057S0
G1 X-0.537S700
G1 X-1.667S0
G1 Y0.05S0
G1 X1.667S0
G1 X0.537S700
G1 X1.026S0
G1 X0.708S700
G1 X1.667S0
G1 Y0.05S0
G1 X-1.667S0
G1 X-0.738S700
G1 X-0.996S0
G1 X-0.537S700
G1 X-1.667S0
G1 Y0.05S0
G1 X1.667S0
G1 X0.537S700
G1 X0.965S0
G1 X0.769S700
G1 X1.667S0
G1 Y0.05S0
G1 X-1.667S0
G1 X-0.8S700
G1 X-0.934S0
G1 X-0.537S700
G1 X-1.667S0
G1 Y0.05S0
G1 X1.667S0
G1 X0.537S700
G1 X0.903S0
G1 X0.831S700
G1 X1.667S0
G1 Y0.05S0
G1 X-1.667S0
G1 X-0.862S700
G1 X-0.872S0
G1 X-0.537S700
G1 X-1.667S0
G1 Y0.05S0
G1 X1.667S0
G1 X0.537S700
G1 X0.841S0
G1 X0.893S700
G1 X1.667S0
G1 Y0.05S0
G1 X-1.667S0
G1 X-0.924S700
G1 X-0.81S0
G1 X-0.537S700
G1 X-1.667S0
G1 Y0.05S0
G1 X1.667S0
G1 X0.537S700
G1 X0.779S0
G1 X0.955S700
G1 X1.667S0
G1 Y0.05S0
G1 X-1.667S0
G1 X-0.986S700
G1 X-0.748S0
G1 X-0.537S700
G1 X-1.667S0
G1 Y0.05S0
G1 X1.667S0
G1 X0.537S700
G1 X0.717S0
G1 X1.017S700
G1 X1.667S0
G1 Y0.05S0
G1 X-1.667S0
G1 X-1.048S700
G1 X-0.686S0
G1 X-0.537S700
G1 X-1.667S0
G1 Y0.05S0
G1 X1.667S0
G1 X0.537S700
G1 X0.656S0
G1 X1.078S700
G1 X1.667S0
G1 Y0.05S0
G1 X-1.667S0
G1 X-1.109S700
G1 X-0.625S0
G1 X-0.537S700
G1 X-1.667S0
G1 Y0.05S0
G1 X1.667S0
G1 X0.537S700
G1 X0.594S0
G1 X1.14S700
G1 X1.667S0
G1 Y0.05S0
G1 X-1.667S0
G1 X-0.537S700
G1 X-0.634
G1 X-0.563S0
G1 X-0.537S700
G1 X-1.667S0
G1 Y0.05S0
G1 X1.667S0
G1 X0.537S700
G1 X0.532S0
G1 X0.631S700
G1 X0.034S0
G1 X0.537S700
G1 X1.667S0
G1 Y0.05S0
G1 X-1.667S0
G1 X-0.537S700
G1 X-0.064S0
G1 X-0.632S700
G1 X-0.501S0
G1 X-0.537S700
G1 X-1.667S0
G1 Y0.05S0
G1 X1.667S0
G1 X0.537S700
G1 X0.47S0
G1 X0.632S700
G1 X0.095S0
G1 X0.537S700
G1 X1.667S0
G1 Y0.05S0
G1 X-1.667S0
G1 X-0.537S700
G1 X-0.125S0
G1 X-0.633S700
G1 X-0.439S0
G1 X-0.537S700
G1 X-1.667S0
G1 Y0.05S0
G1 X1.667S0
G1 X0.537S700
G1 X0.408S0
G1 X0.633S700
G1 X0.156S0
G1 X0.537S700
G1 X1.667S0
G1 Y0.05S0
G1 X-1.667S0
G1 X-0.537S700
G1 X-0.187S0
G1 X-0.633S700
G1 X-0.377S0
G1 X-0.537S700
G1 X-1.667S0
G1 Y0.05S0
G1 X1.667S0
G1 X0.537S700
G1 X0.346S0
G1 X0.634S700
G1 X0.217S0
G1 X0.537S700
G1 X1.667S0
G1 Y0.05S0
G1 X-1.667S0
G1 X-0.537S700
G1 X-0.248S0
G1 X-0.633S700
G1 X-0.316S0
G1 X-0.537S700
G1 X-1.667S0
G1 Y0.05S0
G1 X1.667S0
G1 X0.537S700
G1 X0.285S0
G1 X0.633S700
G1 X0.279S0
G1 X0.537S700
G1 X1.667S0
G1 Y0.05S0
G1 X-1.667S0
G1 X-0.537S700
G1 X-0.309S0
G1 X-0.634S700
G1 X-0.254S0
G1 X-0.537S700
G1 X-1.667S0
G1 Y0.05S0
G1 X1.667S0
G1 X0.537S700
G1 X0.223S0
G1 X0.634S700
G1 X0.34S0
G1 X0.537S700
G1 X1.667S0
G1 Y0.05S0
G1 X-1.667S0
G1 X-0.537S700
G1 X-0.371S0
G1 X-0.634S700
G1 X-0.192S0
G1 X-0.537S700
G1 X-1.667S0
G1 Y0.05S0
G1 X1.667S0
G1 X0.537S700
G1 X0.161S0
G1 X0.635S700
G1 X0.401S0
G1 X0.537S700
G1 X1.667S0
G1 Y0.05S0
G1 X-1.667S0
G1 X-0.537S700
G1 X-0.432S0
G1 X-0.635S700
G1 X-0.13S0
G1 X-0.537S700
G1 X-1.667S0
G1 Y0.05S0
G1 X1.667S0
G1 X0.537S700
G1 X0.099S0
G1 X0.635S700
G1 X0.463S0
G1 X0.537S700
G1 X1.667S0
G1 Y0.05S0
G1 X-1.667S0
G1 X-0.537S700
G1 X-0.493S0
G1 X-0.636S700
G1 X-0.068S0
G1 X-0.537S700
G1 X-1.667S0
G1 Y0.05S0
G1 X1.667S0
G1 X0.537S700
G1 X0.037S0
G1 X0.636S700
G1 X0.524S0
G1 X0.537S700
G1 X1.667S0
G1 Y0.05S0
G1 X-1.667S0
G1 X-0.537S700
G1 X-0.555S0
G1 X-0.635S700
G1 X-0.544
G1 X-1.667S0
G1 Y0.05S0
G1 X1.667S0
G1 X1.149S700
G1 X0.585S0
G1 X0.537S700
G1 X1.667S0
G1 Y0.05S0
G1 X-1.667S0
G1 X-0.537S700
G1 X-0.616S0
G1 X-1.118S700
G1 X-1.667S0
G1 Y0.05S0
G1 X1.667S0
G1 X1.088S700
G1 X0.646S0
G1 X0.537S700
G1 X1.667S0
G1 Y0.05S0
G1 X-1.667S0
G1 X-0.537S700
G1 X-0.677S0
G1 X-1.057S700
G1 X-1.667S0
G1 Y0.05S0
G1 X1.667S0
G1 X1.026S700
G1 X0.708S0
G1 X0.537S700
G1 X1.667S0
G1 Y0.05S0
G1 X-1.667S0
G1 X-0.537S700
G1 X-0.738S0
G1 X-0.996S700
G1 X-1.667S0
G1 Y0.05S0
G1 X1.667S0
G1 X0.965S700
G1 X0.769S0
G1 X0.537S700
G1 X1.667S0
G1 Y0.05S0
G1 X-1.667S0
G1 X-0.537S700
G1 X-0.8S0
G1 X-0.934S700
G1 X-1.667S0
G1 Y0.05S0
G1 X1.667S0
G1 X0.904S700
G1 X0.83S0
G1 X0.537S700
G1 X1.667S0
G1 Y0.05S0
G1 X-1.667S0
G1 X-0.537S700
G1 X-0.861S0
G1 X-0.873S700
G1 X-1.667S0
G1 Y0.05S0
G1 X1.667S0
G1 X0.842S700
G1 X0.892S0
G1 X0.537S700
G1 X1.667S0
G1 Y0.05S0
G1 X-1.667S0
G1 X-0.537S700
G1 X-0.922S0
G1 X-0.812S700
G1 X-1.667S0
G1 Y0.05S0
G1 X1.667S0
G1 X0.781S700
G1 X0.953S0
G1 X0.537S700
G1 X1.667S0
G1 Y0.05S0
G1 X-1.667S0
G1 X-0.537S700
G1 X-0.984S0
G1 X-0.75S700
G1 X-1.667S0
G1 Y0.05S0
G1 X1.667S0
G1 X0.72S700
G1 X1.014S0
G1 X0.537S700
G1 X1.667S0
G1 Y0.05S0
G1 X-1.667S0
G1 X-0.537S700
G1 X-1.045S0
G1 X-0.689S700
G1 X-1.667S0
G1 Y0.05S0
G1 X1.667S0
G1 X0.659S700
G1 X1.075S0
G1 X0.537S700
G1 X1.667S0
G1 Y0.05S0
G1 X-1.667S0
G1 X-0.537S700
G1 X-1.106S0
G1 X-0.628S700
G1 X-1.667S0
G1 Y0.05S0
G1 X1.667S0
G1 X0.597S700
G1 X1.137S0
G1 X0.537S700
G1 X1.667S0
G1 Y0.05S0
G1 X-1.667S0
G1 X-0.537S700
G1 X-1.167S0
G1 X-0.567S700
G1 X-1.667S0
M9
G1 S0
M5
; return to starting pos
G0 X1.667Y-2.857
M2
