; LightBurn 1.2.01
; GRBL device profile, current position
; Bounds: X-1.67 Y0 to X1.94 Y1.77
G00 G17 G40 G21 G54
G91
M4
; Cut @ 4999.998 mm/min, 0% power
M8
G0 X0.282Y0
; Layer Lim
G1 X0.1S0F5000
; Scan @ 4000.002 mm/min, 70% power
M8
G0 X-2.039Y0.02
; Layer C02
G1 X1.667F4000S0
G1 X0.253S700
G1 X1.666S0
G1 Y0.05S0
G1 X-1.666S0
G1 X-0.253S700
G1 X-1.667S0
G1 Y0.05S0
G1 X1.667S0
G1 X0.253S700
G1 X1.666S0
G1 Y0.05S0
G1 X-1.666S0
G1 X-0.253S700
G1 X-1.667S0
G1 Y0.05S0
G1 X1.667S0
G1 X0.253S700
G1 X1.666S0
G1 X-0.052Y0.25S0
G1 X-1.667S0
G1 X-0.145S700
G1 X-1.667S0
G1 Y0.05S0
G1 X1.663S0
G1 X0.153S700
G1 X1.666S0
G1 Y0.05S0
G1 X-1.663S0
G1 X-0.161S700
G1 X-1.666S0
G1 Y0.05S0
G1 X1.662S0
G1 X0.168S700
G1 X1.667S0
G1 Y0.05S0
G1 X-1.663S0
G1 X-0.176S700
G1 X-1.667S0
G1 Y0.05S0
G1 X1.663S0
G1 X0.183S700
G1 X1.667S0
G1 Y0.05S0
G1 X-1.664S0
G1 X-0.191S700
G1 X-1.666S0
G1 Y0.05S0
G1 X1.662S0
G1 X0.199S700
G1 X1.666S0
G1 Y0.05S0
G1 X-1.663S0
G1 X-0.206S700
G1 X-1.667S0
G1 Y0.05S0
G1 X1.663S0
G1 X0.213S700
G1 X1.667S0
G1 Y0.05S0
G1 X-1.663S0
G1 X-0.222S700
G1 X-1.666S0
G1 Y0.05S0
G1 X1.662S0
G1 X0.229S700
G1 X1.667S0
G1 Y0.05S0
G1 X-1.663S0
G1 X-0.237S700
G1 X-1.667S0
G1 Y0.05S0
G1 X1.663S0
G1 X0.244S700
G1 X1.667S0
G1 Y0.05S0
G1 X-1.664S0
G1 X-0.248S700
G1 X-1.667S0
G1 Y0.05S0
G1 X1.666S0
G1 X0.253S700
G1 X1.666S0
G1 Y0.05S0
G1 X-1.663S0
G1 X-0.256S700
G1 X-1.667S0
G1 Y0.05S0
G1 X1.666S0
G1 X0.26S700
G1 X1.667S0
G1 Y0.05S0
G1 X-1.663S0
G1 X-0.265S700
G1 X-1.667S0
G1 Y0.05S0
G1 X1.666S0
G1 X0.267S700
G1 X1.667S0
G1 Y0.05S0
G1 X-1.667S0
G1 X-0.267S700
G1 X-1.667S0
G1 Y0.05S0
G1 X1.666S0
G1 X0.268S700
G1 X1.667S0
G1 Y0.05S0
G1 X-1.667S0
G1 X-0.269S700
G1 X-1.666S0
G1 Y0.05S0
G1 X1.665S0
G1 X0.27S700
G1 X1.667S0
G1 Y0.05S0
G1 X-1.667S0
G1 X-0.27S700
G1 X-1.667S0
G1 Y0.05S0
G1 X1.666S0
G1 X0.271S700
G1 X1.667S0
G1 Y0.05S0
G1 X-1.667S0
G1 X-0.272S700
G1 X-1.666S0
M9
G1 S0
M5
; return to starting pos
G0 X1.666Y-1.77
M2
