; LightBurn 1.2.01
; GRBL device profile, current position
; Bounds: X-1.67 Y0 to X3 Y1.85
G00 G17 G40 G21 G54
G91
M4
; Cut @ 4999.998 mm/min, 0% power
M8
G0 X0.471Y0.031
; Layer Lim
G1 X0.1S0F5000
; Scan @ 4000.002 mm/min, 70% power
M8
G0 X-2.138Y-0.031
; Layer C02
G1 X1.667F4000S0
G1 X0.183S700
G1 X0.385S0
G1 X0.183S700
G1 X1.666S0
G1 X0.011Y0.05S0
G1 X-1.667S0
G1 X-0.183S700
G1 X-0.384S0
G1 X-0.184S700
G1 X-1.667S0
G1 X0.011Y0.05S0
G1 X1.666S0
G1 X0.184S700
G1 X0.384S0
G1 X0.183S700
G1 X1.667S0
G1 X0.01Y0.05S0
G1 X-1.666S0
G1 X-0.184S700
G1 X-0.384S0
G1 X-0.183S700
G1 X-1.667S0
G1 X0.01Y0.05S0
G1 X1.667S0
G1 X0.183S700
G1 X0.384S0
G1 X0.184S700
G1 X1.666S0
G1 X0.011Y0.05S0
G1 X-1.667S0
G1 X-0.184S700
G1 X-0.384S0
G1 X-0.183S700
G1 X-1.667S0
G1 X0.011Y0.05S0
G1 X1.666S0
G1 X0.184S700
G1 X0.383S0
G1 X0.184S700
G1 X1.667S0
G1 X0.01Y0.05S0
G1 X-1.667S0
G1 X-0.184S700
G1 X-0.383S0
G1 X-0.184S700
G1 X-1.666S0
G1 X0.01Y0.05S0
G1 X1.667S0
G1 X0.183S700
G1 X0.383S0
G1 X0.185S700
G1 X1.666S0
G1 X0.011Y0.05S0
G1 X-1.667S0
G1 X-0.184S700
G1 X-0.384S0
G1 X-0.183S700
G1 X-1.667S0
G1 X0.01Y0.05S0
G1 X1.667S0
G1 X0.183S700
G1 X0.384S0
G1 X0.184S700
G1 X1.667S0
G1 X0.38Y0.05S0
G1 X-1.667S0
G1 X-1.333S700
G1 X-1.667S0
G1 Y0.05S0
G1 X1.667S0
G1 X1.333S700
G1 X1.667S0
G1 Y0.05S0
G1 X-1.667S0
G1 X-1.333S700
G1 X-1.667S0
G1 Y0.05S0
G1 X1.667S0
G1 X1.333S700
G1 X1.667S0
G1 X-0.33Y0.05S0
G1 X-1.667S0
G1 X-0.184S700
G1 X-0.383S0
G1 X-0.183S700
G1 X-1.667S0
G1 X0.01Y0.05S0
G1 X1.667S0
G1 X0.183S700
G1 X0.384S0
G1 X0.184S700
G1 X1.666S0
G1 X0.011Y0.05S0
G1 X-1.667S0
G1 X-0.184S700
G1 X-0.384S0
G1 X-0.183S700
G1 X-1.667S0
G1 X0.011Y0.05S0
G1 X1.666S0
G1 X0.183S700
G1 X0.384S0
G1 X0.184S700
G1 X1.667S0
G1 X0.011Y0.05S0
G1 X-1.667S0
G1 X-0.184S700
G1 X-0.384S0
G1 X-0.184S700
G1 X-1.666S0
G1 X0.01Y0.05S0
G1 X1.667S0
G1 X0.183S700
G1 X0.384S0
G1 X0.184S700
G1 X1.667S0
G1 X0.01Y0.05S0
G1 X-1.666S0
G1 X-0.185S700
G1 X-0.384S0
G1 X-0.183S700
G1 X-1.667S0
G1 X0.01Y0.05S0
G1 X1.667S0
G1 X0.183S700
G1 X0.385S0
G1 X0.184S700
G1 X1.667S0
G1 X0.257Y0.05S0
G1 X-1.667S0
G1 X-1.333S700
G1 X-1.667S0
G1 Y0.05S0
G1 X1.667S0
G1 X1.333S700
G1 X1.667S0
G1 Y0.05S0
G1 X-1.667S0
G1 X-1.333S700
G1 X-1.667S0
G1 Y0.05S0
G1 X1.667S0
G1 X1.333S700
G1 X1.667S0
G1 X-0.207Y0.05S0
G1 X-1.666S0
G1 X-0.185S700
G1 X-0.384S0
G1 X-0.183S700
G1 X-1.667S0
G1 X0.01Y0.05S0
G1 X1.667S0
G1 X0.183S700
G1 X0.385S0
G1 X0.184S700
G1 X1.667S0
G1 X0.01Y0.05S0
G1 X-1.667S0
G1 X-0.184S700
G1 X-0.385S0
G1 X-0.183S700
G1 X-1.667S0
G1 X0.01Y0.05S0
G1 X1.667S0
G1 X0.183S700
G1 X0.385S0
G1 X0.184S700
G1 X1.667S0
G1 X0.01Y0.05S0
G1 X-1.667S0
G1 X-0.184S700
G1 X-0.385S0
G1 X-0.183S700
G1 X-1.667S0
G1 X0.01Y0.05S0
G1 X1.667S0
G1 X0.183S700
G1 X0.385S0
G1 X0.184S700
G1 X1.667S0
G1 X0.01Y0.05S0
G1 X-1.667S0
G1 X-0.184S700
G1 X-0.385S0
G1 X-0.183S700
G1 X-1.666S0
G1 X0.01Y0.05S0
G1 X1.666S0
G1 X0.184S700
G1 X0.384S0
G1 X0.184S700
G1 X1.667S0
G1 X0.01Y0.05S0
G1 X-1.666S0
G1 X-0.184S700
G1 X-0.385S0
G1 X-0.184S700
G1 X-1.666S0
G1 X0.01Y0.05S0
G1 X1.667S0
G1 X0.183S700
G1 X0.385S0
G1 X0.184S700
G1 X1.666S0
G1 X0.01Y0.05S0
G1 X-1.666S0
G1 X-0.184S700
G1 X-0.385S0
G1 X-0.183S700
G1 X-1.667S0
M9
G1 S0
M5
; return to starting pos
G0 X1.191Y-1.85
M2
