; LightBurn 1.2.01
; GRBL device profile, current position
; Bounds: X-1.66 Y0.03 to X2.85 Y2.18
G00 G17 G40 G21 G54
G91
M4
; Cut @ 4999.998 mm/min, 0% power
M8
G0 X0.407Y0.257
; Layer Lim
G1 X0.1S0F5000
; Scan @ 4000.002 mm/min, 70% power
M8
G0 X-1.64Y-0.226
; Layer C02
G1 X1.667F4000S0
G1 X0.129S700
G1 X1.667S0
G1 Y0.05S0
G1 X-1.667S0
G1 X-0.129S700
G1 X-1.667S0
G1 Y0.05S0
G1 X1.667S0
G1 X0.129S700
G1 X1.667S0
G1 Y0.05S0
G1 X-1.667S0
G1 X-0.129S700
G1 X-1.667S0
G1 X-0.062Y0.05S0
G1 X1.667S0
G1 X0.241S700
G1 X1.667S0
G1 X0.179Y0.05S0
G1 X-1.667S0
G1 X-0.593S700
G1 X-1.667S0
G1 X-0.081Y0.05S0
G1 X1.667S0
G1 X0.757S700
G1 X1.667S0
G1 X0.057Y0.05S0
G1 X-1.667S0
G1 X-0.877S700
G1 X-1.667S0
G1 X-0.038Y0.05S0
G1 X1.667S0
G1 X0.34S700
G1 X0.077S0
G1 X0.129S700
G1 X0.072S0
G1 X0.337S700
G1 X1.667S0
G1 X0.04Y0.05S0
G1 X-1.667S0
G1 X-0.282S700
G1 X-0.167S0
G1 X-0.129S700
G1 X-0.162S0
G1 X-0.293S700
G1 X-1.667S0
G1 X-0.024Y0.05S0
G1 X1.667S0
G1 X0.262S700
G1 X0.217S0
G1 X0.129S700
G1 X0.214S0
G1 X0.258S700
G1 X1.667S0
G1 X0.016Y0.05S0
G1 X-1.667S0
G1 X-0.234S700
G1 X-0.254S0
G1 X-0.129S700
G1 X-0.245S0
G1 X-0.255S700
G1 X-1.667S0
G1 X-0.016Y0.05S0
G1 X1.666S0
G1 X0.247S700
G1 X0.27S0
G1 X0.129S700
G1 X0.272S0
G1 X0.232S700
G1 X1.667S0
G1 X0.015Y0.05S0
G1 X-1.667S0
G1 X-0.228S700
G1 X-0.291S0
G1 X-0.129S700
G1 X-0.289S0
G1 X-0.235S700
G1 X-1.666S0
G1 X-0.007Y0.05S0
G1 X1.666S0
G1 X0.232S700
G1 X0.299S0
G1 X0.129S700
G1 X0.292S0
G1 X0.225S700
G1 X1.666S0
G1 Y0.05S0
G1 X-1.669S0
G1 X-0.224S700
G1 X-0.29S0
G1 X-0.129S700
G1 X-0.31S0
G1 X-0.082S700
G1 X-1.667S0
G1 X0.392Y0.05S0
G1 X1.667S0
G1 X0.129S700
G1 X0.281S0
G1 X0.231S700
G1 X1.666S0
G1 X-0.008Y0.05S0
G1 X-1.666S0
G1 X-0.245S700
G1 X-0.259S0
G1 X-0.129S700
G1 X-1.667S0
G1 Y0.05S0
G1 X1.667S0
G1 X0.129S700
G1 X0.232S0
G1 X0.25S700
G1 X1.667S0
G1 X-0.022Y0.05S0
G1 X-1.667S0
G1 X-0.279S700
G1 X-0.181S0
G1 X-0.129S700
G1 X-1.667S0
G1 Y0.05S0
G1 X1.667S0
G1 X0.129S700
G1 X0.104S0
G1 X0.335S700
G1 X1.666S0
G1 X-0.045Y0.05S0
G1 X-1.667S0
G1 X-0.522S700
G1 X-1.667S0
G1 X-0.092Y0.05S0
G1 X1.666S0
G1 X0.568S700
G1 X1.666S0
G1 X-0.061Y0.05S0
G1 X-1.667S0
G1 X-0.636S700
G1 X-1.667S0
G1 X-0.086Y0.05S0
G1 X1.667S0
G1 X0.618S700
G1 X1.666S0
G1 X-0.153Y0.05S0
G1 X-1.667S0
G1 X-0.518S700
G1 X-1.667S0
G1 X-0.044Y0.05S0
G1 X1.666S0
G1 X0.37S700
G1 X0.038S0
G1 X0.129S700
G1 X1.667S0
G1 Y0.05S0
G1 X-1.667S0
G1 X-0.129S700
G1 X-0.144S0
G1 X-0.29S700
G1 X-1.667S0
G1 X-0.027Y0.05S0
G1 X1.667S0
G1 X0.255S700
G1 X0.206S0
G1 X0.129S700
G1 X1.667S0
G1 Y0.05S0
G1 X-1.667S0
G1 X-0.129S700
G1 X-0.237S0
G1 X-0.239S700
G1 X-1.667S0
G1 X-0.008Y0.05S0
G1 X1.667S0
G1 X0.222S700
G1 X0.262S0
G1 X0.129S700
G1 X1.667S0
G1 Y0.05S0
G1 X-1.667S0
G1 X-0.129S700
G1 X-0.269S0
G1 X-0.223S700
G1 X-1.667S0
G1 Y0.05S0
G1 X1.666S0
G1 X0.217S700
G1 X0.276S0
G1 X0.129S700
G1 X1.667S0
G1 X0.474Y0.05S0
G1 X-1.667S0
G1 X-0.236S700
G1 X-0.238S0
G1 X-0.129S700
G1 X-0.266S0
G1 X-0.22S700
G1 X-1.666S0
G1 X0.007Y0.05S0
G1 X1.667S0
G1 X0.222S700
G1 X0.256S0
G1 X0.129S700
G1 X0.226S0
G1 X0.236S700
G1 X1.667S0
G1 X-0.012Y0.05S0
G1 X-1.666S0
G1 X-0.253S700
G1 X-0.198S0
G1 X-0.129S700
G1 X-0.227S0
G1 X-0.243S700
G1 X-1.666S0
G1 X0.027Y0.05S0
G1 X1.667S0
G1 X0.252S700
G1 X0.19S0
G1 X0.129S700
G1 X0.168S0
G1 X0.26S700
G1 X1.666S0
G1 X-0.027Y0.05S0
G1 X-1.667S0
G1 X-0.297S700
G1 X-0.103S0
G1 X-0.129S700
G1 X-0.124S0
G1 X-0.29S700
G1 X-1.667S0
G1 X0.032Y0.05S0
G1 X1.667S0
G1 X0.874S700
G1 X1.667S0
G1 X-0.05Y0.05S0
G1 X-1.667S0
G1 X-0.766S700
G1 X-1.667S0
G1 X0.058Y0.05S0
G1 X1.667S0
G1 X0.637S700
G1 X1.667S0
G1 X-0.11Y0.05S0
G1 X-1.667S0
G1 X-0.391S700
G1 X-1.667S0
G1 X0.13Y0.05S0
G1 X1.667S0
G1 X0.129S700
G1 X1.667S0
G1 Y0.05S0
G1 X-1.667S0
G1 X-0.129S700
G1 X-1.667S0
M9
G1 S0
M5
; return to starting pos
G0 X1.133Y-2.181
M2
