; LightBurn 1.2.01
; GRBL device profile, current position
; Bounds: X-1.66 Y0.02 to X3.6 Y1.87
G00 G17 G40 G21 G54
G91
M4
; Cut @ 4999.998 mm/min, 0% power
M8
G0 X0.358Y0.066
; Layer Lim
G1 X0.1S0F5000
; Scan @ 4000.002 mm/min, 70% power
M8
G0 X-1.725Y-0.048
; Layer C02
G1 X1.666F4000S0
G1 X0.182S700
G1 X0.863S0
G1 X0.199S700
G1 X1.667S0
G1 X0.103Y0.05S0
G1 X-1.667S0
G1 X-0.416S700
G1 X-0.723S0
G1 X-0.182S700
G1 X-1.666S0
G1 X0.025Y0.05S0
G1 X1.667S0
G1 X0.182S700
G1 X0.655S0
G1 X0.513S700
G1 X1.667S0
G1 X0.048Y0.05S0
G1 X-1.667S0
G1 X-0.235S700
G1 X-0.138S0
G1 X-0.23S700
G1 X-0.587S0
G1 X-0.182S700
G1 X-1.667S0
G1 X0.026Y0.05S0
G1 X1.667S0
G1 X0.182S700
G1 X0.535S0
G1 X0.211S700
G1 X0.249S0
G1 X0.198S700
G1 X1.667S0
G1 X0.022Y0.05S0
G1 X-1.667S0
G1 X-0.197S700
G1 X-0.308S0
G1 X-0.198S700
G1 X-0.487S0
G1 X-0.181S700
G1 X-1.667S0
G1 X0.026Y0.05S0
G1 X1.667S0
G1 X0.181S700
G1 X0.442S0
G1 X0.195S700
G1 X0.35S0
G1 X0.199S700
G1 X1.667S0
G1 Y0.05S0
G1 X-1.664S0
G1 X-0.192S700
G1 X-0.376S0
G1 X-0.187S700
G1 X-0.408S0
G1 X-0.181S700
G1 X-1.667S0
G1 X0.026Y0.05S0
G1 X1.667S0
G1 X0.181S700
G1 X0.373S0
G1 X0.189S700
G1 X0.393S0
G1 X0.185S700
G1 X1.667S0
G1 Y0.05S0
G1 X-1.664S0
G1 X-0.187S700
G1 X-0.396S0
G1 X-0.188S700
G1 X-0.346S0
G1 X-0.181S700
G1 X-1.667S0
G1 X0.026Y0.05S0
G1 X1.667S0
G1 X0.181S700
G1 X0.324S0
G1 X0.191S700
G1 X0.389S0
G1 X0.184S700
G1 X1.667S0
G1 Y0.05S0
G1 X-1.669S0
G1 X-0.19S700
G1 X-0.376S0
G1 X-0.191S700
G1 X-0.303S0
G1 X-0.181S700
G1 X-1.667S0
G1 X0.026Y0.05S0
G1 X1.667S0
G1 X0.181S700
G1 X0.287S0
G1 X0.185S700
G1 X0.363S0
G1 X0.196S700
G1 X1.667S0
G1 X-0.013Y0.05S0
G1 X-1.667S0
G1 X-0.197S700
G1 X-0.333S0
G1 X-0.19S700
G1 X-0.273S0
G1 X-0.18S700
G1 X-1.667S0
G1 X0.026Y0.05S0
G1 X1.667S0
G1 X0.18S700
G1 X0.258S0
G1 X0.208S700
G1 X0.278S0
G1 X0.197S700
G1 X1.667S0
G1 X-0.026Y0.05S0
G1 X-1.666S0
G1 X-0.228S700
G1 X-0.164S0
G1 X-0.232S700
G1 X-0.266S0
G1 X-0.18S700
G1 X-1.667S0
G1 X0.026Y0.05S0
G1 X1.667S0
G1 X0.18S700
G1 X0.274S0
G1 X0.549S700
G1 X1.666S0
G1 X-0.063Y0.05S0
G1 X-1.667S0
G1 X-0.425S700
G1 X-0.308S0
G1 X-0.181S700
G1 X-1.666S0
G1 X0.026Y0.05S0
G1 X1.666S0
G1 X0.181S700
G1 X0.364S0
G1 X0.243S700
G1 X1.666S0
G1 X-0.581Y0.05S0
G1 X-1.666S0
G1 X-0.181S700
G1 X-0.387S0
G1 X-0.241S700
G1 X-1.667S0
G1 X-0.1Y0.05S0
G1 X1.667S0
G1 X0.44S700
G1 X0.314S0
G1 X0.181S700
G1 X1.666S0
G1 X0.026Y0.05S0
G1 X-1.667S0
G1 X-0.18S700
G1 X-0.292S0
G1 X-0.53S700
G1 X-1.667S0
G1 X-0.041Y0.05S0
G1 X1.667S0
G1 X0.226S700
G1 X0.171S0
G1 X0.221S700
G1 X0.271S0
G1 X0.18S700
G1 X1.667S0
G1 X0.026Y0.05S0
G1 X-1.667S0
G1 X-0.18S700
G1 X-0.272S0
G1 X-0.195S700
G1 X-0.265S0
G1 X-0.206S700
G1 X-1.667S0
G1 X-0.023Y0.05S0
G1 X1.667S0
G1 X0.198S700
G1 X0.315S0
G1 X0.198S700
G1 X0.276S0
G1 X0.18S700
G1 X1.667S0
G1 X0.026Y0.05S0
G1 X-1.667S0
G1 X-0.18S700
G1 X-0.284S0
G1 X-0.197S700
G1 X-0.357S0
G1 X-0.191S700
G1 X-1.666S0
G1 X-0.009Y0.05S0
G1 X1.666S0
G1 X0.188S700
G1 X0.378S0
G1 X0.191S700
G1 X0.307S0
G1 X0.18S700
G1 X1.666S0
G1 X0.026Y0.05S0
G1 X-1.666S0
G1 X-0.18S700
G1 X-0.33S0
G1 X-0.185S700
G1 X-0.394S0
G1 X-0.189S700
G1 X-1.667S0
G1 Y0.05S0
G1 X1.669S0
G1 X0.188S700
G1 X0.393S0
G1 X0.187S700
G1 X0.354S0
G1 X0.18S700
G1 X1.666S0
G1 X0.026Y0.05S0
G1 X-1.667S0
G1 X-0.179S700
G1 X-0.383S0
G1 X-0.184S700
G1 X-0.386S0
G1 X-0.191S700
G1 X-1.667S0
G1 Y0.05S0
G1 X1.672S0
G1 X0.191S700
G1 X0.372S0
G1 X0.191S700
G1 X0.411S0
G1 X0.179S700
G1 X1.667S0
G1 X0.026Y0.05S0
G1 X-1.667S0
G1 X-0.179S700
G1 X-0.44S0
G1 X-0.197S700
G1 X-0.36S0
G1 X-0.183S700
G1 X-1.667S0
G1 X0.012Y0.05S0
G1 X1.666S0
G1 X0.193S700
G1 X0.324S0
G1 X0.194S700
G1 X0.484S0
G1 X0.179S700
G1 X1.667S0
G1 X0.026Y0.05S0
G1 X-1.667S0
G1 X-0.179S700
G1 X-0.536S0
G1 X-0.2S700
G1 X-0.257S0
G1 X-0.213S700
G1 X-1.666S0
G1 X0.034Y0.05S0
G1 X1.667S0
G1 X0.254S700
G1 X0.117S0
G1 X0.239S700
G1 X0.587S0
G1 X0.179S700
G1 X1.666S0
G1 X0.026Y0.05S0
G1 X-1.666S0
G1 X-0.179S700
G1 X-0.662S0
G1 X-0.527S700
G1 X-1.667S0
G1 X0.068Y0.05S0
G1 X1.667S0
G1 X0.396S700
G1 X0.751S0
G1 X0.179S700
G1 X1.666S0
G1 X0.026Y0.05S0
G1 X-1.667S0
G1 X-0.178S700
G1 X-0.906S0
G1 X-0.153S700
G1 X-1.666S0
M9
G1 S0
M5
; return to starting pos
G0 X1.365Y-1.868
M2
