; LightBurn 1.2.01
; GRBL device profile, current position
; Bounds: X-1.66 Y0.04 to X3.15 Y1.85
G00 G17 G40 G21 G54
G91
M4
; Cut @ 4999.998 mm/min, 0% power
M8
G0 X0.388Y0.042
; Layer Lim
G1 X0.1S0F5000
; Scan @ 4000.002 mm/min, 70% power
M8
G0 X-1.787Y0.012
; Layer C02
G1 X1.667F4000S0
G1 X0.406S700
G1 X0.512S0
G1 X0.114S700
G1 X1.667S0
G1 X0.042Y0.05S0
G1 X-1.667S0
G1 X-0.219S700
G1 X-0.319S0
G1 X-0.659S700
G1 X-1.667S0
G1 X-0.067Y0.05S0
G1 X1.667S0
G1 X0.785S700
G1 X0.209S0
G1 X0.312S700
G1 X1.667S0
G1 X-0.017Y0.05S0
G1 X-1.667S0
G1 X-0.342S700
G1 X-0.103S0
G1 X-0.896S700
G1 X-1.666S0
G1 X-0.039Y0.05S0
G1 X1.666S0
G1 X0.323S700
G1 X0.345S0
G1 X0.652S700
G1 X1.667S0
G1 X-0.058Y0.05S0
G1 X-1.667S0
G1 X-0.519S700
G1 X-0.485S0
G1 X-0.283S700
G1 X-1.667S0
G1 X-0.026Y0.05S0
G1 X1.667S0
G1 X0.266S700
G1 X0.581S0
G1 X0.423S700
G1 X1.666S0
G1 X-0.044Y0.05S0
G1 X-1.666S0
G1 X-0.338S700
G1 X-0.65S0
G1 X-0.253S700
G1 X-1.667S0
G1 X-0.008Y0.05S0
G1 X1.667S0
G1 X0.244S700
G1 X0.662S0
G1 X0.306S700
G1 X1.667S0
G1 X0.026Y0.05S0
G1 X-1.667S0
G1 X-0.372S700
G1 X-0.637S0
G1 X-0.238S700
G1 X-1.666S0
G1 Y0.05S0
G1 X1.666S0
G1 X0.241S700
G1 X0.593S0
G1 X0.439S700
G1 X1.667S0
G1 X0.026Y0.05S0
G1 X-1.667S0
G1 X-0.505S700
G1 X-0.549S0
G1 X-0.237S700
G1 X-1.667S0
G1 X0.008Y0.05S0
G1 X1.666S0
G1 X0.244S700
G1 X0.495S0
G1 X0.294S700
G1 X0.023S0
G1 X0.248S700
G1 X1.666S0
G1 X0.017Y0.05S0
G1 X-1.667S0
G1 X-0.243S700
G1 X-0.083S0
G1 X-0.296S700
G1 X-0.419S0
G1 X-0.266S700
G1 X-1.667S0
G1 X0.028Y0.05S0
G1 X1.666S0
G1 X0.274S700
G1 X0.344S0
G1 X0.297S700
G1 X0.143S0
G1 X0.238S700
G1 X1.667S0
G1 X0.016Y0.05S0
G1 X-1.667S0
G1 X-0.24S700
G1 X-0.197S0
G1 X-0.297S700
G1 X-0.268S0
G1 X-0.282S700
G1 X-1.667S0
G1 X0.039Y0.05S0
G1 X1.667S0
G1 X0.312S700
G1 X0.158S0
G1 X0.299S700
G1 X0.25S0
G1 X0.147S700
G1 X1.666S0
G1 X-0.435Y0.05S0
G1 X-1.667S0
G1 X-0.3S700
G1 X-0.048S0
G1 X-0.339S700
G1 X-1.666S0
G1 X0.057Y0.05S0
G1 X1.666S0
G1 X0.591S700
G1 X1.666S0
G1 X-0.039Y0.05S0
G1 X-1.666S0
G1 X-0.486S700
G1 X-1.667S0
G1 X0.102Y0.05S0
G1 X1.666S0
G1 X0.369S700
G1 X1.667S0
G1 X0.078Y0.05S0
G1 X-1.667S0
G1 X-0.443S700
G1 X-1.667S0
G1 X-0.041Y0.05S0
G1 X1.667S0
G1 X0.555S700
G1 X1.666S0
G1 X0.055Y0.05S0
G1 X-1.667S0
G1 X-0.303S700
G1 X-0.046S0
G1 X-0.296S700
G1 X-1.666S0
G1 X-0.031Y0.05S0
G1 X1.666S0
G1 X0.284S700
G1 X0.164S0
G1 X0.276S700
G1 X1.667S0
G1 X0.023Y0.05S0
G1 X-1.667S0
G1 X-0.248S700
G1 X-0.257S0
G1 X-0.27S700
G1 X-1.666S0
G1 X-0.014Y0.05S0
G1 X1.667S0
G1 X0.244S700
G1 X0.336S0
G1 X0.23S700
G1 X1.667S0
G1 X0.016Y0.05S0
G1 X-1.667S0
G1 X-0.223S700
G1 X-0.388S0
G1 X-0.229S700
G1 X-1.667S0
G1 X-0.006Y0.05S0
G1 X1.666S0
G1 X0.229S700
G1 X0.401S0
G1 X0.218S700
G1 X1.667S0
G1 Y0.05S0
G1 X-1.666S0
G1 X-0.221S700
G1 X-0.404S0
G1 X-0.218S700
G1 X-1.667S0
G1 X0.006Y0.05S0
G1 X1.667S0
G1 X0.234S700
G1 X0.37S0
G1 X0.23S700
G1 X1.667S0
G1 X-0.02Y0.05S0
G1 X-1.667S0
G1 X-0.24S700
G1 X-0.317S0
G1 X-0.24S700
G1 X-1.667S0
G1 X0.027Y0.05S0
G1 X1.666S0
G1 X0.286S700
G1 X0.172S0
G1 X0.293S700
G1 X1.667S0
G1 X-0.03Y0.05S0
G1 X-1.667S0
G1 X-0.692S700
G1 X-1.666S0
G1 X0.058Y0.05S0
G1 X1.667S0
G1 X0.576S700
G1 X1.667S0
G1 X-0.061Y0.05S0
G1 X-1.667S0
G1 X-0.443S700
G1 X-1.667S0
G1 X0.126Y0.05S0
G1 X1.667S0
G1 X0.181S700
G1 X1.667S0
M9
G1 S0
M5
; return to starting pos
G0 X-2.416Y-1.854
M2
