; LightBurn 1.2.01
; GRBL device profile, current position
; Bounds: X-1.67 Y0.05 to X2.23 Y2.3
G00 G17 G40 G21 G54
G91
M4
; Cut @ 4999.998 mm/min, 0% power
M8
G0 X0.34Y0.526
; Layer Lim
G1 X0.1S0F5000
; Scan @ 4000.002 mm/min, 70% power
M8
G0 X-1.711Y-0.478
; Layer C02
G1 X1.667F4000S0
G1 X0.164S700
G1 X1.666S0
G1 X-0.027Y0.05S0
G1 X-1.667S0
G1 X-0.169S700
G1 X-1.667S0
G1 X-0.034Y0.05S0
G1 X1.667S0
G1 X0.176S700
G1 X1.667S0
G1 X-0.027Y0.05S0
G1 X-1.667S0
G1 X-0.183S700
G1 X-1.666S0
G1 X-0.034Y0.05S0
G1 X1.667S0
G1 X0.189S700
G1 X1.666S0
G1 X-0.026Y0.05S0
G1 X-1.667S0
G1 X-0.188S700
G1 X-1.667S0
G1 X-0.024Y0.05S0
G1 X1.667S0
G1 X0.192S700
G1 X1.667S0
G1 X-0.02Y0.05S0
G1 X-1.667S0
G1 X-0.196S700
G1 X-1.667S0
G1 X-0.024Y0.05S0
G1 X1.667S0
G1 X0.2S700
G1 X1.667S0
G1 X-0.02Y0.05S0
G1 X-1.667S0
G1 X-0.204S700
G1 X-1.667S0
G1 X-0.022Y0.05S0
G1 X1.666S0
G1 X0.207S700
G1 X1.667S0
G1 X-0.013Y0.05S0
G1 X-1.666S0
G1 X-0.21S700
G1 X-1.667S0
G1 X-0.016Y0.05S0
G1 X1.667S0
G1 X0.213S700
G1 X1.667S0
G1 X-0.013Y0.05S0
G1 X-1.667S0
G1 X-0.216S700
G1 X-1.666S0
G1 X-0.016Y0.05S0
G1 X1.667S0
G1 X0.219S700
G1 X1.666S0
G1 X-0.013Y0.05S0
G1 X-1.666S0
G1 X-0.218S700
G1 X-1.667S0
G1 X-0.008Y0.05S0
G1 X1.667S0
G1 X0.219S700
G1 X1.666S0
G1 X-0.006Y0.05S0
G1 X-1.666S0
G1 X-0.222S700
G1 X-1.666S0
G1 X-0.009Y0.05S0
G1 X1.667S0
G1 X0.224S700
G1 X1.666S0
G1 X-0.005Y0.05S0
G1 X-1.667S0
G1 X-0.227S700
G1 X-1.666S0
G1 Y0.05S0
G1 X1.663S0
G1 X0.224S700
G1 X1.667S0
G1 Y0.05S0
G1 X-1.67S0
G1 X-0.222S700
G1 X-1.667S0
G1 Y0.05S0
G1 X1.665S0
G1 X0.225S700
G1 X1.666S0
G1 Y0.05S0
G1 X-1.666S0
G1 X-0.226S700
G1 X-1.667S0
G1 Y0.05S0
G1 X1.665S0
G1 X0.229S700
G1 X1.667S0
G1 Y0.05S0
G1 X-1.666S0
G1 X-0.225S700
G1 X-1.666S0
G1 Y0.05S0
G1 X1.671S0
G1 X0.221S700
G1 X1.667S0
G1 X0.007Y0.05S0
G1 X-1.667S0
G1 X-0.223S700
G1 X-1.666S0
G1 Y0.05S0
G1 X1.672S0
G1 X0.225S700
G1 X1.666S0
G1 X0.007Y0.05S0
G1 X-1.666S0
G1 X-0.225S700
G1 X-1.667S0
G1 X0.012Y0.05S0
G1 X1.666S0
G1 X0.221S700
G1 X1.667S0
G1 X0.007Y0.05S0
G1 X-1.667S0
G1 X-0.216S700
G1 X-1.666S0
G1 X0.012Y0.05S0
G1 X1.666S0
G1 X0.217S700
G1 X1.667S0
G1 X0.014Y0.05S0
G1 X-1.667S0
G1 X-0.219S700
G1 X-1.666S0
G1 X0.016Y0.05S0
G1 X1.667S0
G1 X0.216S700
G1 X1.667S0
G1 X0.014Y0.05S0
G1 X-1.667S0
G1 X-0.211S700
G1 X-1.666S0
G1 X0.019Y0.05S0
G1 X1.667S0
G1 X0.205S700
G1 X1.667S0
G1 X0.019Y0.05S0
G1 X-1.667S0
G1 X-0.205S700
G1 X-1.667S0
G1 X0.021Y0.05S0
G1 X1.667S0
G1 X0.206S700
G1 X1.666S0
G1 X0.022Y0.05S0
G1 X-1.667S0
G1 X-0.199S700
G1 X-1.667S0
G1 X0.027Y0.05S0
G1 X1.667S0
G1 X0.193S700
G1 X1.667S0
G1 X0.021Y0.05S0
G1 X-1.666S0
G1 X-0.187S700
G1 X-1.667S0
G1 X0.028Y0.05S0
G1 X1.666S0
G1 X0.187S700
G1 X1.667S0
G1 X0.03Y0.05S0
G1 X-1.667S0
G1 X-0.18S700
G1 X-1.667S0
G1 X0.038Y0.05S0
G1 X1.666S0
G1 X0.173S700
G1 X1.666S0
G1 X0.03Y0.05S0
G1 X-1.667S0
G1 X-0.164S700
G1 X-1.667S0
M9
G1 S0
M5
; return to starting pos
G0 X1.274Y-2.298
M2
