; LightBurn 1.2.01
; GRBL device profile, current position
; Bounds: X-1.64 Y0.05 to X2.25 Y2.3
G00 G17 G40 G21 G54
G91
M4
; Cut @ 4999.998 mm/min, 0% power
M8
G0 X0.345Y0.526
; Layer Lim
G1 X0.1S0F5000
; Scan @ 4000.002 mm/min, 70% power
M8
G0 X-2.083Y-0.478
; Layer C02
G1 X1.666F4000S0
G1 X0.162S700
G1 X1.666S0
G1 X0.034Y0.05S0
G1 X-1.667S0
G1 X-0.165S700
G1 X-1.667S0
G1 X0.03Y0.05S0
G1 X1.666S0
G1 X0.17S700
G1 X1.666S0
G1 X0.034Y0.05S0
G1 X-1.667S0
G1 X-0.173S700
G1 X-1.667S0
G1 X0.029Y0.05S0
G1 X1.667S0
G1 X0.178S700
G1 X1.666S0
G1 X0.025Y0.05S0
G1 X-1.667S0
G1 X-0.18S700
G1 X-1.666S0
G1 X0.02Y0.05S0
G1 X1.667S0
G1 X0.183S700
G1 X1.667S0
G1 X0.024Y0.05S0
G1 X-1.666S0
G1 X-0.188S700
G1 X-1.667S0
G1 X0.021Y0.05S0
G1 X1.666S0
G1 X0.192S700
G1 X1.667S0
G1 X0.024Y0.05S0
G1 X-1.667S0
G1 X-0.195S700
G1 X-1.667S0
G1 X0.018Y0.05S0
G1 X1.667S0
G1 X0.2S700
G1 X1.666S0
G1 X0.016Y0.05S0
G1 X-1.667S0
G1 X-0.203S700
G1 X-1.667S0
G1 X0.013Y0.05S0
G1 X1.666S0
G1 X0.207S700
G1 X1.667S0
G1 X0.015Y0.05S0
G1 X-1.666S0
G1 X-0.21S700
G1 X-1.667S0
G1 X0.013Y0.05S0
G1 X1.666S0
G1 X0.213S700
G1 X1.667S0
G1 X0.012Y0.05S0
G1 X-1.667S0
G1 X-0.212S700
G1 X-1.667S0
G1 X0.007Y0.05S0
G1 X1.667S0
G1 X0.214S700
G1 X1.666S0
G1 X0.009Y0.05S0
G1 X-1.667S0
G1 X-0.217S700
G1 X-1.666S0
G1 Y0.05S0
G1 X1.671S0
G1 X0.221S700
G1 X1.666S0
G1 X0.009Y0.05S0
G1 X-1.667S0
G1 X-0.224S700
G1 X-1.666S0
G1 Y0.05S0
G1 X1.672S0
G1 X0.221S700
G1 X1.667S0
G1 Y0.05S0
G1 X-1.665S0
G1 X-0.218S700
G1 X-1.667S0
G1 Y0.05S0
G1 X1.665S0
G1 X0.221S700
G1 X1.667S0
G1 Y0.05S0
G1 X-1.665S0
G1 X-0.225S700
G1 X-1.666S0
G1 Y0.05S0
G1 X1.664S0
G1 X0.229S700
G1 X1.666S0
G1 Y0.05S0
G1 X-1.672S0
G1 X-0.225S700
G1 X-1.666S0
G1 Y0.05S0
G1 X1.664S0
G1 X0.222S700
G1 X1.667S0
G1 X-0.005Y0.05S0
G1 X-1.667S0
G1 X-0.219S700
G1 X-1.667S0
G1 X-0.009Y0.05S0
G1 X1.666S0
G1 X0.224S700
G1 X1.667S0
G1 X-0.007Y0.05S0
G1 X-1.667S0
G1 X-0.226S700
G1 X-1.666S0
G1 X-0.01Y0.05S0
G1 X1.667S0
G1 X0.223S700
G1 X1.667S0
G1 X-0.012Y0.05S0
G1 X-1.667S0
G1 X-0.22S700
G1 X-1.667S0
G1 X-0.009Y0.05S0
G1 X1.667S0
G1 X0.217S700
G1 X1.667S0
G1 X-0.012Y0.05S0
G1 X-1.667S0
G1 X-0.217S700
G1 X-1.667S0
G1 X-0.017Y0.05S0
G1 X1.667S0
G1 X0.218S700
G1 X1.666S0
G1 X-0.019Y0.05S0
G1 X-1.667S0
G1 X-0.215S700
G1 X-1.667S0
G1 X-0.017Y0.05S0
G1 X1.667S0
G1 X0.213S700
G1 X1.667S0
G1 X-0.02Y0.05S0
G1 X-1.666S0
G1 X-0.211S700
G1 X-1.667S0
G1 X-0.016Y0.05S0
G1 X1.666S0
G1 X0.207S700
G1 X1.667S0
G1 X-0.028Y0.05S0
G1 X-1.667S0
G1 X-0.202S700
G1 X-1.667S0
G1 X-0.025Y0.05S0
G1 X1.666S0
G1 X0.201S700
G1 X1.666S0
G1 X-0.027Y0.05S0
G1 X-1.667S0
G1 X-0.198S700
G1 X-1.667S0
G1 X-0.025Y0.05S0
G1 X1.666S0
G1 X0.197S700
G1 X1.666S0
G1 X-0.037Y0.05S0
G1 X-1.666S0
G1 X-0.185S700
G1 X-1.667S0
G1 X-0.027Y0.05S0
G1 X1.667S0
G1 X0.175S700
G1 X1.666S0
G1 X-0.037Y0.05S0
G1 X-1.667S0
G1 X-0.166S700
G1 X-1.666S0
M9
G1 S0
M5
; return to starting pos
G0 X1.639Y-2.298
M2
