; LightBurn 1.2.01
; GRBL device profile, current position
; Bounds: X-1.67 Y0 to X2.47 Y1.81
G00 G17 G40 G21 G54
G91
M4
; Cut @ 4999.998 mm/min, 0% power
M8
G0 X0.418Y0
; Layer Lim
G1 X0.1S0F5000
; Scan @ 4000.002 mm/min, 70% power
M8
G0 X-1.952Y1.064
; Layer C02
G1 X1.667F4000S0
G1 X0.012S700
G1 X0.318S0
G1 X0.012S700
G1 X1.666S0
G1 X0.071Y0.05S0
G1 X-1.667S0
G1 X-0.116S700
G1 X-0.252S0
G1 X-0.114S700
G1 X-1.666S0
G1 X-0.066Y0.05S0
G1 X1.667S0
G1 X0.212S700
G1 X0.185S0
G1 X0.216S700
G1 X1.667S0
G1 X-0.042Y0.05S0
G1 X-1.667S0
G1 X-0.205S700
G1 X-0.124S0
G1 X-0.201S700
G1 X-1.667S0
G1 X0.041Y0.05S0
G1 X1.667S0
G1 X0.188S700
G1 X0.066S0
G1 X0.193S700
G1 X1.667S0
G1 X-0.047Y0.05S0
G1 X-1.666S0
G1 X-0.178S700
G1 X-0.178
G1 X-1.667S0
G1 X0.046Y0.05S0
G1 X1.666S0
G1 X0.262S700
G1 X1.666S0
G1 X0.096Y0.05S0
G1 X-1.667S0
G1 X-0.427S700
G1 X-1.667S0
G1 X-0.199Y0.05S0
G1 X1.667S0
G1 X0.805S700
G1 X1.667S0
G1 X-0.016Y0.05S0
G1 X-1.667S0
G1 X-0.773S700
G1 X-1.667S0
G1 X0.017Y0.05S0
G1 X1.666S0
G1 X0.205S700
G1 X0.096S0
G1 X0.134S700
G1 X0.098S0
G1 X0.208S700
G1 X1.667S0
G1 X-0.017Y0.05S0
G1 X-1.666S0
G1 X-0.063S700
G1 X-0.221S0
G1 X-0.145S700
G1 X-0.219S0
G1 X-0.06S700
G1 X-1.667S0
G1 X0.274Y0.05S0
G1 X1.666S0
G1 X0.157S700
G1 X1.666S0
G1 Y0.05S0
G1 X-1.662S0
G1 X-0.164S700
G1 X-1.666S0
G1 Y0.05S0
G1 X1.663S0
G1 X0.17S700
G1 X1.667S0
G1 Y0.05S0
G1 X-1.664S0
G1 X-0.176S700
G1 X-1.667S0
M9
G1 S0
M5
; return to starting pos
G0 X1.353Y-1.814
M2
