; LightBurn 1.2.01
; GRBL device profile, current position
; Bounds: X-1.66 Y0.03 to X1.93 Y0.58
G00 G17 G40 G21 G54
G91
M4
; Cut @ 4999.998 mm/min, 0% power
M8
G0 X0.289Y0.354
; Layer Lim
G1 X0.1S0F5000
; Scan @ 4000.002 mm/min, 70% power
M8
G0 X-2.012Y-0.327
; Layer C02
G1 X1.666F4000S0
G1 X0.063S700
G1 X1.667S0
G1 X0.064Y0.05S0
G1 X-1.666S0
G1 X-0.16S700
G1 X-1.667S0
G1 X0.043Y0.05S0
G1 X1.666S0
G1 X0.16S700
G1 X1.666S0
G1 X0.014Y0.05S0
G1 X-1.667S0
G1 X-0.137S700
G1 X-1.666S0
G1 X0.032Y0.05S0
G1 X1.666S0
G1 X0.116S700
G1 X1.667S0
G1 X0.011Y0.05S0
G1 X-1.667S0
G1 X-0.117S700
G1 X-1.667S0
G1 X0.006Y0.05S0
G1 X1.666S0
G1 X0.123S700
G1 X1.667S0
G1 X0.008Y0.05S0
G1 X-1.667S0
G1 X-0.252S700
G1 X-1.667S0
G1 Y0.05S0
G1 X1.667S0
G1 X0.252S700
G1 X1.667S0
G1 Y0.05S0
G1 X-1.668S0
G1 X-0.251S700
G1 X-1.667S0
G1 Y0.05S0
G1 X1.667S0
G1 X0.251S700
G1 X1.666S0
G1 Y0.05S0
G1 X-1.667S0
G1 X-0.25S700
G1 X-1.667S0
M9
G1 S0
M5
; return to starting pos
G0 X1.652Y-0.577
M2
