; LightBurn 1.2.01
; GRBL device profile, current position
; Bounds: X-1.67 Y0 to X2.32 Y1.75
G00 G17 G40 G21 G54
G91
M4
; Cut @ 4999.998 mm/min, 0% power
M8
G0 X0.382Y0
; Layer Lim
G1 X0.1S0F5000
; Scan @ 4000.002 mm/min, 70% power
M8
G0 X-2.095Y1.198
; Layer C02
G1 X1.666F4000S0
G1 X0.149S700
G1 X0.255S0
G1 X0.147S700
G1 X1.667S0
G1 X0.009Y0.05S0
G1 X-1.667S0
G1 X-0.165S700
G1 X-0.238S0
G1 X-0.166S700
G1 X-1.667S0
G1 X-0.009Y0.05S0
G1 X1.667S0
G1 X0.183S700
G1 X0.221S0
G1 X0.182S700
G1 X1.667S0
G1 X0.009Y0.05S0
G1 X-1.667S0
G1 X-0.2S700
G1 X-0.204S0
G1 X-0.201S700
G1 X-1.666S0
G1 X-0.01Y0.05S0
G1 X1.667S0
G1 X0.218S700
G1 X0.187S0
G1 X0.218S700
G1 X1.666S0
G1 X0.009Y0.05S0
G1 X-1.667S0
G1 X-0.235S700
G1 X-0.17S0
G1 X-0.235S700
G1 X-1.667S0
G1 Y0.05S0
G1 X1.662S0
G1 X0.248S700
G1 X0.157S0
G1 X0.249S700
G1 X1.666S0
G1 Y0.05S0
G1 X-1.666S0
G1 X-0.249S700
G1 X-0.157S0
G1 X-0.248S700
G1 X-1.667S0
G1 Y0.05S0
G1 X1.666S0
G1 X0.249S700
G1 X0.157S0
G1 X0.249S700
G1 X1.666S0
G1 Y0.05S0
G1 X-1.666S0
G1 X-0.25S700
G1 X-0.156S0
G1 X-0.249S700
G1 X-1.667S0
G1 Y0.05S0
G1 X1.667S0
G1 X0.249S700
G1 X0.156S0
G1 X0.25S700
G1 X1.666S0
G1 Y0.05S0
G1 X-1.666S0
G1 X-0.25S700
G1 X-0.156S0
G1 X-0.25S700
G1 X-1.666S0
M9
G1 S0
M5
; return to starting pos
G0 X1.666Y-1.748
M2
