; LightBurn 1.2.01
; GRBL device profile, current position
; Bounds: X-1.67 Y0.03 to X2.84 Y1.79
G00 G17 G40 G21 G54
G91
M4
; Cut @ 4999.998 mm/min, 0% power
M8
G0 X0.397Y0.028
; Layer Lim
G1 X0.5S0F5000
; Scan @ 4000.002 mm/min, 70% power
M8
G0 X-2.18Y0.012
; Layer C02
G1 X1.666F4000S0
G1 X0.391S700
G1 X1.667S0
G1 X0.103Y0.05S0
G1 X-1.666S0
G1 X-0.585S700
G1 X-1.667S0
G1 X-0.065Y0.05S0
G1 X1.667S0
G1 X0.711S700
G1 X1.667S0
G1 X0.057Y0.05S0
G1 X-1.667S0
G1 X-0.345S700
G1 X-0.14S0
G1 X-0.329S700
G1 X-1.667S0
G1 X-0.032Y0.05S0
G1 X1.667S0
G1 X0.27S700
G1 X0.342S0
G1 X0.267S700
G1 X1.667S0
G1 X0.032Y0.05S0
G1 X-1.667S0
G1 X-0.248S700
G1 X-0.446S0
G1 X-0.249S700
G1 X-1.666S0
G1 X-0.023Y0.05S0
G1 X1.667S0
G1 X0.228S700
G1 X0.523S0
G1 X0.244S700
G1 X1.666S0
G1 X0.013Y0.05S0
G1 X-1.666S0
G1 X-0.242S700
G1 X-0.564S0
G1 X-0.216S700
G1 X-1.667S0
G1 X-0.014Y0.05S0
G1 X1.666S0
G1 X0.209S700
G1 X0.601S0
G1 X0.24S700
G1 X1.667S0
G1 X0.013Y0.05S0
G1 X-1.667S0
G1 X-0.238S700
G1 X-0.626S0
G1 X-0.213S700
G1 X-1.667S0
G1 X-0.012Y0.05S0
G1 X1.666S0
G1 X0.217S700
G1 X0.65S0
G1 X0.233S700
G1 X1.667S0
G1 X0.007Y0.05S0
G1 X-1.666S0
G1 X-0.23S700
G1 X-0.668S0
G1 X-0.218S700
G1 X-1.666S0
G1 X-0.008Y0.05S0
G1 X1.667S0
G1 X0.218S700
G1 X0.682S0
G1 X0.23S700
G1 X1.667S0
G1 X0.008Y0.05S0
G1 X-1.667S0
G1 X-0.23S700
G1 X-0.697S0
G1 X-0.219S700
G1 X-1.667S0
G1 X-0.008Y0.05S0
G1 X1.667S0
G1 X0.221S700
G1 X0.711S0
G1 X0.23S700
G1 X1.666S0
G1 X0.007Y0.05S0
G1 X-1.666S0
G1 X-0.23S700
G1 X-0.725S0
G1 X-0.217S700
G1 X-1.667S0
G1 Y0.05S0
G1 X1.665S0
G1 X0.22S700
G1 X0.726S0
G1 X0.227S700
G1 X1.666S0
G1 Y0.05S0
G1 X-1.667S0
G1 X-0.226S700
G1 X-0.725S0
G1 X-0.222S700
G1 X-1.667S0
G1 Y0.05S0
G1 X1.665S0
G1 X0.225S700
G1 X0.725S0
G1 X0.224S700
G1 X1.666S0
G1 Y0.05S0
G1 X-1.667S0
G1 X-0.223S700
G1 X-0.725S0
G1 X-0.225S700
G1 X-1.666S0
G1 Y0.05S0
G1 X1.671S0
G1 X0.222S700
G1 X0.723S0
G1 X0.222S700
G1 X1.666S0
G1 X-0.005Y0.05S0
G1 X-1.667S0
G1 X-0.222S700
G1 X-0.709S0
G1 X-0.225S700
G1 X-1.667S0
G1 Y0.05S0
G1 X1.671S0
G1 X0.229S700
G1 X0.694S0
G1 X0.22S700
G1 X1.666S0
G1 X-0.009Y0.05S0
G1 X-1.667S0
G1 X-0.217S700
G1 X-0.678S0
G1 X-0.233S700
G1 X-1.667S0
G1 X0.007Y0.05S0
G1 X1.666S0
G1 X0.235S700
G1 X0.664S0
G1 X0.213S700
G1 X1.667S0
G1 X-0.01Y0.05S0
G1 X-1.666S0
G1 X-0.212S700
G1 X-0.646S0
G1 X-0.238S700
G1 X-1.666S0
G1 X0.007Y0.05S0
G1 X1.667S0
G1 X0.246S700
G1 X0.621S0
G1 X0.211S700
G1 X1.666S0
G1 X-0.019Y0.05S0
G1 X-1.666S0
G1 X-0.202S700
G1 X-0.595S0
G1 X-0.254S700
G1 X-1.667S0
G1 X0.023Y0.05S0
G1 X1.667S0
G1 X0.247S700
G1 X0.555S0
G1 X0.207S700
G1 X1.666S0
G1 X-0.019Y0.05S0
G1 X-1.666S0
G1 X-0.215S700
G1 X-0.512S0
G1 X-0.24S700
G1 X-1.667S0
G1 X0.023Y0.05S0
G1 X1.667S0
G1 X0.248S700
G1 X0.435S0
G1 X0.242S700
G1 X1.666S0
G1 X-0.018Y0.05S0
G1 X-1.667S0
G1 X-0.282S700
G1 X-0.323S0
G1 X-0.264S700
G1 X-1.667S0
G1 X0.043Y0.05S0
G1 X1.667S0
G1 X0.352S700
G1 X0.056S0
G1 X0.376S700
G1 X1.666S0
G1 X-0.048Y0.05S0
G1 X-1.666S0
G1 X-0.692S700
G1 X-1.667S0
G1 X0.074Y0.05S0
G1 X1.666S0
G1 X0.557S700
G1 X1.666S0
G1 X-0.097Y0.05S0
G1 X-1.666S0
G1 X-0.381S700
G1 X-1.667S0
M9
G1 S0
M5
; return to starting pos
G0 X1.273Y-1.79
M2
