; LightBurn 1.2.01
; GRBL device profile, current position
; Bounds: X-1.67 Y0 to X2.33 Y1.77
G00 G17 G40 G21 G54
G91
M4
; Cut @ 4999.998 mm/min, 0% power
M8
G0 X0.224Y0
; Layer Lim
G1 X0.5S0F5000
; Scan @ 4000.002 mm/min, 70% power
M8
G0 X-1.951Y0.023
; Layer C02
G1 X1.667F4000S0
G1 X0.219S700
G1 X1.667S0
G1 Y0.05S0
G1 X-1.667S0
G1 X-0.219S700
G1 X-1.667S0
G1 Y0.05S0
G1 X1.667S0
G1 X0.219S700
G1 X1.667S0
G1 Y0.05S0
G1 X-1.667S0
G1 X-0.219S700
G1 X-1.667S0
G1 Y0.05S0
G1 X1.667S0
G1 X0.219S700
G1 X1.667S0
G1 Y0.05S0
G1 X-1.667S0
G1 X-0.219S700
G1 X-1.667S0
G1 Y0.05S0
G1 X1.667S0
G1 X0.219S700
G1 X1.667S0
G1 Y0.05S0
G1 X-1.667S0
G1 X-0.219S700
G1 X-1.667S0
G1 Y0.05S0
G1 X1.667S0
G1 X0.219S700
G1 X1.667S0
G1 Y0.05S0
G1 X-1.667S0
G1 X-0.219S700
G1 X-1.667S0
G1 Y0.05S0
G1 X1.667S0
G1 X0.219S700
G1 X1.667S0
G1 Y0.05S0
G1 X-1.667S0
G1 X-0.219S700
G1 X-1.667S0
G1 Y0.05S0
G1 X1.667S0
G1 X0.219S700
G1 X1.667S0
G1 Y0.05S0
G1 X-1.667S0
G1 X-0.219S700
G1 X-1.667S0
G1 Y0.05S0
G1 X1.667S0
G1 X0.219S700
G1 X1.667S0
G1 Y0.05S0
G1 X-1.667S0
G1 X-0.219S700
G1 X-1.667S0
G1 Y0.05S0
G1 X1.667S0
G1 X0.219S700
G1 X1.667S0
G1 Y0.05S0
G1 X-1.667S0
G1 X-0.219S700
G1 X-1.667S0
G1 Y0.05S0
G1 X1.667S0
G1 X0.219S700
G1 X1.667S0
G1 Y0.05S0
G1 X-1.667S0
G1 X-0.219S700
G1 X-1.667S0
G1 Y0.05S0
G1 X1.667S0
G1 X0.219S700
G1 X1.667S0
G1 Y0.05S0
G1 X-1.667S0
G1 X-0.219S700
G1 X-1.667S0
G1 Y0.05S0
G1 X1.667S0
G1 X0.219S700
G1 X1.667S0
G1 Y0.05S0
G1 X-1.667S0
G1 X-0.219S700
G1 X-0.362S0
G1 X-0.078S700
G1 X-1.667S0
G1 Y0.05S0
G1 X1.667S0
G1 X0.18S700
G1 X0.26S0
G1 X0.219S700
G1 X1.667S0
G1 Y0.05S0
G1 X-1.667S0
G1 X-0.219S700
G1 X-0.174S0
G1 X-0.266S700
G1 X-1.667S0
G1 Y0.05S0
G1 X1.667S0
G1 X0.334S700
G1 X0.106S0
G1 X0.219S700
G1 X1.667S0
G1 Y0.05S0
G1 X-1.667S0
G1 X-0.219S700
G1 X-0.037S0
G1 X-0.36S700
G1 X-1.666S0
G1 X0.084Y0.05S0
G1 X1.666S0
G1 X0.532S700
G1 X1.667S0
G1 Y0.05S0
G1 X-1.667S0
G1 X-0.448S700
G1 X-1.666S0
G1 X0.063Y0.05S0
G1 X1.666S0
G1 X0.385S700
G1 X1.667S0
G1 Y0.05S0
G1 X-1.667S0
G1 X-0.331S700
G1 X-1.667S0
G1 X0.053Y0.05S0
G1 X1.667S0
G1 X0.278S700
G1 X1.667S0
G1 Y0.05S0
G1 X-1.667S0
G1 X-0.225S700
G1 X-1.666S0
G1 X0.035Y0.05S0
G1 X1.666S0
G1 X0.19S700
G1 X1.667S0
G1 Y0.05S0
G1 X-1.667S0
G1 X-0.157S700
G1 X-1.666S0
M9
G1 S0
M5
; return to starting pos
G0 X1.164Y-1.773
M2
