; LightBurn 1.2.01
; GRBL device profile, current position
; Bounds: X-1.66 Y0 to X2.85 Y1.77
G00 G17 G40 G21 G54
G91
M4
; Cut @ 4999.998 mm/min, 0% power
M8
G0 X0.421Y0
; Layer Lim
G1 X0.5S0F5000
; Scan @ 4000.002 mm/min, 70% power
M8
G0 X-2.584Y0.025
; Layer C02
G1 X1.666F4000S0
G1 X1.18S700
G1 X1.667S0
G1 Y0.05S0
G1 X-1.667S0
G1 X-1.173S700
G1 X-1.667S0
G1 X0.01Y0.05S0
G1 X1.666S0
G1 X1.164S700
G1 X1.667S0
G1 Y0.05S0
G1 X-1.667S0
G1 X-1.147S700
G1 X-1.667S0
G1 X0.019Y0.05S0
G1 X1.667S0
G1 X0.259S700
G1 X1.667S0
G1 X0.036Y0.05S0
G1 X-1.666S0
G1 X-0.268S700
G1 X-1.667S0
G1 X0.033Y0.05S0
G1 X1.666S0
G1 X0.288S700
G1 X1.667S0
G1 X0.052Y0.05S0
G1 X-1.667S0
G1 X-0.298S700
G1 X-1.667S0
G1 X0.046Y0.05S0
G1 X1.667S0
G1 X0.305S700
G1 X1.666S0
G1 X0.053Y0.05S0
G1 X-1.667S0
G1 X-0.309S700
G1 X-1.667S0
G1 X0.05Y0.05S0
G1 X1.667S0
G1 X0.311S700
G1 X1.667S0
G1 X0.055Y0.05S0
G1 X-1.667S0
G1 X-0.309S700
G1 X-1.666S0
G1 X0.057Y0.05S0
G1 X1.667S0
G1 X0.308S700
G1 X1.667S0
G1 X0.056Y0.05S0
G1 X-1.666S0
G1 X-0.307S700
G1 X-1.667S0
G1 X0.057Y0.05S0
G1 X1.667S0
G1 X0.306S700
G1 X1.667S0
G1 X0.057Y0.05S0
G1 X-1.667S0
G1 X-0.306S700
G1 X-1.667S0
G1 X0.057Y0.05S0
G1 X1.666S0
G1 X0.304S700
G1 X1.666S0
G1 X0.048Y0.05S0
G1 X-1.667S0
G1 X-0.294S700
G1 X-1.667S0
G1 X0.053Y0.05S0
G1 X1.667S0
G1 X0.289S700
G1 X1.666S0
G1 X0.04Y0.05S0
G1 X-1.667S0
G1 X-0.279S700
G1 X-1.667S0
G1 X0.036Y0.05S0
G1 X1.667S0
G1 X0.274S700
G1 X1.667S0
G1 X0.023Y0.05S0
G1 X-1.666S0
G1 X-0.264S700
G1 X-1.667S0
G1 X0.024Y0.05S0
G1 X1.667S0
G1 X0.258S700
G1 X1.667S0
G1 X0.012Y0.05S0
G1 X-1.667S0
G1 X-0.247S700
G1 X-1.667S0
G1 X0.015Y0.05S0
G1 X1.666S0
G1 X0.241S700
G1 X1.667S0
G1 Y0.05S0
G1 X-1.664S0
G1 X-0.231S700
G1 X-0.678S0
G1 X-0.182S700
G1 X-1.667S0
G1 X-0.039Y0.05S0
G1 X1.667S0
G1 X0.225S700
G1 X0.678S0
G1 X0.225S700
G1 X1.667S0
G1 X-0.005Y0.05S0
G1 X-1.667S0
G1 X-0.231S700
G1 X-0.653S0
G1 X-0.233S700
G1 X-1.666S0
G1 X0.014Y0.05S0
G1 X1.667S0
G1 X0.235S700
G1 X0.625S0
G1 X0.229S700
G1 X1.667S0
G1 X-0.015Y0.05S0
G1 X-1.667S0
G1 X-0.248S700
G1 X-0.562S0
G1 X-0.247S700
G1 X-1.667S0
G1 X0.026Y0.05S0
G1 X1.666S0
G1 X0.264S700
G1 X0.484S0
G1 X0.26S700
G1 X1.667S0
G1 X-0.027Y0.05S0
G1 X-1.667S0
G1 X-0.309S700
G1 X-0.334S0
G1 X-0.309S700
G1 X-1.667S0
G1 X0.041Y0.05S0
G1 X1.667S0
G1 X0.872S700
G1 X1.667S0
G1 X-0.06Y0.05S0
G1 X-1.667S0
G1 X-0.758S700
G1 X-1.666S0
G1 X0.095Y0.05S0
G1 X1.667S0
G1 X0.573S700
G1 X1.666S0
G1 X-0.14Y0.05S0
G1 X-1.666S0
G1 X-0.302S700
G1 X-1.667S0
M9
G1 S0
M5
; return to starting pos
G0 X1.205Y-1.775
M2
