; LightBurn 1.2.01
; GRBL device profile, current position
; Bounds: X-1.66 Y0.03 to X2.83 Y1.79
G00 G17 G40 G21 G54
G91
M4
; Cut @ 4999.998 mm/min, 0% power
M8
G0 X0.391Y0.03
; Layer Lim
G1 X0.5S0F5000
; Scan @ 4000.002 mm/min, 70% power
M8
G0 X-2.21Y0.007
; Layer C02
G1 X1.666F4000S0
G1 X0.457S700
G1 X1.667S0
G1 X0.104Y0.05S0
G1 X-1.666S0
G1 X-0.655S700
G1 X-1.666S0
G1 X-0.068Y0.05S0
G1 X1.667S0
G1 X0.794S700
G1 X1.667S0
G1 X0.049Y0.05S0
G1 X-1.667S0
G1 X-0.385S700
G1 X-0.136S0
G1 X-0.373S700
G1 X-1.666S0
G1 X-0.041Y0.05S0
G1 X1.667S0
G1 X0.294S700
G1 X0.373S0
G1 X0.31S700
G1 X1.666S0
G1 X0.028Y0.05S0
G1 X-1.667S0
G1 X-0.279S700
G1 X-0.493S0
G1 X-0.26S700
G1 X-1.667S0
G1 X-0.027Y0.05S0
G1 X1.667S0
G1 X0.253S700
G1 X0.576S0
G1 X0.258S700
G1 X1.666S0
G1 X0.016Y0.05S0
G1 X-1.666S0
G1 X-0.248S700
G1 X-0.63S0
G1 X-0.241S700
G1 X-1.666S0
G1 X-0.011Y0.05S0
G1 X1.666S0
G1 X0.236S700
G1 X0.666S0
G1 X0.239S700
G1 X1.667S0
G1 X0.012Y0.05S0
G1 X-1.667S0
G1 X-0.233S700
G1 X-0.7S0
G1 X-0.231S700
G1 X-1.666S0
G1 X0.93Y0.05S0
G1 X1.667S0
G1 X0.233S700
G1 X1.667S0
G1 Y0.05S0
G1 X-1.669S0
G1 X-0.232S700
G1 X-1.666S0
G1 X-0.005Y0.05S0
G1 X1.666S0
G1 X0.235S700
G1 X1.666S0
G1 X-0.015Y0.05S0
G1 X-1.667S0
G1 X-0.239S700
G1 X-1.667S0
G1 X-0.021Y0.05S0
G1 X1.667S0
G1 X0.244S700
G1 X1.666S0
G1 X-0.019Y0.05S0
G1 X-1.667S0
G1 X-0.265S700
G1 X-1.667S0
G1 X-0.051Y0.05S0
G1 X1.667S0
G1 X0.283S700
G1 X1.667S0
G1 X-0.034Y0.05S0
G1 X-1.666S0
G1 X-0.359S700
G1 X-0.208S0
G1 X-0.043S700
G1 X-1.667S0
G1 X0.006Y0.05S0
G1 X1.667S0
G1 X0.54S700
G1 X1.667S0
G1 X-0.108Y0.05S0
G1 X-1.666S0
G1 X-0.427S700
G1 X-1.666S0
G1 X0.006Y0.05S0
G1 X1.667S0
G1 X0.445S700
G1 X1.666S0
G1 X0.064Y0.05S0
G1 X-1.667S0
G1 X-0.32S700
G1 X-1.667S0
G1 X0.094Y0.05S0
G1 X1.667S0
G1 X0.266S700
G1 X1.667S0
G1 X0.037Y0.05S0
G1 X-1.667S0
G1 X-0.248S700
G1 X-1.667S0
G1 X0.03Y0.05S0
G1 X1.667S0
G1 X0.234S700
G1 X1.667S0
G1 X0.016Y0.05S0
G1 X-1.666S0
G1 X-0.225S700
G1 X-1.667S0
G1 X-0.675Y0.05S0
G1 X1.666S0
G1 X0.075S700
G1 X0.609S0
G1 X0.225S700
G1 X1.667S0
G1 Y0.05S0
G1 X-1.669S0
G1 X-0.22S700
G1 X-0.598S0
G1 X-0.232S700
G1 X-1.667S0
G1 X0.013Y0.05S0
G1 X1.666S0
G1 X0.234S700
G1 X0.573S0
G1 X0.229S700
G1 X1.667S0
G1 X-0.013Y0.05S0
G1 X-1.667S0
G1 X-0.231S700
G1 X-0.535S0
G1 X-0.243S700
G1 X-1.666S0
G1 X0.025Y0.05S0
G1 X1.667S0
G1 X0.252S700
G1 X0.465S0
G1 X0.245S700
G1 X1.667S0
G1 X-0.021Y0.05S0
G1 X-1.667S0
G1 X-0.274S700
G1 X-0.36S0
G1 X-0.282S700
G1 X-1.667S0
G1 X0.04Y0.05S0
G1 X1.667S0
G1 X0.356S700
G1 X0.128S0
G1 X0.343S700
G1 X1.667S0
G1 X-0.053Y0.05S0
G1 X-1.666S0
G1 X-0.732S700
G1 X-1.667S0
G1 X0.065Y0.05S0
G1 X1.667S0
G1 X0.613S700
G1 X1.667S0
G1 X-0.119Y0.05S0
G1 X-1.667S0
G1 X-0.38S700
G1 X-1.667S0
M9
G1 S0
M5
; return to starting pos
G0 X1.3Y-1.787
M2
