; LightBurn 1.2.01
; GRBL device profile, current position
; Bounds: X-1.67 Y0 to X2.9 Y1.77
G00 G17 G40 G21 G54
G91
M4
; Cut @ 4999.998 mm/min, 0% power
M8
G0 X0.465Y0
; Layer Lim
G1 X0.5S0F5000
; Scan @ 4000.002 mm/min, 70% power
M8
G0 X-1.855Y0.02
; Layer C02
G1 X1.667F4000S0
G1 X0.219S700
G1 X1.667S0
G1 Y0.05S0
G1 X-1.667S0
G1 X-0.219S700
G1 X-1.667S0
G1 Y0.05S0
G1 X1.667S0
G1 X0.219S700
G1 X1.667S0
G1 Y0.05S0
G1 X-1.667S0
G1 X-0.219S700
G1 X-1.667S0
G1 Y0.05S0
G1 X1.667S0
G1 X0.219S700
G1 X1.667S0
G1 Y0.05S0
G1 X-1.667S0
G1 X-0.219S700
G1 X-1.667S0
G1 Y0.05S0
G1 X1.667S0
G1 X0.219S700
G1 X1.667S0
G1 Y0.05S0
G1 X-1.667S0
G1 X-0.219S700
G1 X-1.667S0
G1 Y0.05S0
G1 X1.667S0
G1 X0.219S700
G1 X1.667S0
G1 X0.242Y0.05S0
G1 X-1.667S0
G1 X-1.238S700
G1 X-1.667S0
G1 Y0.05S0
G1 X1.667S0
G1 X1.238S700
G1 X1.667S0
G1 Y0.05S0
G1 X-1.667S0
G1 X-1.238S700
G1 X-1.667S0
G1 Y0.05S0
G1 X1.667S0
G1 X1.238S700
G1 X1.667S0
G1 X-0.242Y0.05S0
G1 X-1.667S0
G1 X-0.219S700
G1 X-0.534S0
G1 X-0.215S700
G1 X-1.667S0
G1 X0.035Y0.05S0
G1 X1.667S0
G1 X0.215S700
G1 X0.499S0
G1 X0.219S700
G1 X1.667S0
G1 Y0.05S0
G1 X-1.667S0
G1 X-0.219S700
G1 X-0.464S0
G1 X-0.215S700
G1 X-1.666S0
G1 X0.035Y0.05S0
G1 X1.667S0
G1 X0.214S700
G1 X0.429S0
G1 X0.219S700
G1 X1.667S0
G1 Y0.05S0
G1 X-1.667S0
G1 X-0.219S700
G1 X-0.395S0
G1 X-0.213S700
G1 X-1.667S0
G1 X0.035Y0.05S0
G1 X1.667S0
G1 X0.213S700
G1 X0.36S0
G1 X0.219S700
G1 X1.667S0
G1 Y0.05S0
G1 X-1.667S0
G1 X-0.219S700
G1 X-0.325S0
G1 X-0.213S700
G1 X-1.666S0
G1 X0.035Y0.05S0
G1 X1.667S0
G1 X0.212S700
G1 X0.29S0
G1 X0.219S700
G1 X1.667S0
G1 Y0.05S0
G1 X-1.667S0
G1 X-0.219S700
G1 X-0.256S0
G1 X-0.211S700
G1 X-1.667S0
G1 X0.035Y0.05S0
G1 X1.667S0
G1 X0.211S700
G1 X0.221S0
G1 X0.219S700
G1 X1.667S0
G1 Y0.05S0
G1 X-1.667S0
G1 X-0.219S700
G1 X-0.186S0
G1 X-0.211S700
G1 X-1.666S0
G1 X0.035Y0.05S0
G1 X1.666S0
G1 X0.211S700
G1 X0.151S0
G1 X0.219S700
G1 X1.667S0
G1 Y0.05S0
G1 X-1.667S0
G1 X-0.219S700
G1 X-0.117S0
G1 X-0.209S700
G1 X-1.667S0
G1 X0.035Y0.05S0
G1 X1.667S0
G1 X0.209S700
G1 X0.082S0
G1 X0.219S700
G1 X1.667S0
G1 Y0.05S0
G1 X-1.667S0
G1 X-0.219S700
G1 X-0.047S0
G1 X-0.209S700
G1 X-1.667S0
G1 X0.036Y0.05S0
G1 X1.666S0
G1 X0.209S700
G1 X0.012S0
G1 X0.219S700
G1 X1.667S0
G1 Y0.05S0
G1 X-1.667S0
G1 X-0.404S700
G1 X-1.667S0
G1 X0.035Y0.05S0
G1 X1.667S0
G1 X0.369S700
G1 X1.667S0
G1 Y0.05S0
G1 X-1.667S0
G1 X-0.334S700
G1 X-1.667S0
G1 X0.036Y0.05S0
G1 X1.666S0
G1 X0.299S700
G1 X1.667S0
G1 Y0.05S0
G1 X-1.667S0
G1 X-0.264S700
G1 X-1.666S0
G1 X0.035Y0.05S0
G1 X1.667S0
G1 X0.228S700
G1 X1.667S0
G1 Y0.05S0
G1 X-1.667S0
G1 X-0.193S700
G1 X-1.667S0
M9
G1 S0
M5
; return to starting pos
G0 X0.864Y-1.77
M2
