; LightBurn 1.2.01
; GRBL device profile, current position
; Bounds: X-1.66 Y0.02 to X2.86 Y1.77
G00 G17 G40 G21 G54
G91
M4
; Cut @ 4999.998 mm/min, 0% power
M8
G0 X0.392Y0.029
; Layer Lim
G1 X0.5S0F5000
; Scan @ 4000.002 mm/min, 70% power
M8
G0 X-2.146Y-0.007
; Layer C02
G1 X1.666F4000S0
G1 X0.328S700
G1 X1.666S0
G1 X0.122Y0.05S0
G1 X-1.667S0
G1 X-0.583S700
G1 X-1.667S0
G1 X-0.08Y0.05S0
G1 X1.666S0
G1 X0.744S700
G1 X1.667S0
G1 X0.056Y0.05S0
G1 X-1.666S0
G1 X-0.852S700
G1 X-1.666S0
G1 X-0.046Y0.05S0
G1 X1.666S0
G1 X0.318S700
G1 X0.323S0
G1 X0.313S700
G1 X1.667S0
G1 X0.029Y0.05S0
G1 X-1.667S0
G1 X-0.272S700
G1 X-0.461S0
G1 X-0.277S700
G1 X-1.667S0
G1 X-0.028Y0.05S0
G1 X1.667S0
G1 X0.259S700
G1 X0.553S0
G1 X0.255S700
G1 X1.666S0
G1 X0.029Y0.05S0
G1 X-1.667S0
G1 X-0.255S700
G1 X-0.61S0
G1 X-0.248S700
G1 X-1.667S0
G1 X-0.011Y0.05S0
G1 X1.667S0
G1 X0.235S700
G1 X0.663S0
G1 X0.245S700
G1 X1.667S0
G1 X0.009Y0.05S0
G1 X-1.667S0
G1 X-0.236S700
G1 X-0.692S0
G1 X-0.235S700
G1 X-1.666S0
G1 X0.935Y0.05S0
G1 X1.666S0
G1 X0.238S700
G1 X1.667S0
G1 X0.009Y0.05S0
G1 X-1.667S0
G1 X-0.238S700
G1 X-1.666S0
G1 Y0.05S0
G1 X1.669S0
G1 X0.237S700
G1 X1.667S0
G1 X-0.007Y0.05S0
G1 X-1.667S0
G1 X-0.238S700
G1 X-1.666S0
G1 X-0.009Y0.05S0
G1 X1.667S0
G1 X0.239S700
G1 X1.666S0
G1 X-0.007Y0.05S0
G1 X-1.667S0
G1 X-0.241S700
G1 X-1.667S0
G1 X-0.028Y0.05S0
G1 X1.667S0
G1 X0.255S700
G1 X1.667S0
G1 X-0.026Y0.05S0
G1 X-1.667S0
G1 X-0.257S700
G1 X-0.605S0
G1 X-0.2S700
G1 X-1.667S0
G1 X-0.017Y0.05S0
G1 X1.667S0
G1 X0.262S700
G1 X0.524S0
G1 X0.268S700
G1 X1.666S0
G1 X-0.025Y0.05S0
G1 X-1.667S0
G1 X-0.32S700
G1 X-0.365S0
G1 X-0.334S700
G1 X-1.666S0
G1 X0.009Y0.05S0
G1 X1.667S0
G1 X0.502S700
G1 X0.014S0
G1 X0.446S700
G1 X1.667S0
G1 X-0.052Y0.05S0
G1 X-1.667S0
G1 X-0.901S700
G1 X-1.667S0
G1 X0.01Y0.05S0
G1 X1.666S0
G1 X0.211S700
G1 X0.028S0
G1 X0.599S700
G1 X1.666S0
G1 X-0.107Y0.05S0
G1 X-1.667S0
G1 X-0.396S700
G1 X-0.113S0
G1 X-0.211S700
G1 X-1.667S0
G1 X0.01Y0.05S0
G1 X1.666S0
G1 X0.211S700
G1 X1.667S0
G1 X0.01Y0.05S0
G1 X-1.667S0
G1 X-0.211S700
G1 X-1.667S0
G1 X0.009Y0.05S0
G1 X1.667S0
G1 X0.212S700
G1 X1.667S0
G1 X0.01Y0.05S0
G1 X-1.667S0
G1 X-0.212S700
G1 X-1.667S0
G1 X0.009Y0.05S0
G1 X1.667S0
G1 X0.213S700
G1 X1.667S0
G1 X0.01Y0.05S0
G1 X-1.667S0
G1 X-0.214S700
G1 X-1.666S0
G1 X0.009Y0.05S0
G1 X1.667S0
G1 X0.214S700
G1 X1.667S0
G1 X0.01Y0.05S0
G1 X-1.667S0
G1 X-0.215S700
G1 X-1.667S0
G1 X0.01Y0.05S0
G1 X1.667S0
G1 X0.923S700
G1 X1.666S0
G1 Y0.05S0
G1 X-1.666S0
G1 X-0.914S700
G1 X-1.667S0
G1 X0.01Y0.05S0
G1 X1.666S0
G1 X0.905S700
G1 X1.666S0
G1 Y0.05S0
G1 X-1.666S0
G1 X-0.895S700
G1 X-1.667S0
M9
G1 S0
M5
; return to starting pos
G0 X1.459Y-1.772
M2
