; LightBurn 1.2.01
; GRBL device profile, current position
; Bounds: X-1.67 Y0.03 to X2.85 Y1.79
G00 G17 G40 G21 G54
G91
M4
; Cut @ 4999.998 mm/min, 0% power
M8
G0 X0.405Y0.032
; Layer Lim
G1 X0.5S0F5000
; Scan @ 4000.002 mm/min, 70% power
M8
G0 X-2.162Y0.009
; Layer C02
G1 X1.667F4000S0
G1 X0.407S700
G1 X1.666S0
G1 X0.097Y0.05S0
G1 X-1.666S0
G1 X-0.595S700
G1 X-1.667S0
G1 X-0.075Y0.05S0
G1 X1.667S0
G1 X0.732S700
G1 X1.667S0
G1 X0.051Y0.05S0
G1 X-1.667S0
G1 X-0.373S700
G1 X-0.1S0
G1 X-0.359S700
G1 X-1.667S0
G1 X-0.037Y0.05S0
G1 X1.667S0
G1 X0.294S700
G1 X0.334S0
G1 X0.286S700
G1 X1.667S0
G1 X0.028Y0.05S0
G1 X-1.667S0
G1 X-0.252S700
G1 X-0.464S0
G1 X-0.263S700
G1 X-1.666S0
G1 X-0.027Y0.05S0
G1 X1.666S0
G1 X0.251S700
G1 X0.547S0
G1 X0.236S700
G1 X1.667S0
G1 X0.025Y0.05S0
G1 X-1.667S0
G1 X-0.235S700
G1 X-0.612S0
G1 X-0.225S700
G1 X-1.666S0
G1 X-0.014Y0.05S0
G1 X1.667S0
G1 X0.219S700
G1 X0.657S0
G1 X0.22S700
G1 X1.667S0
G1 X0.011Y0.05S0
G1 X-1.667S0
G1 X-0.223S700
G1 X-0.681S0
G1 X-0.216S700
G1 X-1.667S0
G1 X-0.013Y0.05S0
G1 X1.667S0
G1 X0.214S700
G1 X0.699S0
G1 X0.231S700
G1 X1.667S0
G1 Y0.05S0
G1 X-1.665S0
G1 X-0.229S700
G1 X-0.701S0
G1 X-0.23S700
G1 X-1.666S0
G1 X-0.008Y0.05S0
G1 X1.667S0
G1 X0.239S700
G1 X0.696S0
G1 X0.228S700
G1 X1.667S0
G1 Y0.05S0
G1 X-1.67S0
G1 X-0.229S700
G1 X-0.691S0
G1 X-0.244S700
G1 X-1.667S0
G1 Y0.05S0
G1 X1.663S0
G1 X0.266S700
G1 X0.665S0
G1 X0.233S700
G1 X1.666S0
G1 X-0.019Y0.05S0
G1 X-1.666S0
G1 X-0.237S700
G1 X-0.625S0
G1 X-0.287S700
G1 X-1.667S0
G1 Y0.05S0
G1 X1.663S0
G1 X0.316S700
G1 X0.576S0
G1 X0.241S700
G1 X1.667S0
G1 X-0.019Y0.05S0
G1 X-1.667S0
G1 X-0.269S700
G1 X-0.482S0
G1 X-0.367S700
G1 X-1.667S0
G1 Y0.05S0
G1 X1.67S0
G1 X0.42S700
G1 X0.371S0
G1 X0.292S700
G1 X1.666S0
G1 X-0.038Y0.05S0
G1 X-1.667S0
G1 X-0.363S700
G1 X-0.146S0
G1 X-0.284S700
G1 X-0.034S0
G1 X-0.213S700
G1 X-1.666S0
G1 Y0.05S0
G1 X1.671S0
G1 X0.208S700
G1 X0.08S0
G1 X0.709S700
G1 X1.667S0
G1 X-0.066Y0.05S0
G1 X-1.667S0
G1 X-0.594S700
G1 X-0.129S0
G1 X-0.203S700
G1 X-1.666S0
G1 Y0.05S0
G1 X1.671S0
G1 X0.201S700
G1 X0.224S0
G1 X0.426S700
G1 X1.667S0
G1 X-0.188Y0.05S0
G1 X-1.666S0
G1 X-0.018S700
G1 X-0.434S0
G1 X-0.207S700
G1 X-1.667S0
G1 X0.013Y0.05S0
G1 X1.666S0
G1 X0.207S700
G1 X1.667S0
G1 X0.011Y0.05S0
G1 X-1.666S0
G1 X-0.204S700
G1 X-1.667S0
G1 X0.014Y0.05S0
G1 X1.667S0
G1 X0.212S700
G1 X1.667S0
G1 X0.869Y0.05S0
G1 X-1.667S0
G1 X-0.225S700
G1 X-0.619S0
G1 X-0.223S700
G1 X-1.667S0
G1 X0.014Y0.05S0
G1 X1.667S0
G1 X0.233S700
G1 X0.578S0
G1 X0.231S700
G1 X1.667S0
G1 X-0.011Y0.05S0
G1 X-1.666S0
G1 X-0.238S700
G1 X-0.524S0
G1 X-0.254S700
G1 X-1.667S0
G1 X0.035Y0.05S0
G1 X1.666S0
G1 X0.261S700
G1 X0.442S0
G1 X0.26S700
G1 X1.667S0
G1 X-0.028Y0.05S0
G1 X-1.667S0
G1 X-0.275S700
G1 X-0.357S0
G1 X-0.268S700
G1 X-1.667S0
G1 X0.035Y0.05S0
G1 X1.667S0
G1 X0.362S700
G1 X0.101S0
G1 X0.373S700
G1 X1.667S0
G1 X-0.051Y0.05S0
G1 X-1.666S0
G1 X-0.733S700
G1 X-1.667S0
G1 X0.075Y0.05S0
G1 X1.667S0
G1 X0.6S700
G1 X1.667S0
G1 X-0.094Y0.05S0
G1 X-1.667S0
G1 X-0.416S700
G1 X-1.666S0
M9
G1 S0
M5
; return to starting pos
G0 X1.231Y-1.791
M2
