; LightBurn 1.2.01
; GRBL device profile, current position
; Bounds: X-1.67 Y0 to X2.83 Y1.76
G00 G17 G40 G21 G54
G91
M4
; Cut @ 4999.998 mm/min, 0% power
M8
G0 X0.378Y0
; Layer Lim
G1 X0.5S0F5000
; Scan @ 4000.002 mm/min, 70% power
M8
G0 X-2.293Y0.008
; Layer C02
G1 X1.666F4000S0
G1 X0.226S700
G1 X1.667S0
G1 X0.006Y0.05S0
G1 X-1.667S0
G1 X-0.225S700
G1 X-1.667S0
G1 X0.007Y0.05S0
G1 X1.667S0
G1 X0.224S700
G1 X1.667S0
G1 X0.006Y0.05S0
G1 X-1.667S0
G1 X-0.224S700
G1 X-1.666S0
G1 X0.006Y0.05S0
G1 X1.667S0
G1 X0.223S700
G1 X1.666S0
G1 X0.007Y0.05S0
G1 X-1.667S0
G1 X-0.222S700
G1 X-1.667S0
G1 X0.006Y0.05S0
G1 X1.667S0
G1 X0.229S700
G1 X1.667S0
G1 X0.013Y0.05S0
G1 X-1.667S0
G1 X-0.235S700
G1 X-1.667S0
G1 X0.014Y0.05S0
G1 X1.667S0
G1 X0.234S700
G1 X1.667S0
G1 X0.013Y0.05S0
G1 X-1.667S0
G1 X-0.234S700
G1 X-1.666S0
G1 X0.013Y0.05S0
G1 X1.667S0
G1 X0.233S700
G1 X1.667S0
G1 X0.013Y0.05S0
G1 X-1.666S0
G1 X-0.234S700
G1 X-1.666S0
G1 X0.013Y0.05S0
G1 X1.667S0
G1 X0.233S700
G1 X1.666S0
G1 X0.019Y0.05S0
G1 X-1.667S0
G1 X-0.237S700
G1 X-1.667S0
G1 X0.014Y0.05S0
G1 X1.667S0
G1 X0.244S700
G1 X1.666S0
G1 X0.021Y0.05S0
G1 X-1.667S0
G1 X-0.243S700
G1 X-1.667S0
G1 X0.022Y0.05S0
G1 X1.666S0
G1 X0.243S700
G1 X1.666S0
G1 X0.021Y0.05S0
G1 X-1.667S0
G1 X-0.242S700
G1 X-1.666S0
G1 X0.021Y0.05S0
G1 X1.666S0
G1 X0.241S700
G1 X1.667S0
G1 X0.02Y0.05S0
G1 X-1.666S0
G1 X-0.24S700
G1 X-1.667S0
G1 X0.021Y0.05S0
G1 X1.667S0
G1 X0.246S700
G1 X1.666S0
G1 X0.029Y0.05S0
G1 X-1.667S0
G1 X-0.249S700
G1 X-1.667S0
G1 X0.03Y0.05S0
G1 X1.667S0
G1 X0.248S700
G1 X1.666S0
G1 X0.029Y0.05S0
G1 X-1.667S0
G1 X-0.247S700
G1 X-1.667S0
G1 X0.03Y0.05S0
G1 X1.667S0
G1 X0.246S700
G1 X1.667S0
G1 X0.028Y0.05S0
G1 X-1.667S0
G1 X-0.245S700
G1 X-1.666S0
G1 X0.029Y0.05S0
G1 X1.667S0
G1 X0.246S700
G1 X1.667S0
G1 X0.038Y0.05S0
G1 X-1.667S0
G1 X-0.252S700
G1 X-1.667S0
G1 X0.038Y0.05S0
G1 X1.667S0
G1 X0.252S700
G1 X1.667S0
G1 X0.038Y0.05S0
G1 X-1.666S0
G1 X-0.253S700
G1 X-1.666S0
G1 X0.038Y0.05S0
G1 X1.667S0
G1 X0.252S700
G1 X1.666S0
G1 X0.038Y0.05S0
G1 X-1.666S0
G1 X-1.131S700
G1 X-1.667S0
G1 Y0.05S0
G1 X1.667S0
G1 X1.159S700
G1 X1.666S0
G1 Y0.05S0
G1 X-1.666S0
G1 X-1.159S700
G1 X-1.667S0
G1 Y0.05S0
G1 X1.667S0
G1 X1.159S700
G1 X1.666S0
G1 Y0.05S0
G1 X-1.666S0
G1 X-1.159S700
G1 X-1.667S0
M9
G1 S0
M5
; return to starting pos
G0 X1.667Y-1.758
M2
