; LightBurn 1.2.01
; GRBL device profile, current position
; Bounds: X-1.67 Y0.04 to X2.85 Y1.79
G00 G17 G40 G21 G54
G91
M4
; Cut @ 4999.998 mm/min, 0% power
M8
G0 X0.399Y0.038
; Layer Lim
G1 X0.5S0F5000
; Scan @ 4000.002 mm/min, 70% power
M8
G0 X-2.2Y0.003
; Layer C02
G1 X1.667F4000S0
G1 X0.444S700
G1 X1.667S0
G1 X0.118Y0.05S0
G1 X-1.666S0
G1 X-0.662S700
G1 X-1.667S0
G1 X-0.066Y0.05S0
G1 X1.666S0
G1 X0.806S700
G1 X1.667S0
G1 X0.044Y0.05S0
G1 X-1.667S0
G1 X-0.419S700
G1 X-0.033S0
G1 X-0.447S700
G1 X-1.667S0
G1 X-0.043Y0.05S0
G1 X1.667S0
G1 X0.299S700
G1 X0.376S0
G1 X0.308S700
G1 X1.667S0
G1 X0.032Y0.05S0
G1 X-1.667S0
G1 X-0.268S700
G1 X-0.511S0
G1 X-0.266S700
G1 X-1.667S0
G1 X-0.028Y0.05S0
G1 X1.667S0
G1 X0.247S700
G1 X0.596S0
G1 X0.249S700
G1 X1.667S0
G1 X0.019Y0.05S0
G1 X-1.666S0
G1 X-0.236S700
G1 X-0.655S0
G1 X-0.238S700
G1 X-1.667S0
G1 X-0.017Y0.05S0
G1 X1.666S0
G1 X0.232S700
G1 X0.694S0
G1 X0.234S700
G1 X1.667S0
G1 Y0.05S0
G1 X-1.664S0
G1 X-0.221S700
G1 X-0.717S0
G1 X-0.23S700
G1 X-1.666S0
G1 Y0.05S0
G1 X1.662S0
G1 X0.226S700
G1 X0.725S0
G1 X0.223S700
G1 X1.667S0
G1 Y0.05S0
G1 X-1.666S0
G1 X-0.227S700
G1 X-0.718S0
G1 X-0.235S700
G1 X-1.666S0
G1 X0.008Y0.05S0
G1 X1.666S0
G1 X0.234S700
G1 X0.702S0
G1 X0.223S700
G1 X1.666S0
G1 X-0.013Y0.05S0
G1 X-1.667S0
G1 X-0.23S700
G1 X-0.668S0
G1 X-0.233S700
G1 X-1.667S0
G1 X0.014Y0.05S0
G1 X1.667S0
G1 X0.247S700
G1 X0.619S0
G1 X0.237S700
G1 X1.667S0
G1 X-0.033Y0.05S0
G1 X-1.666S0
G1 X-0.247S700
G1 X-0.545S0
G1 X-0.252S700
G1 X-1.667S0
G1 X0.035Y0.05S0
G1 X1.667S0
G1 X0.274S700
G1 X0.437S0
G1 X0.265S700
G1 X1.667S0
G1 X-0.042Y0.05S0
G1 X-1.667S0
G1 X-0.324S700
G1 X-0.237S0
G1 X-0.337S700
G1 X-1.667S0
G1 X0.073Y0.05S0
G1 X1.666S0
G1 X0.764S700
G1 X1.666S0
G1 X-0.079Y0.05S0
G1 X-1.667S0
G1 X-0.598S700
G1 X-1.667S0
G1 X-0.021Y0.05S0
G1 X1.666S0
G1 X0.638S700
G1 X1.667S0
G1 X0.072Y0.05S0
G1 X-1.667S0
G1 X-0.779S700
G1 X-1.667S0
G1 X-0.045Y0.05S0
G1 X1.666S0
G1 X0.278S700
G1 X0.326S0
G1 X0.262S700
G1 X1.667S0
G1 X0.041Y0.05S0
G1 X-1.667S0
G1 X-0.246S700
G1 X-0.446S0
G1 X-0.248S700
G1 X-1.667S0
G1 X-0.024Y0.05S0
G1 X1.667S0
G1 X0.236S700
G1 X0.516S0
G1 X0.228S700
G1 X1.667S0
G1 X0.016Y0.05S0
G1 X-1.667S0
G1 X-0.221S700
G1 X-0.557S0
G1 X-0.228S700
G1 X-1.667S0
G1 X-0.006Y0.05S0
G1 X1.667S0
G1 X0.222S700
G1 X0.576S0
G1 X0.228S700
G1 X1.666S0
G1 Y0.05S0
G1 X-1.67S0
G1 X-0.224S700
G1 X-0.578S0
G1 X-0.226S700
G1 X-1.666S0
G1 X0.007Y0.05S0
G1 X1.667S0
G1 X0.226S700
G1 X0.56S0
G1 X0.231S700
G1 X1.667S0
G1 X-0.006Y0.05S0
G1 X-1.667S0
G1 X-0.24S700
G1 X-0.531S0
G1 X-0.229S700
G1 X-1.667S0
G1 X0.011Y0.05S0
G1 X1.667S0
G1 X0.251S700
G1 X0.464S0
G1 X0.25S700
G1 X1.667S0
G1 X-0.025Y0.05S0
G1 X-1.666S0
G1 X-0.275S700
G1 X-0.365S0
G1 X-0.272S700
G1 X-1.666S0
G1 X0.03Y0.05S0
G1 X1.666S0
G1 X0.334S700
G1 X0.173S0
G1 X0.341S700
G1 X1.667S0
G1 X-0.058Y0.05S0
G1 X-1.667S0
G1 X-0.745S700
G1 X-1.666S0
G1 X0.058Y0.05S0
G1 X1.667S0
G1 X0.628S700
G1 X1.666S0
G1 X-0.104Y0.05S0
G1 X-1.666S0
G1 X-0.418S700
G1 X-1.667S0
M9
G1 S0
M5
; return to starting pos
G0 X1.291Y-1.791
M2
