; LightBurn 1.2.01
; GRBL device profile, current position
; Bounds: X-1.67 Y0.03 to X2.85 Y1.79
G00 G17 G40 G21 G54
G91
M4
; Cut @ 4999.998 mm/min, 0% power
M8
G0 X0.395Y0.029
; Layer Lim
G1 X0.5S0F5000
; Scan @ 4000.002 mm/min, 70% power
M8
G0 X-2.235Y0.009
; Layer C02
G1 X1.667F4000S0
G1 X0.405S700
G1 X1.667S0
G1 X0.113Y0.05S0
G1 X-1.667S0
G1 X-0.612S700
G1 X-1.667S0
G1 X-0.054Y0.05S0
G1 X1.667S0
G1 X0.733S700
G1 X1.666S0
G1 X0.063Y0.05S0
G1 X-1.667S0
G1 X-0.345S700
G1 X-0.156S0
G1 X-0.344S700
G1 X-1.667S0
G1 X-0.027Y0.05S0
G1 X1.666S0
G1 X0.264S700
G1 X0.371S0
G1 X0.274S700
G1 X1.666S0
G1 X0.036Y0.05S0
G1 X-1.667S0
G1 X-0.249S700
G1 X-0.479S0
G1 X-0.243S700
G1 X-1.667S0
G1 X-0.017Y0.05S0
G1 X1.667S0
G1 X0.228S700
G1 X0.541S0
G1 X0.254S700
G1 X1.667S0
G1 X0.015Y0.05S0
G1 X-1.667S0
G1 X-0.238S700
G1 X-0.595S0
G1 X-0.215S700
G1 X-1.667S0
G1 X-0.011Y0.05S0
G1 X1.667S0
G1 X0.216S700
G1 X0.63S0
G1 X0.229S700
G1 X1.666S0
G1 X0.016Y0.05S0
G1 X-1.667S0
G1 X-0.224S700
G1 X-1.667S0
G1 X0.019Y0.05S0
G1 X1.667S0
G1 X0.219S700
G1 X1.666S0
G1 X0.009Y0.05S0
G1 X-1.667S0
G1 X-0.213S700
G1 X-1.667S0
G1 X-0.419Y0.05S0
G1 X1.667S0
G1 X0.04S700
G1 X0.388S0
G1 X0.213S700
G1 X1.666S0
G1 X0.009Y0.05S0
G1 X-1.667S0
G1 X-0.211S700
G1 X-0.204S0
G1 X-0.436S700
G1 X-1.666S0
G1 X-0.083Y0.05S0
G1 X1.667S0
G1 X0.599S700
G1 X0.128S0
G1 X0.215S700
G1 X1.666S0
G1 X0.008Y0.05S0
G1 X-1.667S0
G1 X-0.222S700
G1 X-0.068S0
G1 X-0.723S700
G1 X-1.667S0
G1 X-0.039Y0.05S0
G1 X1.667S0
G1 X0.376S700
G1 X0.12S0
G1 X0.308S700
G1 X0.026S0
G1 X0.222S700
G1 X1.667S0
G1 Y0.05S0
G1 X-1.666S0
G1 X-0.417S700
G1 X-0.364S0
G1 X-0.312S700
G1 X-1.667S0
G1 X-0.027Y0.05S0
G1 X1.667S0
G1 X0.272S700
G1 X0.497S0
G1 X0.351S700
G1 X1.667S0
G1 Y0.05S0
G1 X-1.666S0
G1 X-0.313S700
G1 X-0.571S0
G1 X-0.253S700
G1 X-1.667S0
G1 X-0.016Y0.05S0
G1 X1.667S0
G1 X0.234S700
G1 X0.634S0
G1 X0.285S700
G1 X1.667S0
G1 X-0.008Y0.05S0
G1 X-1.666S0
G1 X-0.253S700
G1 X-0.674S0
G1 X-0.235S700
G1 X-1.666S0
G1 X-0.005Y0.05S0
G1 X1.667S0
G1 X0.225S700
G1 X0.692S0
G1 X0.241S700
G1 X1.666S0
G1 X-0.007Y0.05S0
G1 X-1.667S0
G1 X-0.229S700
G1 X-0.704S0
G1 X-0.22S700
G1 X-1.667S0
G1 Y0.05S0
G1 X1.664S0
G1 X0.226S700
G1 X0.705S0
G1 X0.217S700
G1 X1.667S0
G1 X-0.008Y0.05S0
G1 X-1.666S0
G1 X-0.214S700
G1 X-0.697S0
G1 X-0.233S700
G1 X-1.667S0
G1 X0.009Y0.05S0
G1 X1.667S0
G1 X0.235S700
G1 X0.682S0
G1 X0.203S700
G1 X1.666S0
G1 X-0.016Y0.05S0
G1 X-1.666S0
G1 X-0.2S700
G1 X-0.654S0
G1 X-0.235S700
G1 X-1.667S0
G1 X0.014Y0.05S0
G1 X1.667S0
G1 X0.236S700
G1 X0.617S0
G1 X0.205S700
G1 X1.667S0
G1 X-0.016Y0.05S0
G1 X-1.667S0
G1 X-0.214S700
G1 X-0.555S0
G1 X-0.258S700
G1 X-1.667S0
G1 X0.031Y0.05S0
G1 X1.667S0
G1 X0.27S700
G1 X0.463S0
G1 X0.247S700
G1 X1.666S0
G1 X-0.04Y0.05S0
G1 X-1.666S0
G1 X-0.266S700
G1 X-0.332S0
G1 X-0.307S700
G1 X-1.666S0
G1 X0.035Y0.05S0
G1 X1.667S0
G1 X0.825S700
G1 X1.666S0
G1 X-0.044Y0.05S0
G1 X-1.667S0
G1 X-0.728S700
G1 X-1.666S0
G1 X0.071Y0.05S0
G1 X1.666S0
G1 X0.577S700
G1 X1.667S0
G1 X-0.093Y0.05S0
G1 X-1.666S0
G1 X-0.399S700
G1 X-1.667S0
M9
G1 S0
M5
; return to starting pos
G0 X1.302Y-1.788
M2
