; LightBurn 1.2.01
; GRBL device profile, current position
; Bounds: X-1.66 Y0.05 to X1.93 Y1.65
G00 G17 G40 G21 G54
G91
M4
; Cut @ 4999.998 mm/min, 0% power
M8
G0 X0.289Y0.354
; Layer Lim
G1 X0.1S0F5000
; Scan @ 4000.002 mm/min, 70% power
M8
G0 X-2.027Y-0.304
; Layer C02
G1 X1.666F4000S0
G1 X0.116S700
G1 X1.666S0
G1 X0.046Y0.05S0
G1 X-1.666S0
G1 X-0.18S700
G1 X-1.666S0
G1 X0.062Y0.05S0
G1 X1.666S0
G1 X0.152S700
G1 X1.666S0
G1 X0.019Y0.05S0
G1 X-1.667S0
G1 X-0.138S700
G1 X-1.667S0
G1 X0.024Y0.05S0
G1 X1.666S0
G1 X0.127S700
G1 X1.667S0
G1 Y0.05S0
G1 X-1.663S0
G1 X-0.125S700
G1 X-1.666S0
G1 X0.005Y0.05S0
G1 X1.667S0
G1 X0.123S700
G1 X1.667S0
G1 Y0.05S0
G1 X-1.663S0
G1 X-0.251S700
G1 X-1.667S0
G1 Y0.05S0
G1 X1.667S0
G1 X0.252S700
G1 X1.667S0
G1 Y0.05S0
G1 X-1.668S0
G1 X-0.251S700
G1 X-1.667S0
G1 Y0.05S0
G1 X1.667S0
G1 X0.251S700
G1 X1.666S0
G1 Y0.05S0
G1 X-1.667S0
G1 X-0.25S700
G1 X-1.667S0
G1 Y0.8S0
G1 X1.667S0
G1 X0.25S700
G1 X1.666S0
G1 Y0.05S0
G1 X-1.666S0
G1 X-0.25S700
G1 X-1.667S0
G1 Y0.05S0
G1 X1.667S0
G1 X0.25S700
G1 X1.666S0
G1 Y0.05S0
G1 X-1.666S0
G1 X-0.25S700
G1 X-1.667S0
G1 Y0.05S0
G1 X1.667S0
G1 X0.25S700
G1 X1.666S0
G1 Y0.05S0
G1 X-1.666S0
G1 X-0.25S700
G1 X-1.667S0
M9
G1 S0
M5
; return to starting pos
G0 X1.652Y-1.65
M2
