; LightBurn 1.2.01
; GRBL device profile, current position
; Bounds: X-1.67 Y0 to X2.85 Y1.46
G00 G17 G40 G21 G54
G91
M4
; Cut @ 4999.998 mm/min, 0% power
M8
G0 X0.36Y0
; Layer Lim
G1 X0.1S0F5000
; Scan @ 4000.002 mm/min, 70% power
M8
G0 X-1.014Y0.307
; Layer C02
G1 X1.667F4000S0
G1 X0.072S700
G1 X1.667S0
G1 Y0.05S0
G1 X-1.667S0
G1 X-0.189S700
G1 X-1.667S0
G1 X-0.117Y0.05S0
G1 X1.667S0
G1 X0.306S700
G1 X1.667S0
G1 Y0.05S0
G1 X-1.667S0
G1 X-0.423S700
G1 X-1.667S0
G1 X-0.117Y0.05S0
G1 X1.667S0
G1 X0.511S700
G1 X1.667S0
G1 X-0.121Y0.05S0
G1 X-1.667S0
G1 X-0.507S700
G1 X-1.667S0
G1 X-0.117Y0.05S0
G1 X1.667S0
G1 X0.503S700
G1 X1.667S0
G1 X-0.121Y0.05S0
G1 X-1.666S0
G1 X-0.5S700
G1 X-1.667S0
G1 X-0.117Y0.05S0
G1 X1.667S0
G1 X0.496S700
G1 X1.667S0
G1 X-0.121Y0.05S0
G1 X-1.667S0
G1 X-0.492S700
G1 X-1.667S0
G1 X-0.06Y0.05S0
G1 X1.667S0
G1 X0.432S700
G1 X1.666S0
G1 X-0.12Y0.05S0
G1 X-1.667S0
G1 X-0.311S700
G1 X-1.667S0
G1 Y0.05S0
G1 X1.667S0
G1 X0.301S700
G1 X1.667S0
G1 X0.122Y0.05S0
G1 X-1.667S0
G1 X-0.423S700
G1 X-1.667S0
G1 X0.046Y0.05S0
G1 X1.667S0
G1 X0.499S700
G1 X1.667S0
G1 X0.121Y0.05S0
G1 X-1.666S0
G1 X-0.503S700
G1 X-1.666S0
G1 X0.118Y0.05S0
G1 X1.667S0
G1 X0.506S700
G1 X1.666S0
G1 X0.122Y0.05S0
G1 X-1.666S0
G1 X-0.51S700
G1 X-1.667S0
G1 X0.119Y0.05S0
G1 X1.667S0
G1 X0.512S700
G1 X1.667S0
G1 X0.122Y0.05S0
G1 X-1.667S0
G1 X-0.516S700
G1 X-1.667S0
G1 X0.119Y0.05S0
G1 X1.667S0
G1 X0.428S700
G1 X1.667S0
G1 Y0.05S0
G1 X-1.667S0
G1 X-0.31S700
G1 X-1.667S0
G1 X0.119Y0.05S0
G1 X1.667S0
G1 X0.191S700
G1 X1.667S0
G1 Y0.05S0
G1 X-1.667S0
G1 X-0.073S700
G1 X-1.667S0
M9
G1 S0
M5
; return to starting pos
G0 X0.555Y-1.457
M2
