; LightBurn 1.2.01
; GRBL device profile, current position
; Bounds: X-1.67 Y0 to X2.85 Y1.46
G00 G17 G40 G21 G54
G91
M4
; Cut @ 4999.998 mm/min, 0% power
M8
G0 X0.36Y0
; Layer Lim
G1 X0.1S0F5000
; Scan @ 4000.002 mm/min, 70% power
M8
G0 X-2.127Y0.307
; Layer C02
G1 X1.667F4000S0
G1 X0.072S700
G1 X1.667S0
G1 X0.117Y0.05S0
G1 X-1.667S0
G1 X-0.189S700
G1 X-1.667S0
G1 Y0.05S0
G1 X1.667S0
G1 X0.306S700
G1 X1.667S0
G1 X0.117Y0.05S0
G1 X-1.667S0
G1 X-0.423S700
G1 X-1.667S0
G1 X0.03Y0.05S0
G1 X1.666S0
G1 X0.511S700
G1 X1.667S0
G1 X0.117Y0.05S0
G1 X-1.667S0
G1 X-0.507S700
G1 X-1.667S0
G1 X0.121Y0.05S0
G1 X1.667S0
G1 X0.503S700
G1 X1.667S0
G1 X0.117Y0.05S0
G1 X-1.667S0
G1 X-0.5S700
G1 X-1.667S0
G1 X0.121Y0.05S0
G1 X1.667S0
G1 X0.496S700
G1 X1.667S0
G1 X0.117Y0.05S0
G1 X-1.667S0
G1 X-0.493S700
G1 X-1.666S0
G1 X0.12Y0.05S0
G1 X1.667S0
G1 X0.432S700
G1 X1.667S0
G1 Y0.05S0
G1 X-1.667S0
G1 X-0.312S700
G1 X-1.666S0
G1 X0.01Y0.05S0
G1 X1.666S0
G1 X0.302S700
G1 X1.667S0
G1 Y0.05S0
G1 X-1.667S0
G1 X-0.423S700
G1 X-1.667S0
G1 X-0.122Y0.05S0
G1 X1.667S0
G1 X0.5S700
G1 X1.666S0
G1 X-0.118Y0.05S0
G1 X-1.667S0
G1 X-0.503S700
G1 X-1.667S0
G1 X-0.121Y0.05S0
G1 X1.666S0
G1 X0.507S700
G1 X1.666S0
G1 X-0.118Y0.05S0
G1 X-1.667S0
G1 X-0.51S700
G1 X-1.666S0
G1 X-0.122Y0.05S0
G1 X1.667S0
G1 X0.513S700
G1 X1.666S0
G1 X-0.118Y0.05S0
G1 X-1.667S0
G1 X-0.516S700
G1 X-1.667S0
G1 X-0.031Y0.05S0
G1 X1.667S0
G1 X0.429S700
G1 X1.666S0
G1 X-0.118Y0.05S0
G1 X-1.667S0
G1 X-0.31S700
G1 X-1.667S0
G1 Y0.05S0
G1 X1.667S0
G1 X0.192S700
G1 X1.666S0
G1 X-0.118Y0.05S0
G1 X-1.667S0
G1 X-0.073S700
G1 X-1.667S0
M9
G1 S0
M5
; return to starting pos
G0 X1.667Y-1.457
M2
