; LightBurn 1.2.01
; GRBL device profile, current position
; Bounds: X-1.66 Y0 to X2.82 Y1.79
G00 G17 G40 G21 G54
G91
M4
; Cut @ 4999.998 mm/min, 0% power
M8
G0 X0.387Y0
; Layer Lim
G1 X0.1S0F5000
; Scan @ 4000.002 mm/min, 70% power
M8
G0 X-1.7Y0.037
; Layer C02
G1 X1.666F4000S0
G1 X0.25S700
G1 X1.667S0
G1 Y0.05S0
G1 X-1.667S0
G1 X-0.25S700
G1 X-1.666S0
G1 Y0.05S0
G1 X1.666S0
G1 X0.25S700
G1 X1.667S0
G1 Y0.05S0
G1 X-1.667S0
G1 X-0.25S700
G1 X-1.666S0
G1 Y0.05S0
G1 X1.666S0
G1 X0.25S700
G1 X1.667S0
G1 X-0.023Y0.25S0
G1 X-1.667S0
G1 X-0.212S700
G1 X-1.666S0
G1 Y0.05S0
G1 X1.669S0
G1 X0.212S700
G1 X1.666S0
G1 X0.006Y0.05S0
G1 X-1.666S0
G1 X-0.216S700
G1 X-1.667S0
G1 X0.006Y0.05S0
G1 X1.666S0
G1 X0.221S700
G1 X1.667S0
G1 X0.026Y0.05S0
G1 X-1.666S0
G1 X-0.23S700
G1 X-1.667S0
G1 X0.018Y0.05S0
G1 X1.667S0
G1 X0.239S700
G1 X1.666S0
G1 X0.037Y0.05S0
G1 X-1.667S0
G1 X-0.257S700
G1 X-1.667S0
G1 X0.031Y0.05S0
G1 X1.667S0
G1 X0.28S700
G1 X1.667S0
G1 X0.054Y0.05S0
G1 X-1.667S0
G1 X-0.293S700
G1 X-1.667S0
G1 X0.052Y0.05S0
G1 X1.666S0
G1 X0.293S700
G1 X1.667S0
G1 X0.051Y0.05S0
G1 X-1.667S0
G1 X-0.292S700
G1 X-1.667S0
G1 X0.052Y0.05S0
G1 X1.667S0
G1 X0.285S700
G1 X1.667S0
G1 X0.039Y0.05S0
G1 X-1.667S0
G1 X-0.284S700
G1 X-1.667S0
G1 X0.038Y0.05S0
G1 X1.666S0
G1 X0.274S700
G1 X1.666S0
G1 X0.02Y0.05S0
G1 X-1.666S0
G1 X-0.256S700
G1 X-1.667S0
G1 X0.038Y0.05S0
G1 X1.666S0
G1 X0.233S700
G1 X1.667S0
G1 X0.007Y0.05S0
G1 X-1.667S0
G1 X-0.231S700
G1 X-0.692S0
G1 X-0.087S700
G1 X-1.667S0
G1 X-0.133Y0.05S0
G1 X1.667S0
G1 X0.231S700
G1 X0.681S0
G1 X0.235S700
G1 X1.666S0
G1 Y0.05S0
G1 X-1.671S0
G1 X-0.233S700
G1 X-0.663S0
G1 X-0.235S700
G1 X-1.667S0
G1 X0.012Y0.05S0
G1 X1.666S0
G1 X0.245S700
G1 X0.62S0
G1 X0.248S700
G1 X1.667S0
G1 X-0.017Y0.05S0
G1 X-1.667S0
G1 X-0.252S700
G1 X-0.578S0
G1 X-0.248S700
G1 X-1.667S0
G1 X0.026Y0.05S0
G1 X1.667S0
G1 X0.271S700
G1 X0.483S0
G1 X0.278S700
G1 X1.667S0
G1 X-0.03Y0.05S0
G1 X-1.667S0
G1 X-0.3S700
G1 X-0.377S0
G1 X-0.299S700
G1 X-1.667S0
G1 X0.046Y0.05S0
G1 X1.666S0
G1 X0.891S700
G1 X1.667S0
G1 X-0.055Y0.05S0
G1 X-1.667S0
G1 X-0.769S700
G1 X-1.667S0
G1 X0.066Y0.05S0
G1 X1.667S0
G1 X0.612S700
G1 X1.666S0
G1 X-0.091Y0.05S0
G1 X-1.667S0
G1 X-0.394S700
G1 X-1.666S0
M9
G1 S0
M5
; return to starting pos
G0 X1.262Y-1.787
M2
