; LightBurn 1.2.01
; GRBL device profile, current position
; Bounds: X-1.67 Y0 to X3.94 Y2.35
G00 G17 G40 G21 G54
G91
M4
; Cut @ 4999.998 mm/min, 0% power
M8
G0 X0.359Y0.526
; Layer Lim
G1 X0.1S0F5000
; Scan @ 4000.002 mm/min, 70% power
M8
G0 X-0.905Y-0.525
; Layer C02
G1 X1.667F4000S0
G1 X0.037S700
G1 X1.667S0
G1 X0.379Y0.05S0
G1 X-1.667S0
G1 X-0.843S700
G1 X-1.667S0
G1 X-0.144Y0.05S0
G1 X1.667S0
G1 X1.144S700
G1 X1.666S0
G1 X0.099Y0.05S0
G1 X-1.667S0
G1 X-1.357S700
G1 X-1.667S0
G1 X-0.074Y0.05S0
G1 X1.666S0
G1 X0.527S700
G1 X0.492S0
G1 X0.504S700
G1 X1.666S0
G1 X0.06Y0.05S0
G1 X-1.666S0
G1 X-0.405S700
G1 X-0.877S0
G1 X-0.375S700
G1 X-1.667S0
G1 X-0.058Y0.05S0
G1 X1.667S0
G1 X0.325S700
G1 X1.117S0
G1 X0.333S700
G1 X1.666S0
G1 X0.059Y0.05S0
G1 X-1.666S0
G1 X-0.311S700
G1 X-1.284S0
G1 X-0.288S700
G1 X-1.667S0
G1 X-0.049Y0.05S0
G1 X1.667S0
G1 X0.27S700
G1 X1.423S0
G1 X0.276S700
G1 X1.667S0
G1 X0.038Y0.05S0
G1 X-1.667S0
G1 X-0.242S700
G1 X-1.554S0
G1 X-0.25S700
G1 X-1.667S0
G1 X-0.027Y0.05S0
G1 X1.667S0
G1 X0.232S700
G1 X1.655S0
G1 X0.224S700
G1 X1.667S0
G1 X-0.618Y0.05S0
G1 X-1.667S0
G1 X-0.284S700
G1 X-0.342S0
G1 X-0.256S700
G1 X-0.423S0
G1 X-0.215S700
G1 X-1.666S0
G1 X-0.027Y0.05S0
G1 X1.667S0
G1 X0.207S700
G1 X0.36S0
G1 X0.458S700
G1 X0.185S0
G1 X0.461S700
G1 X1.667S0
G1 X0.092Y0.05S0
G1 X-1.666S0
G1 X-0.58S700
G1 X-0.09S0
G1 X-0.585S700
G1 X-0.331S0
G1 X-0.198S700
G1 X-1.667S0
G1 X-0.017Y0.05S0
G1 X1.667S0
G1 X0.187S700
G1 X0.322S0
G1 X0.673S700
G1 X0.028S0
G1 X0.65S700
G1 X1.667S0
G1 X0.059Y0.05S0
G1 X-1.667S0
G1 X-0.342S700
G1 X-0.114S0
G1 X-0.435S700
G1 X-0.274S0
G1 X-0.271S700
G1 X-0.319S0
G1 X-0.181S700
G1 X-1.667S0
G1 X-0.017Y0.05S0
G1 X1.667S0
G1 X0.182S700
G1 X0.308S0
G1 X0.245S700
G1 X0.382S0
G1 X0.359S700
G1 X0.232S0
G1 X0.285S700
G1 X1.666S0
G1 X0.036Y0.05S0
G1 X-1.666S0
G1 X-0.248S700
G1 X-0.301S0
G1 X-0.309S700
G1 X-0.469S0
G1 X-0.228S700
G1 X-0.308S0
G1 X-0.176S700
G1 X-1.667S0
G1 X-0.008Y0.05S0
G1 X1.666S0
G1 X0.169S700
G1 X0.31S0
G1 X0.215S700
G1 X0.548S0
G1 X0.268S700
G1 X0.339S0
G1 X0.235S700
G1 X1.666S0
G1 X0.027Y0.05S0
G1 X-1.667S0
G1 X-0.213S700
G1 X-0.376S0
G1 X-0.253S700
G1 X-0.59S0
G1 X-0.214S700
G1 X-0.3S0
G1 X-0.172S700
G1 X-1.667S0
G1 X-0.009Y0.05S0
G1 X1.667S0
G1 X0.175S700
G1 X0.301S0
G1 X0.21S700
G1 X0.625S0
G1 X0.237S700
G1 X0.406S0
G1 X0.198S700
G1 X1.667S0
G1 X0.025Y0.05S0
G1 X-1.667S0
G1 X-0.199S700
G1 X-0.419S0
G1 X-0.221S700
G1 X-0.658S0
G1 X-0.209S700
G1 X-0.302S0
G1 X-0.171S700
G1 X-1.666S0
G1 Y0.05S0
G1 X1.666S0
G1 X0.171S700
G1 X0.297S0
G1 X0.221S700
G1 X0.673S0
G1 X0.21S700
G1 X0.432S0
G1 X0.193S700
G1 X1.667S0
G1 X0.014Y0.05S0
G1 X-1.667S0
G1 X-0.183S700
G1 X-0.446S0
G1 X-0.213S700
G1 X-0.674S0
G1 X-0.222S700
G1 X-0.298S0
G1 X-0.176S700
G1 X-1.667S0
G1 Y0.05S0
G1 X1.666S0
G1 X0.182S700
G1 X0.298S0
G1 X0.227S700
G1 X0.671S0
G1 X0.217S700
G1 X0.451S0
G1 X0.181S700
G1 X1.666S0
G1 X0.012Y0.05S0
G1 X-1.667S0
G1 X-0.186S700
G1 X-0.446S0
G1 X-0.22S700
G1 X-0.669S0
G1 X-0.233S700
G1 X-0.298S0
G1 X-0.18S700
G1 X-1.667S0
G1 X0.007Y0.05S0
G1 X1.667S0
G1 X0.182S700
G1 X0.304S0
G1 X0.228S700
G1 X0.666S0
G1 X0.223S700
G1 X0.442S0
G1 X0.184S700
G1 X1.667S0
G1 Y0.05S0
G1 X-1.662S0
G1 X-0.183S700
G1 X-0.437S0
G1 X-0.242S700
G1 X-0.639S0
G1 X-0.233S700
G1 X-0.308S0
G1 X-0.185S700
G1 X-1.666S0
G1 X0.007Y0.05S0
G1 X1.666S0
G1 X0.187S700
G1 X0.315S0
G1 X0.243S700
G1 X0.603S0
G1 X0.263S700
G1 X0.432S0
G1 X0.181S700
G1 X1.666S0
G1 Y0.05S0
G1 X-1.67S0
G1 X-0.183S700
G1 X-0.416S0
G1 X-0.283S700
G1 X-0.568S0
G1 X-0.242S700
G1 X-0.331S0
G1 X-0.183S700
G1 X-1.666S0
G1 X0.015Y0.05S0
G1 X1.667S0
G1 X0.185S700
G1 X0.339S0
G1 X0.258S700
G1 X0.516S0
G1 X0.304S700
G1 X0.399S0
G1 X0.184S700
G1 X1.667S0
G1 X-0.005Y0.05S0
G1 X-1.667S0
G1 X-0.184S700
G1 X-0.383S0
G1 X-0.34S700
G1 X-0.445S0
G1 X-0.273S700
G1 X-0.349S0
G1 X-0.191S700
G1 X-1.666S0
G1 X0.015Y0.05S0
G1 X1.667S0
G1 X0.195S700
G1 X0.369S0
G1 X0.297S700
G1 X0.339S0
G1 X0.392S700
G1 X0.357S0
G1 X0.191S700
G1 X1.667S0
G1 X-0.015Y0.05S0
G1 X-1.667S0
G1 X-0.192S700
G1 X-0.33S0
G1 X-0.219S700
G1 X-0.026S0
G1 X-0.249S700
G1 X-0.17S0
G1 X-0.335S700
G1 X-0.386S0
G1 X-0.194S700
G1 X-1.667S0
G1 X0.025Y0.05S0
G1 X1.666S0
G1 X0.203S700
G1 X0.412S0
G1 X0.656S700
G1 X0.076S0
G1 X0.219S700
G1 X0.3S0
G1 X0.197S700
G1 X1.666S0
G1 X-0.016Y0.05S0
G1 X-1.666S0
G1 X-0.208S700
G1 X-0.262S0
G1 X-0.22S700
G1 X-0.144S0
G1 X-0.54S700
G1 X-0.436S0
G1 X-0.212S700
G1 X-1.667S0
G1 X0.028Y0.05S0
G1 X1.667S0
G1 X0.217S700
G1 X0.495S0
G1 X0.374S700
G1 X0.229S0
G1 X0.219S700
G1 X0.225S0
G1 X0.209S700
G1 X1.667S0
G1 X-0.026Y0.05S0
G1 X-1.666S0
G1 X-0.22S700
G1 X-1.459S0
G1 X-0.229S700
G1 X-1.666S0
G1 X0.035Y0.05S0
G1 X1.667S0
G1 X0.244S700
G1 X1.367S0
G1 X0.235S700
G1 X1.666S0
G1 X-0.038Y0.05S0
G1 X-1.667S0
G1 X-0.244S700
G1 X-1.268S0
G1 X-0.26S700
G1 X-1.666S0
G1 X0.052Y0.05S0
G1 X1.667S0
G1 X0.283S700
G1 X1.133S0
G1 X0.264S700
G1 X1.667S0
G1 X-0.044Y0.05S0
G1 X-1.667S0
G1 X-0.295S700
G1 X-0.981S0
G1 X-0.306S700
G1 X-1.666S0
G1 X0.055Y0.05S0
G1 X1.666S0
G1 X0.367S700
G1 X0.77S0
G1 X0.334S700
G1 X1.666S0
G1 X-0.056Y0.05S0
G1 X-1.667S0
G1 X-0.46S700
G1 X-0.41S0
G1 X-0.467S700
G1 X-1.666S0
G1 X0.079Y0.05S0
G1 X1.667S0
G1 X1.166S700
G1 X1.667S0
G1 X-0.094Y0.05S0
G1 X-1.667S0
G1 X-0.966S700
G1 X-1.666S0
G1 X0.126Y0.05S0
G1 X1.666S0
G1 X0.693S700
G1 X1.667S0
G1 X-0.272Y0.05S0
G1 X-1.667S0
G1 X-0.042S700
G1 X-1.667S0
M9
G1 S0
M5
; return to starting pos
G0 X0.442Y-2.351
M2
