; LightBurn 1.2.01
; GRBL device profile, current position
; Bounds: X-1.66 Y0 to X2.7 Y1.81
G00 G17 G40 G21 G54
G91
M4
; Cut @ 4999.998 mm/min, 0% power
M8
G0 X0.431Y0
; Layer Lim
G1 X0.1S0F5000
; Scan @ 4000.002 mm/min, 70% power
M8
G0 X-2.192Y0.856
; Layer C02
G1 X1.667F4000S0
G1 X0.225S700
G1 X0.584S0
G1 X0.22S700
G1 X1.667S0
G1 X-0.022Y0.05S0
G1 X-1.667S0
G1 X-0.219S700
G1 X-0.542S0
G1 X-0.224S700
G1 X-1.667S0
G1 X0.022Y0.05S0
G1 X1.667S0
G1 X0.222S700
G1 X0.501S0
G1 X0.218S700
G1 X1.667S0
G1 X-0.023Y0.05S0
G1 X-1.666S0
G1 X-0.216S700
G1 X-0.461S0
G1 X-0.22S700
G1 X-1.666S0
G1 X0.022Y0.05S0
G1 X1.666S0
G1 X0.218S700
G1 X0.42S0
G1 X0.215S700
G1 X1.666S0
G1 X-0.022Y0.05S0
G1 X-1.667S0
G1 X-0.213S700
G1 X-0.379S0
G1 X-0.216S700
G1 X-1.666S0
G1 X0.022Y0.05S0
G1 X1.666S0
G1 X0.214S700
G1 X0.339S0
G1 X0.211S700
G1 X1.667S0
G1 X-0.022Y0.05S0
G1 X-1.667S0
G1 X-0.21S700
G1 X-0.298S0
G1 X-0.212S700
G1 X-1.666S0
G1 X0.022Y0.05S0
G1 X1.666S0
G1 X0.21S700
G1 X0.257S0
G1 X0.209S700
G1 X1.667S0
G1 X-0.023Y0.05S0
G1 X-1.666S0
G1 X-0.207S700
G1 X-0.217S0
G1 X-0.208S700
G1 X-1.666S0
G1 X0.022Y0.05S0
G1 X1.667S0
G1 X0.205S700
G1 X0.176S0
G1 X0.206S700
G1 X1.666S0
G1 X-0.022Y0.05S0
G1 X-1.667S0
G1 X-0.204S700
G1 X-0.134S0
G1 X-0.204S700
G1 X-1.667S0
G1 X0.022Y0.05S0
G1 X1.667S0
G1 X0.202S700
G1 X0.094S0
G1 X0.202S700
G1 X1.667S0
G1 X-0.022Y0.05S0
G1 X-1.667S0
G1 X-0.201S700
G1 X-0.053S0
G1 X-0.2S700
G1 X-1.667S0
G1 X0.022Y0.05S0
G1 X1.667S0
G1 X0.198S700
G1 X0.012S0
G1 X0.2S700
G1 X1.667S0
G1 X-0.023Y0.05S0
G1 X-1.666S0
G1 X-0.366S700
G1 X-1.667S0
G1 X0.022Y0.05S0
G1 X1.667S0
G1 X0.322S700
G1 X1.666S0
G1 X-0.022Y0.05S0
G1 X-1.667S0
G1 X-0.277S700
G1 X-1.667S0
G1 X0.022Y0.05S0
G1 X1.667S0
G1 X0.233S700
G1 X1.667S0
G1 X-0.022Y0.05S0
G1 X-1.667S0
G1 X-0.189S700
G1 X-1.667S0
M9
G1 S0
M5
; return to starting pos
G0 X1.242Y-1.806
M2
