; LightBurn 1.2.01
; GRBL device profile, current position
; Bounds: X-1.66 Y0 to X3.33 Y1.77
G00 G17 G40 G21 G54
G91
M4
; Cut @ 4999.998 mm/min, 0% power
M8
G0 X0.5Y0
; Layer Lim
G1 X0.1S0F5000
; Scan @ 4000.002 mm/min, 70% power
M8
G0 X-2.259Y0.02
; Layer C02
G1 X1.667F4000S0
G1 X0.25S700
G1 X1.14S0
G1 X0.269S700
G1 X1.667S0
G1 X-0.021Y0.05S0
G1 X-1.667S0
G1 X-0.268S700
G1 X-1.102S0
G1 X-0.249S700
G1 X-1.667S0
G1 X0.019Y0.05S0
G1 X1.667S0
G1 X0.249S700
G1 X1.064S0
G1 X0.267S700
G1 X1.667S0
G1 X-0.021Y0.05S0
G1 X-1.667S0
G1 X-0.265S700
G1 X-1.027S0
G1 X-0.248S700
G1 X-1.666S0
G1 X0.019Y0.05S0
G1 X1.666S0
G1 X0.247S700
G1 X0.99S0
G1 X0.264S700
G1 X1.667S0
G1 X-0.021Y0.05S0
G1 X-1.666S0
G1 X-0.264S700
G1 X-0.952S0
G1 X-0.245S700
G1 X-1.667S0
G1 X0.019Y0.05S0
G1 X1.667S0
G1 X0.244S700
G1 X0.915S0
G1 X0.262S700
G1 X1.667S0
G1 X-0.021Y0.05S0
G1 X-1.666S0
G1 X-0.261S700
G1 X-0.878S0
G1 X-0.243S700
G1 X-1.667S0
G1 X0.02Y0.05S0
G1 X1.666S0
G1 X0.243S700
G1 X0.84S0
G1 X0.259S700
G1 X1.667S0
G1 X-0.021Y0.05S0
G1 X-1.666S0
G1 X-0.259S700
G1 X-0.802S0
G1 X-0.242S700
G1 X-1.666S0
G1 X0.019Y0.05S0
G1 X1.667S0
G1 X0.24S700
G1 X0.765S0
G1 X0.257S700
G1 X1.667S0
G1 X-0.021Y0.05S0
G1 X-1.666S0
G1 X-1.223S700
G1 X-1.667S0
G1 X0.019Y0.05S0
G1 X1.667S0
G1 X1.183S700
G1 X1.667S0
G1 X-0.021Y0.05S0
G1 X-1.666S0
G1 X-1.144S700
G1 X-1.666S0
G1 X0.019Y0.05S0
G1 X1.666S0
G1 X1.104S700
G1 X1.667S0
G1 X-0.021Y0.05S0
G1 X-1.666S0
G1 X-0.25S700
G1 X-0.58S0
G1 X-0.234S700
G1 X-1.667S0
G1 X0.019Y0.05S0
G1 X1.667S0
G1 X0.233S700
G1 X0.543S0
G1 X0.248S700
G1 X1.667S0
G1 X-0.02Y0.05S0
G1 X-1.667S0
G1 X-0.247S700
G1 X-0.505S0
G1 X-0.233S700
G1 X-1.667S0
G1 X0.02Y0.05S0
G1 X1.666S0
G1 X0.233S700
G1 X0.467S0
G1 X0.245S700
G1 X1.667S0
G1 X-0.02Y0.05S0
G1 X-1.667S0
G1 X-0.244S700
G1 X-0.43S0
G1 X-0.232S700
G1 X-1.666S0
G1 X0.019Y0.05S0
G1 X1.667S0
G1 X0.231S700
G1 X0.392S0
G1 X0.242S700
G1 X1.667S0
G1 X-0.02Y0.05S0
G1 X-1.667S0
G1 X-0.241S700
G1 X-0.354S0
G1 X-0.231S700
G1 X-1.667S0
G1 X0.019Y0.05S0
G1 X1.667S0
G1 X0.231S700
G1 X0.317S0
G1 X0.239S700
G1 X1.666S0
G1 X-0.02Y0.05S0
G1 X-1.667S0
G1 X-0.237S700
G1 X-0.28S0
G1 X-0.23S700
G1 X-1.666S0
G1 X0.019Y0.05S0
G1 X1.666S0
G1 X0.23S700
G1 X0.243S0
G1 X0.235S700
G1 X1.666S0
G1 X-0.02Y0.05S0
G1 X-1.667S0
G1 X-0.232S700
G1 X-0.207S0
G1 X-0.228S700
G1 X-1.667S0
G1 X0.019Y0.05S0
G1 X1.667S0
G1 X0.226S700
G1 X0.171S0
G1 X0.231S700
G1 X1.666S0
G1 X-0.02Y0.05S0
G1 X-1.667S0
G1 X-0.228S700
G1 X-0.137S0
G1 X-0.223S700
G1 X-1.667S0
G1 X0.02Y0.05S0
G1 X1.666S0
G1 X0.22S700
G1 X0.103S0
G1 X0.226S700
G1 X1.666S0
G1 X-0.02Y0.05S0
G1 X-1.667S0
G1 X-0.222S700
G1 X-0.073S0
G1 X-0.214S700
G1 X-1.666S0
G1 X0.019Y0.05S0
G1 X1.667S0
G1 X0.206S700
G1 X0.045S0
G1 X0.218S700
G1 X1.666S0
G1 X-0.02Y0.05S0
G1 X-1.667S0
G1 X-0.212S700
G1 X-0.018S0
G1 X-0.199S700
G1 X-1.667S0
G1 X0.019Y0.05S0
G1 X1.667S0
G1 X0.39S700
G1 X1.667S0
G1 X-0.021Y0.05S0
G1 X-1.667S0
G1 X-0.35S700
G1 X-1.666S0
G1 X0.019Y0.05S0
G1 X1.666S0
G1 X0.311S700
G1 X1.667S0
G1 X-0.021Y0.05S0
G1 X-1.667S0
G1 X-0.27S700
G1 X-1.667S0
M9
G1 S0
M5
; return to starting pos
G0 X0.987Y-1.77
M2
