; LightBurn 1.2.01
; GRBL device profile, current position
; Bounds: X-1.67 Y0.01 to X3.01 Y1.77
G00 G17 G40 G21 G54
G91
M4
; Cut @ 4999.998 mm/min, 0% power
M8
G0 X0.313Y0.006
; Layer Lim
G1 X0.1S0F5000
; Scan @ 4000.002 mm/min, 70% power
M8
G0 X-2.08Y0.017
; Layer C02
G1 X1.667F4000S0
G1 X0.896S700
G1 X1.667S0
G1 X0.159Y0.05S0
G1 X-1.667S0
G1 X-1.055S700
G1 X-1.667S0
G1 Y0.05S0
G1 X1.667S0
G1 X1.154S700
G1 X1.667S0
G1 X0.049Y0.05S0
G1 X-1.667S0
G1 X-1.203S700
G1 X-1.667S0
G1 Y0.05S0
G1 X1.667S0
G1 X0.237S700
G1 X0.537S0
G1 X0.478S700
G1 X1.666S0
G1 X0.033Y0.05S0
G1 X-1.667S0
G1 X-0.312S700
G1 X-0.735S0
G1 X-0.237S700
G1 X-1.667S0
G1 Y0.05S0
G1 X1.667S0
G1 X0.237S700
G1 X0.798S0
G1 X0.27S700
G1 X1.667S0
G1 X0.021Y0.05S0
G1 X-1.667S0
G1 X-0.261S700
G1 X-0.828S0
G1 X-0.237S700
G1 X-1.667S0
G1 Y0.05S0
G1 X1.667S0
G1 X0.237S700
G1 X0.854S0
G1 X0.252S700
G1 X1.666S0
G1 Y0.05S0
G1 X-1.665S0
G1 X-0.246S700
G1 X-0.861S0
G1 X-0.237S700
G1 X-1.667S0
G1 Y0.05S0
G1 X1.667S0
G1 X0.237S700
G1 X0.869S0
G1 X0.239S700
G1 X1.666S0
G1 Y0.05S0
G1 X-1.666S0
G1 X-0.248S700
G1 X-0.86S0
G1 X-0.237S700
G1 X-1.667S0
G1 Y0.05S0
G1 X1.667S0
G1 X0.237S700
G1 X0.851S0
G1 X0.251S700
G1 X1.667S0
G1 X-0.016Y0.05S0
G1 X-1.667S0
G1 X-0.259S700
G1 X-0.827S0
G1 X-0.237S700
G1 X-1.667S0
G1 Y0.05S0
G1 X1.667S0
G1 X0.237S700
G1 X0.793S0
G1 X0.277S700
G1 X1.667S0
G1 X-0.034Y0.05S0
G1 X-1.666S0
G1 X-0.306S700
G1 X-0.731S0
G1 X-0.237S700
G1 X-1.667S0
G1 Y0.05S0
G1 X1.667S0
G1 X0.237S700
G1 X0.577S0
G1 X0.425S700
G1 X1.667S0
G1 X-0.058Y0.05S0
G1 X-1.667S0
G1 X-1.181S700
G1 X-1.667S0
G1 Y0.05S0
G1 X1.667S0
G1 X1.103S700
G1 X1.666S0
G1 X-0.065Y0.05S0
G1 X-1.667S0
G1 X-1.037S700
G1 X-1.667S0
G1 Y0.05S0
G1 X1.667S0
G1 X1.114S700
G1 X1.666S0
G1 X0.045Y0.05S0
G1 X-1.667S0
G1 X-0.28S700
G1 X-0.641S0
G1 X-0.237S700
G1 X-1.667S0
G1 Y0.05S0
G1 X1.667S0
G1 X0.237S700
G1 X0.718S0
G1 X0.242S700
G1 X1.667S0
G1 X0.028Y0.05S0
G1 X-1.667S0
G1 X-0.236S700
G1 X-0.752S0
G1 X-0.237S700
G1 X-1.667S0
G1 Y0.05S0
G1 X1.667S0
G1 X0.237S700
G1 X0.778S0
G1 X0.226S700
G1 X1.667S0
G1 X0.015Y0.05S0
G1 X-1.666S0
G1 X-0.233S700
G1 X-0.787S0
G1 X-0.237S700
G1 X-1.667S0
G1 Y0.05S0
G1 X1.667S0
G1 X0.237S700
G1 X0.793S0
G1 X0.23S700
G1 X1.667S0
G1 Y0.05S0
G1 X-1.669S0
G1 X-0.232S700
G1 X-0.789S0
G1 X-0.237S700
G1 X-1.667S0
G1 Y0.05S0
G1 X1.667S0
G1 X0.237S700
G1 X0.772S0
G1 X0.246S700
G1 X1.667S0
G1 X-0.017Y0.05S0
G1 X-1.667S0
G1 X-0.256S700
G1 X-0.745S0
G1 X-0.237S700
G1 X-1.667S0
G1 Y0.05S0
G1 X1.667S0
G1 X0.237S700
G1 X0.697S0
G1 X0.283S700
G1 X1.666S0
G1 X-0.021Y0.05S0
G1 X-1.667S0
G1 X-0.447S700
G1 X-0.511S0
G1 X-0.237S700
G1 X-1.667S0
G1 Y0.05S0
G1 X1.667S0
G1 X1.148S700
G1 X1.666S0
G1 X-0.048Y0.05S0
G1 X-1.666S0
G1 X-1.1S700
G1 X-1.667S0
G1 Y0.05S0
G1 X1.667S0
G1 X1.022S700
G1 X1.667S0
G1 X-0.115Y0.05S0
G1 X-1.667S0
G1 X-0.907S700
G1 X-1.667S0
M9
G1 S0
M5
; return to starting pos
G0 X1.667Y-1.773
M2
