; LightBurn 1.2.01
; GRBL device profile, current position
; Bounds: X-1.67 Y0.01 to X3.24 Y1.86
G00 G17 G40 G21 G54
G91
M4
; Cut @ 4999.998 mm/min, 0% power
M8
G0 X0.374Y0.035
; Layer Lim
G1 X0.1S0F5000
; Scan @ 4000.002 mm/min, 70% power
M8
G0 X-1.383Y-0.03
; Layer C02
G1 X1.666F4000S0
G1 X0.106S700
G1 X1.666S0
G1 X0.245Y0.05S0
G1 X-1.667S0
G1 X-0.574S700
G1 X-1.667S0
G1 X-0.116Y0.05S0
G1 X1.667S0
G1 X0.809S700
G1 X1.666S0
G1 X0.071Y0.05S0
G1 X-1.667S0
G1 X-0.957S700
G1 X-1.667S0
G1 X-0.063Y0.05S0
G1 X1.667S0
G1 X0.552S700
G1 X0.043S0
G1 X0.495S700
G1 X1.667S0
G1 X0.042Y0.05S0
G1 X-1.667S0
G1 X-0.355S700
G1 X-0.445S0
G1 X-0.366S700
G1 X-1.667S0
G1 X-0.034Y0.05S0
G1 X1.667S0
G1 X0.296S700
G1 X0.631S0
G1 X0.311S700
G1 X1.667S0
G1 X0.038Y0.05S0
G1 X-1.667S0
G1 X-0.293S700
G1 X-0.741S0
G1 X-0.276S700
G1 X-1.667S0
G1 X-0.034Y0.05S0
G1 X1.667S0
G1 X0.255S700
G1 X0.84S0
G1 X0.28S700
G1 X1.667S0
G1 X0.018Y0.05S0
G1 X-1.667S0
G1 X-0.262S700
G1 X-0.91S0
G1 X-0.25S700
G1 X-1.667S0
G1 X-0.017Y0.05S0
G1 X1.666S0
G1 X0.239S700
G1 X0.963S0
G1 X0.256S700
G1 X1.666S0
G1 X0.018Y0.05S0
G1 X-1.667S0
G1 X-0.25S700
G1 X-1.015S0
G1 X-0.227S700
G1 X-1.666S0
G1 X-0.017Y0.05S0
G1 X1.666S0
G1 X0.231S700
G1 X1.042S0
G1 X0.243S700
G1 X1.667S0
G1 X-0.198Y0.05S0
G1 X-1.667S0
G1 X-0.031S700
G1 X-1.066S0
G1 X-0.238S700
G1 X-1.666S0
G1 X-0.018Y0.05S0
G1 X1.667S0
G1 X0.244S700
G1 X1.666S0
G1 X-0.008Y0.05S0
G1 X-1.667S0
G1 X-0.243S700
G1 X-1.667S0
G1 Y0.05S0
G1 X1.664S0
G1 X0.239S700
G1 X1.667S0
G1 X-0.006Y0.05S0
G1 X-1.667S0
G1 X-0.236S700
G1 X-1.667S0
G1 Y0.05S0
G1 X1.663S0
G1 X0.233S700
G1 X1.667S0
G1 Y0.05S0
G1 X-1.665S0
G1 X-0.238S700
G1 X-1.666S0
G1 Y0.05S0
G1 X1.663S0
G1 X0.244S700
G1 X1.667S0
G1 Y0.05S0
G1 X-1.664S0
G1 X-0.241S700
G1 X-1.667S0
G1 X0.01Y0.05S0
G1 X1.667S0
G1 X0.237S700
G1 X1.666S0
G1 X0.014Y0.05S0
G1 X-1.667S0
G1 X-0.239S700
G1 X-1.667S0
G1 X0.01Y0.05S0
G1 X1.667S0
G1 X0.242S700
G1 X1.667S0
G1 X0.013Y0.05S0
G1 X-1.666S0
G1 X-0.245S700
G1 X-1.667S0
G1 X0.01Y0.05S0
G1 X1.667S0
G1 X0.255S700
G1 X0.996S0
G1 X0.123S700
G1 X1.667S0
G1 X0.113Y0.05S0
G1 X-1.667S0
G1 X-0.258S700
G1 X-0.949S0
G1 X-0.26S700
G1 X-1.667S0
G1 X0.024Y0.05S0
G1 X1.667S0
G1 X0.261S700
G1 X0.902S0
G1 X0.261S700
G1 X1.666S0
G1 X-0.019Y0.05S0
G1 X-1.667S0
G1 X-0.272S700
G1 X-0.835S0
G1 X-0.273S700
G1 X-1.667S0
G1 X0.034Y0.05S0
G1 X1.667S0
G1 X0.297S700
G1 X0.733S0
G1 X0.294S700
G1 X1.667S0
G1 X-0.037Y0.05S0
G1 X-1.667S0
G1 X-0.3S700
G1 X-0.632S0
G1 X-0.318S700
G1 X-1.666S0
G1 X0.041Y0.05S0
G1 X1.667S0
G1 X0.379S700
G1 X0.418S0
G1 X0.375S700
G1 X1.667S0
G1 X-0.045Y0.05S0
G1 X-1.667S0
G1 X-1.072S700
G1 X-1.667S0
G1 X0.059Y0.05S0
G1 X1.666S0
G1 X0.953S700
G1 X1.667S0
G1 X-0.069Y0.05S0
G1 X-1.667S0
G1 X-0.801S700
G1 X-1.666S0
G1 X0.108Y0.05S0
G1 X1.667S0
G1 X0.584S700
G1 X1.666S0
G1 X-0.187Y0.05S0
G1 X-1.667S0
G1 X-0.195S700
G1 X-1.667S0
M9
G1 S0
M5
; return to starting pos
G0 X0.921Y-1.855
M2
