; LightBurn 1.2.01
; GRBL device profile, current position
; Bounds: X-1.67 Y0.01 to X3.15 Y1.78
G00 G17 G40 G21 G54
G91
M4
; Cut @ 4999.998 mm/min, 0% power
M8
G0 X0.304Y0.006
; Layer Lim
G1 X0.1S0F5000
; Scan @ 4000.002 mm/min, 70% power
M8
G0 X-2.071Y0.019
; Layer C02
G1 X1.667F4000S0
G1 X0.866S700
G1 X1.666S0
G1 X0.164Y0.05S0
G1 X-1.666S0
G1 X-1.03S700
G1 X-1.667S0
G1 Y0.05S0
G1 X1.667S0
G1 X1.133S700
G1 X1.666S0
G1 X0.065Y0.05S0
G1 X-1.667S0
G1 X-1.197S700
G1 X-1.667S0
G1 Y0.05S0
G1 X1.667S0
G1 X0.237S700
G1 X0.566S0
G1 X0.456S700
G1 X1.667S0
G1 X0.037Y0.05S0
G1 X-1.667S0
G1 X-0.354S700
G1 X-0.705S0
G1 X-0.237S700
G1 X-1.667S0
G1 Y0.05S0
G1 X1.667S0
G1 X0.237S700
G1 X0.786S0
G1 X0.31S700
G1 X1.666S0
G1 X0.036Y0.05S0
G1 X-1.667S0
G1 X-0.296S700
G1 X-0.835S0
G1 X-0.237S700
G1 X-1.667S0
G1 Y0.05S0
G1 X1.667S0
G1 X0.237S700
G1 X0.88S0
G1 X0.269S700
G1 X1.667S0
G1 X0.018Y0.05S0
G1 X-1.666S0
G1 X-0.259S700
G1 X-0.909S0
G1 X-0.237S700
G1 X-1.667S0
G1 Y0.05S0
G1 X1.667S0
G1 X0.237S700
G1 X0.929S0
G1 X0.257S700
G1 X1.667S0
G1 X0.014Y0.05S0
G1 X-1.667S0
G1 X-0.251S700
G1 X-0.949S0
G1 X-0.237S700
G1 X-1.667S0
G1 Y0.05S0
G1 X1.667S0
G1 X0.237S700
G1 X0.962S0
G1 X0.248S700
G1 X1.667S0
G1 X0.01Y0.05S0
G1 X-1.667S0
G1 X-0.246S700
G1 X-0.974S0
G1 X-0.237S700
G1 X-1.667S0
G1 Y0.05S0
G1 X1.667S0
G1 X0.237S700
G1 X0.986S0
G1 X0.244S700
G1 X1.667S0
G1 X0.01Y0.05S0
G1 X-1.667S0
G1 X-0.248S700
G1 X-0.992S0
G1 X-0.237S700
G1 X-1.667S0
G1 Y0.05S0
G1 X1.667S0
G1 X0.237S700
G1 X0.996S0
G1 X0.247S700
G1 X1.667S0
G1 Y0.05S0
G1 X-1.667S0
G1 X-0.242S700
G1 X-1.001S0
G1 X-0.237S700
G1 X-1.667S0
G1 Y0.05S0
G1 X1.667S0
G1 X0.237S700
G1 X1S0
G1 X0.242S700
G1 X1.667S0
G1 Y0.05S0
G1 X-1.668S0
G1 X-0.244S700
G1 X-0.997S0
G1 X-0.237S700
G1 X-1.667S0
G1 Y0.05S0
G1 X1.667S0
G1 X0.237S700
G1 X0.994S0
G1 X0.247S700
G1 X1.667S0
G1 X-0.009Y0.05S0
G1 X-1.666S0
G1 X-0.244S700
G1 X-0.989S0
G1 X-0.237S700
G1 X-1.667S0
G1 Y0.05S0
G1 X1.667S0
G1 X0.237S700
G1 X0.981S0
G1 X0.241S700
G1 X1.666S0
G1 X-0.011Y0.05S0
G1 X-1.666S0
G1 X-0.237S700
G1 X-0.974S0
G1 X-0.237S700
G1 X-1.667S0
G1 Y0.05S0
G1 X1.667S0
G1 X0.237S700
G1 X0.967S0
G1 X0.232S700
G1 X1.667S0
G1 X-0.011Y0.05S0
G1 X-1.667S0
G1 X-0.245S700
G1 X-0.943S0
G1 X-0.237S700
G1 X-1.667S0
G1 Y0.05S0
G1 X1.667S0
G1 X0.237S700
G1 X0.915S0
G1 X0.252S700
G1 X1.666S0
G1 X-0.022Y0.05S0
G1 X-1.667S0
G1 X-0.257S700
G1 X-0.887S0
G1 X-0.237S700
G1 X-1.667S0
G1 Y0.05S0
G1 X1.667S0
G1 X0.237S700
G1 X0.839S0
G1 X0.282S700
G1 X1.667S0
G1 X-0.023Y0.05S0
G1 X-1.667S0
G1 X-0.317S700
G1 X-0.781S0
G1 X-0.237S700
G1 X-1.667S0
G1 Y0.05S0
G1 X1.667S0
G1 X0.237S700
G1 X0.701S0
G1 X0.365S700
G1 X1.667S0
G1 X-0.049Y0.05S0
G1 X-1.666S0
G1 X-0.459S700
G1 X-0.559S0
G1 X-0.237S700
G1 X-1.667S0
G1 Y0.05S0
G1 X1.667S0
G1 X1.206S700
G1 X1.667S0
G1 X-0.067Y0.05S0
G1 X-1.667S0
G1 X-1.139S700
G1 X-1.667S0
G1 Y0.05S0
G1 X1.667S0
G1 X1.053S700
G1 X1.667S0
G1 X-0.139Y0.05S0
G1 X-1.666S0
G1 X-0.915S700
G1 X-1.667S0
M9
G1 S0
M5
; return to starting pos
G0 X1.667Y-1.775
M2
