; LightBurn 1.2.01
; GRBL device profile, current position
; Bounds: X-1.67 Y0.01 to X3.33 Y1.86
G00 G17 G40 G21 G54
G91
M4
; Cut @ 4999.998 mm/min, 0% power
M8
G0 X0.368Y0.032
; Layer Lim
G1 X0.1S0F5000
; Scan @ 4000.002 mm/min, 70% power
M8
G0 X-1.277Y-0.027
; Layer C02
G1 X1.667F4000S0
G1 X0.107S700
G1 X1.667S0
G1 X0.253Y0.05S0
G1 X-1.666S0
G1 X-0.622S700
G1 X-1.666S0
G1 X-0.127Y0.05S0
G1 X1.667S0
G1 X0.896S700
G1 X1.667S0
G1 X0.095Y0.05S0
G1 X-1.667S0
G1 X-1.083S700
G1 X-1.666S0
G1 X-0.067Y0.05S0
G1 X1.667S0
G1 X1.227S700
G1 X1.667S0
G1 X0.079Y0.05S0
G1 X-1.667S0
G1 X-0.466S700
G1 X-0.466S0
G1 X-0.421S700
G1 X-1.666S0
G1 X-0.047Y0.05S0
G1 X1.667S0
G1 X0.367S700
G1 X0.678S0
G1 X0.395S700
G1 X1.667S0
G1 Y0.05S0
G1 X-1.667S0
G1 X-0.31S700
G1 X-0.852S0
G1 X-0.313S700
G1 X-1.666S0
G1 X-0.032Y0.05S0
G1 X1.667S0
G1 X0.271S700
G1 X1.003S0
G1 X0.232S700
G1 X1.667S0
G1 Y0.05S0
G1 X-1.667S0
G1 X-0.232S700
G1 X-1.03S0
G1 X-0.276S700
G1 X-1.667S0
G1 X-0.024Y0.05S0
G1 X1.667S0
G1 X0.272S700
G1 X1.058S0
G1 X0.232S700
G1 X1.667S0
G1 Y0.05S0
G1 X-1.667S0
G1 X-0.232S700
G1 X-1.085S0
G1 X-0.265S700
G1 X-1.667S0
G1 X-0.02Y0.05S0
G1 X1.666S0
G1 X0.258S700
G1 X1.113S0
G1 X0.232S700
G1 X1.667S0
G1 Y0.05S0
G1 X-1.667S0
G1 X-0.232S700
G1 X-1.138S0
G1 X-0.25S700
G1 X-1.667S0
G1 X-0.01Y0.05S0
G1 X1.666S0
G1 X0.253S700
G1 X1.146S0
G1 X0.232S700
G1 X1.667S0
G1 Y0.05S0
G1 X-1.667S0
G1 X-0.758S700
G1 X-0.629S0
G1 X-0.254S700
G1 X-1.667S0
G1 X-0.011Y0.05S0
G1 X1.667S0
G1 X0.257S700
G1 X0.637S0
G1 X0.758S700
G1 X1.667S0
G1 Y0.05S0
G1 X-1.667S0
G1 X-0.758S700
G1 X-0.646S0
G1 X-0.251S700
G1 X-1.667S0
G1 Y0.05S0
G1 X1.665S0
G1 X0.245S700
G1 X0.654S0
G1 X0.758S700
G1 X1.667S0
G1 X-1.413Y0.05S0
G1 X-1.667S0
G1 X-0.246S700
G1 X-1.666S0
G1 Y0.05S0
G1 X1.667S0
G1 X0.254S700
G1 X1.666S0
G1 X0.009Y0.05S0
G1 X-1.667S0
G1 X-0.255S700
G1 X-1.667S0
G1 X0.007Y0.05S0
G1 X1.667S0
G1 X0.256S700
G1 X1.667S0
G1 X0.008Y0.05S0
G1 X-1.667S0
G1 X-0.257S700
G1 X-1.667S0
G1 X0.014Y0.05S0
G1 X1.666S0
G1 X0.253S700
G1 X1.666S0
G1 X0.025Y0.05S0
G1 X-1.667S0
G1 X-0.26S700
G1 X-1.667S0
G1 X0.017Y0.05S0
G1 X1.667S0
G1 X0.27S700
G1 X1.063S0
G1 X0.171S700
G1 X1.667S0
G1 X0.048Y0.05S0
G1 X-1.666S0
G1 X-0.241S700
G1 X-1.015S0
G1 X-0.279S700
G1 X-1.667S0
G1 X0.028Y0.05S0
G1 X1.666S0
G1 X0.28S700
G1 X0.967S0
G1 X0.245S700
G1 X1.667S0
G1 X-0.015Y0.05S0
G1 X-1.667S0
G1 X-0.267S700
G1 X-0.903S0
G1 X-0.279S700
G1 X-1.667S0
G1 X0.028Y0.05S0
G1 X1.667S0
G1 X0.312S700
G1 X0.8S0
G1 X0.284S700
G1 X1.666S0
G1 X-0.031Y0.05S0
G1 X-1.666S0
G1 X-0.307S700
G1 X-0.671S0
G1 X-0.337S700
G1 X-1.666S0
G1 X0.054Y0.05S0
G1 X1.667S0
G1 X0.383S700
G1 X0.452S0
G1 X0.394S700
G1 X1.666S0
G1 X-0.052Y0.05S0
G1 X-1.667S0
G1 X-1.122S700
G1 X-1.666S0
G1 X0.054Y0.05S0
G1 X1.667S0
G1 X1.014S700
G1 X1.667S0
G1 X-0.085Y0.05S0
G1 X-1.667S0
G1 X-0.828S700
G1 X-1.666S0
G1 X0.114Y0.05S0
G1 X1.666S0
G1 X0.587S700
G1 X1.667S0
G1 X-0.207Y0.05S0
G1 X-1.666S0
G1 X-0.081S700
G1 X-1.667S0
M9
G1 S0
M5
; return to starting pos
G0 X0.767Y-1.855
M2
