; LightBurn 1.2.01
; GRBL device profile, current position
; Bounds: X-1.67 Y0.03 to X2.65 Y1.79
G00 G17 G40 G21 G54
G91
M4
; Cut @ 4999.998 mm/min, 0% power
M8
G0 X0.426Y0.032
; Layer Lim
G1 X0.1S0F5000
; Scan @ 4000.002 mm/min, 70% power
M8
G0 X-1.909Y0.004
; Layer C02
G1 X1.666F4000S0
G1 X0.396S700
G1 X1.666S0
G1 X0.106Y0.05S0
G1 X-1.666S0
G1 X-0.602S700
G1 X-1.667S0
G1 X-0.05Y0.05S0
G1 X1.667S0
G1 X0.714S700
G1 X1.667S0
G1 X0.04Y0.05S0
G1 X-1.666S0
G1 X-0.799S700
G1 X-1.667S0
G1 X-0.028Y0.05S0
G1 X1.666S0
G1 X0.314S700
G1 X0.216S0
G1 X0.329S700
G1 X1.667S0
G1 X0.024Y0.05S0
G1 X-1.667S0
G1 X-0.279S700
G1 X-0.368S0
G1 X-0.264S700
G1 X-1.666S0
G1 X-0.013Y0.05S0
G1 X1.666S0
G1 X0.251S700
G1 X0.435S0
G1 X0.253S700
G1 X1.666S0
G1 X0.011Y0.05S0
G1 X-1.667S0
G1 X-0.238S700
G1 X-0.483S0
G1 X-0.241S700
G1 X-1.667S0
G1 X-0.005Y0.05S0
G1 X1.666S0
G1 X0.229S700
G1 X0.516S0
G1 X0.229S700
G1 X1.666S0
G1 Y0.05S0
G1 X-1.663S0
G1 X-0.222S700
G1 X-0.531S0
G1 X-0.223S700
G1 X-1.667S0
G1 Y0.05S0
G1 X1.667S0
G1 X0.217S700
G1 X0.535S0
G1 X0.228S700
G1 X1.666S0
G1 Y0.05S0
G1 X-1.663S0
G1 X-0.235S700
G1 X-1.667S0
G1 Y0.05S0
G1 X1.666S0
G1 X0.237S700
G1 X1.667S0
G1 Y0.05S0
G1 X-1.667S0
G1 X-0.237S700
G1 X-1.666S0
G1 Y0.05S0
G1 X1.666S0
G1 X0.237S700
G1 X1.667S0
G1 Y0.05S0
G1 X-1.667S0
G1 X-0.237S700
G1 X-1.666S0
G1 Y0.05S0
G1 X1.666S0
G1 X0.237S700
G1 X1.667S0
G1 Y0.05S0
G1 X-1.667S0
G1 X-0.237S700
G1 X-1.666S0
G1 Y0.05S0
G1 X1.666S0
G1 X0.237S700
G1 X1.667S0
G1 Y0.05S0
G1 X-1.667S0
G1 X-0.237S700
G1 X-1.666S0
G1 Y0.05S0
G1 X1.666S0
G1 X0.237S700
G1 X1.667S0
G1 Y0.05S0
G1 X-1.667S0
G1 X-0.237S700
G1 X-1.666S0
G1 Y0.05S0
G1 X1.666S0
G1 X0.237S700
G1 X1.667S0
G1 Y0.05S0
G1 X-1.667S0
G1 X-0.237S700
G1 X-1.666S0
G1 Y0.05S0
G1 X1.666S0
G1 X0.237S700
G1 X1.667S0
G1 Y0.05S0
G1 X-1.667S0
G1 X-0.237S700
G1 X-1.666S0
G1 Y0.05S0
G1 X1.666S0
G1 X0.237S700
G1 X1.667S0
G1 Y0.05S0
G1 X-1.667S0
G1 X-0.237S700
G1 X-1.666S0
G1 Y0.05S0
G1 X1.666S0
G1 X0.237S700
G1 X1.667S0
G1 Y0.05S0
G1 X-1.667S0
G1 X-0.237S700
G1 X-1.666S0
G1 Y0.05S0
G1 X1.666S0
G1 X0.237S700
G1 X1.667S0
G1 Y0.05S0
G1 X-1.667S0
G1 X-0.237S700
G1 X-1.666S0
G1 Y0.05S0
G1 X1.666S0
G1 X0.237S700
G1 X1.667S0
G1 Y0.05S0
G1 X-1.667S0
G1 X-0.237S700
G1 X-1.666S0
G1 Y0.05S0
G1 X1.666S0
G1 X0.237S700
G1 X1.667S0
G1 Y0.05S0
G1 X-1.667S0
G1 X-0.237S700
G1 X-1.666S0
M9
G1 S0
M5
; return to starting pos
G0 X0.918Y-1.786
M2
