; LightBurn 1.2.01
; GRBL device profile, current position
; Bounds: X-1.67 Y0 to X3.13 Y1.77
G00 G17 G40 G21 G54
G91
M4
; Cut @ 4999.998 mm/min, 0% power
M8
G0 X0.313Y0
; Layer Lim
G1 X0.1S0F5000
; Scan @ 4000.002 mm/min, 70% power
M8
G0 X-2.08Y0.02
; Layer C02
G1 X1.667F4000S0
G1 X0.237S700
G1 X0.916S0
G1 X0.312S700
G1 X1.667S0
G1 X-0.037Y0.05S0
G1 X-1.667S0
G1 X-0.31S700
G1 X-0.881S0
G1 X-0.237S700
G1 X-1.667S0
G1 Y0.05S0
G1 X1.667S0
G1 X0.237S700
G1 X0.846S0
G1 X0.309S700
G1 X1.666S0
G1 X-0.037Y0.05S0
G1 X-1.666S0
G1 X-0.307S700
G1 X-0.811S0
G1 X-0.237S700
G1 X-1.667S0
G1 Y0.05S0
G1 X1.667S0
G1 X0.237S700
G1 X0.776S0
G1 X0.305S700
G1 X1.667S0
G1 X-0.037Y0.05S0
G1 X-1.667S0
G1 X-0.304S700
G1 X-0.74S0
G1 X-0.237S700
G1 X-1.667S0
G1 Y0.05S0
G1 X1.667S0
G1 X0.237S700
G1 X0.705S0
G1 X0.302S700
G1 X1.667S0
G1 X-0.037Y0.05S0
G1 X-1.666S0
G1 X-0.301S700
G1 X-0.67S0
G1 X-0.237S700
G1 X-1.667S0
G1 Y0.05S0
G1 X1.667S0
G1 X0.237S700
G1 X0.635S0
G1 X0.299S700
G1 X1.666S0
G1 X-0.036Y0.05S0
G1 X-1.667S0
G1 X-0.297S700
G1 X-0.6S0
G1 X-0.237S700
G1 X-1.667S0
G1 Y0.05S0
G1 X1.667S0
G1 X0.237S700
G1 X0.565S0
G1 X0.295S700
G1 X1.667S0
G1 X-0.037Y0.05S0
G1 X-1.667S0
G1 X-0.294S700
G1 X-0.529S0
G1 X-0.237S700
G1 X-1.667S0
G1 Y0.05S0
G1 X1.667S0
G1 X0.237S700
G1 X0.494S0
G1 X0.292S700
G1 X1.667S0
G1 X-0.037Y0.05S0
G1 X-1.666S0
G1 X-0.291S700
G1 X-0.408S0
G1 X-0.288S700
G1 X-1.667S0
G1 Y0.05S0
G1 X1.667S0
G1 X0.339S700
G1 X0.322S0
G1 X0.289S700
G1 X1.666S0
G1 X-0.036Y0.05S0
G1 X-1.667S0
G1 X-0.287S700
G1 X-0.236S0
G1 X-0.39S700
G1 X-1.667S0
G1 Y0.05S0
G1 X1.667S0
G1 X0.442S700
G1 X0.148S0
G1 X0.286S700
G1 X1.667S0
G1 X-0.037Y0.05S0
G1 X-1.667S0
G1 X-0.284S700
G1 X-0.062S0
G1 X-0.493S700
G1 X-1.667S0
G1 Y0.05S0
G1 X1.667S0
G1 X0.237S700
G1 X0.018S0
G1 X0.548S700
G1 X1.666S0
G1 X-0.037Y0.05S0
G1 X-1.666S0
G1 X-0.461S700
G1 X-0.068S0
G1 X-0.237S700
G1 X-1.667S0
G1 Y0.05S0
G1 X1.667S0
G1 X0.237S700
G1 X0.118S0
G1 X0.374S700
G1 X1.667S0
G1 X-0.028Y0.05S0
G1 X-1.667S0
G1 X-0.296S700
G1 X-0.168S0
G1 X-0.237S700
G1 X-1.667S0
G1 Y0.05S0
G1 X1.667S0
G1 X0.237S700
G1 X0.218S0
G1 X0.298S700
G1 X1.667S0
G1 X0.052Y0.05S0
G1 X-1.667S0
G1 X-0.3S700
G1 X-0.268S0
G1 X-0.237S700
G1 X-1.667S0
G1 Y0.05S0
G1 X1.667S0
G1 X0.237S700
G1 X0.318S0
G1 X0.302S700
G1 X1.666S0
G1 X0.052Y0.05S0
G1 X-1.666S0
G1 X-0.304S700
G1 X-0.368S0
G1 X-0.237S700
G1 X-1.667S0
G1 Y0.05S0
G1 X1.667S0
G1 X0.237S700
G1 X0.418S0
G1 X0.305S700
G1 X1.667S0
G1 X0.052Y0.05S0
G1 X-1.667S0
G1 X-0.307S700
G1 X-0.468S0
G1 X-0.237S700
G1 X-1.667S0
G1 Y0.05S0
G1 X1.667S0
G1 X0.237S700
G1 X0.518S0
G1 X0.309S700
G1 X1.667S0
G1 X0.051Y0.05S0
G1 X-1.666S0
G1 X-0.31S700
G1 X-0.569S0
G1 X-0.237S700
G1 X-1.667S0
G1 Y0.05S0
G1 X1.667S0
G1 X0.237S700
G1 X0.619S0
G1 X0.311S700
G1 X1.667S0
G1 X0.052Y0.05S0
G1 X-1.667S0
G1 X-0.313S700
G1 X-0.669S0
G1 X-0.237S700
G1 X-1.667S0
G1 Y0.05S0
G1 X1.667S0
G1 X0.237S700
G1 X0.719S0
G1 X0.315S700
G1 X1.667S0
G1 X0.051Y0.05S0
G1 X-1.666S0
G1 X-0.317S700
G1 X-0.769S0
G1 X-0.237S700
G1 X-1.667S0
G1 Y0.05S0
G1 X1.667S0
G1 X0.237S700
G1 X0.819S0
G1 X0.319S700
G1 X1.666S0
G1 X0.052Y0.05S0
G1 X-1.667S0
G1 X-0.32S700
G1 X-0.869S0
G1 X-0.237S700
G1 X-1.667S0
M9
G1 S0
M5
; return to starting pos
G0 X1.667Y-1.77
M2
