; LightBurn 1.2.01
; GRBL device profile, current position
; Bounds: X-1.65 Y0 to X3.32 Y2.1
G00 G17 G40 G21 G54
G91
M4
; Cut @ 4999.998 mm/min, 0% power
M8
G0 X0.5Y0
; Layer Lim
G1 X0.1S0F5000
; Scan @ 4000.002 mm/min, 70% power
M8
G0 X-2.248Y0.05
; Layer C02
G1 X1.667F4000S0
G1 X0.25S700
G1 X1.117S0
G1 X0.269S700
G1 X1.666S0
G1 X-0.02Y0.05S0
G1 X-1.667S0
G1 X-0.267S700
G1 X-1.08S0
G1 X-0.249S700
G1 X-1.666S0
G1 X0.019Y0.05S0
G1 X1.667S0
G1 X0.247S700
G1 X1.043S0
G1 X0.266S700
G1 X1.666S0
G1 X-0.02Y0.05S0
G1 X-1.667S0
G1 X-0.265S700
G1 X-1.004S0
G1 X-0.247S700
G1 X-1.667S0
G1 X0.019Y0.05S0
G1 X1.667S0
G1 X0.246S700
G1 X0.967S0
G1 X0.264S700
G1 X1.666S0
G1 X-0.02Y0.05S0
G1 X-1.667S0
G1 X-0.262S700
G1 X-0.93S0
G1 X-0.245S700
G1 X-1.667S0
G1 X0.02Y0.05S0
G1 X1.666S0
G1 X0.244S700
G1 X0.892S0
G1 X0.262S700
G1 X1.666S0
G1 X-0.02Y0.05S0
G1 X-1.667S0
G1 X-0.26S700
G1 X-0.855S0
G1 X-0.242S700
G1 X-1.667S0
G1 X0.019Y0.05S0
G1 X1.667S0
G1 X0.242S700
G1 X0.817S0
G1 X0.259S700
G1 X1.666S0
G1 X-0.02Y0.05S0
G1 X-1.667S0
G1 X-0.257S700
G1 X-0.78S0
G1 X-0.241S700
G1 X-1.667S0
G1 X0.019Y0.05S0
G1 X1.667S0
G1 X1.239S700
G1 X1.667S0
G1 X-0.021Y0.05S0
G1 X-1.667S0
G1 X-1.199S700
G1 X-1.666S0
G1 X0.019Y0.05S0
G1 X1.667S0
G1 X1.159S700
G1 X1.667S0
G1 X-0.021Y0.05S0
G1 X-1.667S0
G1 X-1.119S700
G1 X-1.667S0
G1 X0.019Y0.05S0
G1 X1.667S0
G1 X0.234S700
G1 X0.596S0
G1 X0.25S700
G1 X1.667S0
G1 X-0.021Y0.05S0
G1 X-1.666S0
G1 X-0.249S700
G1 X-0.558S0
G1 X-0.234S700
G1 X-1.667S0
G1 X0.02Y0.05S0
G1 X1.666S0
G1 X0.234S700
G1 X0.52S0
G1 X0.247S700
G1 X1.667S0
G1 X-0.021Y0.05S0
G1 X-1.666S0
G1 X-0.246S700
G1 X-0.483S0
G1 X-0.232S700
G1 X-1.667S0
G1 X0.019Y0.05S0
G1 X1.667S0
G1 X0.232S700
G1 X0.445S0
G1 X0.244S700
G1 X1.667S0
G1 X-0.021Y0.05S0
G1 X-1.666S0
G1 X-0.243S700
G1 X-0.407S0
G1 X-0.232S700
G1 X-1.667S0
G1 X0.019Y0.05S0
G1 X1.667S0
G1 X0.231S700
G1 X0.37S0
G1 X0.241S700
G1 X1.667S0
G1 X-0.021Y0.05S0
G1 X-1.666S0
G1 X-0.24S700
G1 X-0.332S0
G1 X-0.231S700
G1 X-1.666S0
G1 X0.019Y0.05S0
G1 X1.667S0
G1 X0.23S700
G1 X0.295S0
G1 X0.237S700
G1 X1.667S0
G1 X-0.021Y0.05S0
G1 X-1.666S0
G1 X-0.236S700
G1 X-0.257S0
G1 X-0.23S700
G1 X-1.667S0
G1 X0.019Y0.05S0
G1 X1.667S0
G1 X0.229S700
G1 X0.221S0
G1 X0.233S700
G1 X1.667S0
G1 X-0.02Y0.05S0
G1 X-1.667S0
G1 X-0.231S700
G1 X-0.186S0
G1 X-0.227S700
G1 X-1.667S0
G1 X0.02Y0.05S0
G1 X1.666S0
G1 X0.224S700
G1 X0.152S0
G1 X0.228S700
G1 X1.667S0
G1 X-0.02Y0.05S0
G1 X-1.667S0
G1 X-0.227S700
G1 X-0.116S0
G1 X-0.221S700
G1 X-1.667S0
G1 X0.019Y0.05S0
G1 X1.667S0
G1 X0.216S700
G1 X0.085S0
G1 X0.223S700
G1 X1.667S0
G1 X-0.02Y0.05S0
G1 X-1.667S0
G1 X-0.219S700
G1 X-0.057S0
G1 X-0.209S700
G1 X-1.667S0
G1 X0.019Y0.05S0
G1 X1.667S0
G1 X0.202S700
G1 X0.029S0
G1 X0.214S700
G1 X1.667S0
G1 X-0.02Y0.05S0
G1 X-1.667S0
G1 X-0.21S700
G1 X-0.196
G1 X-1.666S0
G1 X0.019Y0.05S0
G1 X1.667S0
G1 X0.366S700
G1 X1.666S0
G1 X-0.02Y0.05S0
G1 X-1.667S0
G1 X-0.326S700
G1 X-1.667S0
G1 X0.019Y0.05S0
G1 X1.667S0
G1 X0.287S700
G1 X1.666S0
G1 X0.193Y0.15S0
G1 X-1.667S0
G1 X-0.229S700
G1 X-0.226S0
G1 X-0.23S700
G1 X-1.667S0
G1 Y0.05S0
G1 X1.667S0
G1 X0.23S700
G1 X0.226S0
G1 X0.229S700
G1 X1.667S0
G1 Y0.05S0
G1 X-1.667S0
G1 X-0.229S700
G1 X-0.226S0
G1 X-0.23S700
G1 X-1.667S0
G1 Y0.05S0
G1 X1.667S0
G1 X0.23S700
G1 X0.226S0
G1 X0.229S700
G1 X1.667S0
G1 Y0.05S0
G1 X-1.667S0
G1 X-0.229S700
G1 X-0.226S0
G1 X-0.23S700
G1 X-1.667S0
M9
G1 S0
M5
; return to starting pos
G0 X1.201Y-2.1
M2
