; LightBurn 1.2.01
; GRBL device profile, current position
; Bounds: X-1.67 Y0 to X3.37 Y1.77
G00 G17 G40 G21 G54
G91
M4
; Cut @ 4999.998 mm/min, 0% power
M8
G0 X0.311Y0
; Layer Lim
G1 X0.1S0F5000
; Scan @ 4000.002 mm/min, 70% power
M8
G0 X-2.078Y0.02
; Layer C02
G1 X1.667F4000S0
G1 X0.228S700
G1 X0.511S0
G1 X0.228S700
G1 X0.513S0
G1 X0.228S700
G1 X1.667S0
G1 Y0.05S0
G1 X-1.667S0
G1 X-0.228S700
G1 X-0.496S0
G1 X-0.262S700
G1 X-0.494S0
G1 X-0.228S700
G1 X-1.667S0
G1 Y0.05S0
G1 X1.667S0
G1 X0.228S700
G1 X0.477S0
G1 X0.296S700
G1 X0.479S0
G1 X0.228S700
G1 X1.667S0
G1 Y0.05S0
G1 X-1.667S0
G1 X-0.228S700
G1 X-0.461S0
G1 X-0.331S700
G1 X-0.46S0
G1 X-0.228S700
G1 X-1.667S0
G1 Y0.05S0
G1 X1.667S0
G1 X0.228S700
G1 X0.443S0
G1 X0.365S700
G1 X0.444S0
G1 X0.228S700
G1 X1.667S0
G1 Y0.05S0
G1 X-1.667S0
G1 X-0.228S700
G1 X-0.427S0
G1 X-0.183S700
G1 X-0.216
G1 X-0.426S0
G1 X-0.228S700
G1 X-1.667S0
G1 Y0.05S0
G1 X1.667S0
G1 X0.228S700
G1 X0.409S0
G1 X0.209S700
G1 X0.041S0
G1 X0.184S700
G1 X0.409S0
G1 X0.228S700
G1 X1.667S0
G1 Y0.05S0
G1 X-1.667S0
G1 X-0.228S700
G1 X-0.392S0
G1 X-0.184S700
G1 X-0.074S0
G1 X-0.21S700
G1 X-0.392S0
G1 X-0.228S700
G1 X-1.667S0
G1 Y0.05S0
G1 X1.667S0
G1 X0.228S700
G1 X0.375S0
G1 X0.21S700
G1 X0.107S0
G1 X0.186S700
G1 X0.374S0
G1 X0.228S700
G1 X1.667S0
G1 Y0.05S0
G1 X-1.667S0
G1 X-0.228S700
G1 X-0.357S0
G1 X-0.186S700
G1 X-0.14S0
G1 X-0.211S700
G1 X-0.358S0
G1 X-0.228S700
G1 X-1.667S0
G1 Y0.05S0
G1 X1.667S0
G1 X0.228S700
G1 X0.341S0
G1 X0.212S700
G1 X0.173S0
G1 X0.186S700
G1 X0.34S0
G1 X0.228S700
G1 X1.667S0
G1 Y0.05S0
G1 X-1.667S0
G1 X-0.228S700
G1 X-0.322S0
G1 X-0.188S700
G1 X-0.206S0
G1 X-0.212S700
G1 X-0.324S0
G1 X-0.228S700
G1 X-1.667S0
G1 Y0.05S0
G1 X1.667S0
G1 X0.228S700
G1 X0.307S0
G1 X0.213S700
G1 X0.239S0
G1 X0.188S700
G1 X0.305S0
G1 X0.228S700
G1 X1.667S0
G1 Y0.05S0
G1 X-1.667S0
G1 X-0.228S700
G1 X-0.288S0
G1 X-0.188S700
G1 X-0.273S0
G1 X-0.213S700
G1 X-0.29S0
G1 X-0.228S700
G1 X-1.667S0
G1 Y0.05S0
G1 X1.667S0
G1 X0.228S700
G1 X0.273S0
G1 X0.213S700
G1 X0.307S0
G1 X0.189S700
G1 X0.27S0
G1 X0.228S700
G1 X1.667S0
G1 Y0.05S0
G1 X-1.667S0
G1 X-0.228S700
G1 X-0.253S0
G1 X-0.19S700
G1 X-0.339S0
G1 X-0.214S700
G1 X-0.256S0
G1 X-0.228S700
G1 X-1.667S0
G1 Y0.05S0
G1 X1.667S0
G1 X0.228S700
G1 X0.239S0
G1 X0.214S700
G1 X0.373S0
G1 X0.191S700
G1 X0.235S0
G1 X0.228S700
G1 X1.667S0
G1 Y0.05S0
G1 X-1.667S0
G1 X-0.228S700
G1 X-0.218S0
G1 X-0.191S700
G1 X-0.407S0
G1 X-0.214S700
G1 X-0.222S0
G1 X-0.228S700
G1 X-1.667S0
G1 Y0.05S0
G1 X1.667S0
G1 X0.228S700
G1 X0.205S0
G1 X0.214S700
G1 X0.441S0
G1 X0.191S700
G1 X0.201S0
G1 X0.228S700
G1 X1.667S0
G1 Y0.05S0
G1 X-1.667S0
G1 X-0.228S700
G1 X-0.183S0
G1 X-0.193S700
G1 X-0.473S0
G1 X-0.215S700
G1 X-0.188S0
G1 X-0.228S700
G1 X-1.667S0
G1 Y0.05S0
G1 X1.667S0
G1 X0.228S700
G1 X0.171S0
G1 X0.215S700
G1 X0.507S0
G1 X0.193S700
G1 X0.166S0
G1 X0.228S700
G1 X1.667S0
G1 Y0.05S0
G1 X-1.667S0
G1 X-0.228S700
G1 X-0.149S0
G1 X-0.193S700
G1 X-0.541S0
G1 X-0.215S700
G1 X-0.154S0
G1 X-0.228S700
G1 X-1.667S0
G1 Y0.05S0
G1 X1.667S0
G1 X0.228S700
G1 X0.137S0
G1 X0.216S700
G1 X0.575S0
G1 X0.193S700
G1 X0.131S0
G1 X0.228S700
G1 X1.667S0
G1 Y0.05S0
G1 X-1.667S0
G1 X-0.228S700
G1 X-0.114S0
G1 X-0.193S700
G1 X-0.609S0
G1 X-0.216S700
G1 X-0.12S0
G1 X-0.228S700
G1 X-1.667S0
G1 Y0.05S0
G1 X1.667S0
G1 X0.228S700
G1 X0.103S0
G1 X0.216S700
G1 X0.644S0
G1 X0.193S700
G1 X0.096S0
G1 X0.228S700
G1 X1.667S0
G1 Y0.05S0
G1 X-1.667S0
G1 X-0.228S700
G1 X-0.079S0
G1 X-0.193S700
G1 X-0.677S0
G1 X-0.217S700
G1 X-0.086S0
G1 X-0.228S700
G1 X-1.667S0
G1 Y0.05S0
G1 X1.667S0
G1 X0.228S700
G1 X0.069S0
G1 X0.217S700
G1 X0.712S0
G1 X0.192S700
G1 X0.062S0
G1 X0.228S700
G1 X1.667S0
G1 Y0.05S0
G1 X-1.667S0
G1 X-0.228S700
G1 X-0.044S0
G1 X-0.193S700
G1 X-0.746S0
G1 X-0.217S700
G1 X-0.052S0
G1 X-0.228S700
G1 X-1.667S0
G1 Y0.05S0
G1 X1.667S0
G1 X0.228S700
G1 X0.035S0
G1 X0.217S700
G1 X0.78S0
G1 X0.193S700
G1 X0.027S0
G1 X0.228S700
G1 X1.667S0
G1 Y0.05S0
G1 X-1.667S0
G1 X-0.228S700
G1 X-0.202
G1 X-0.814S0
G1 X-0.218S700
G1 X-0.018S0
G1 X-0.228S700
G1 X-1.667S0
G1 Y0.05S0
G1 X1.667S0
G1 X0.228S700
G1 X0.219
G1 X0.848S0
G1 X0.413S700
G1 X1.667S0
G1 Y0.05S0
G1 X-1.667S0
G1 X-0.395S700
G1 X-0.883S0
G1 X-0.43S700
G1 X-1.667S0
G1 Y0.05S0
G1 X1.667S0
G1 X0.414S700
G1 X0.916S0
G1 X0.378S700
G1 X1.667S0
G1 Y0.05S0
G1 X-1.667S0
G1 X-0.36S700
G1 X-0.951S0
G1 X-0.397S700
G1 X-1.667S0
G1 Y0.05S0
G1 X1.667S0
G1 X0.38S700
G1 X0.985S0
G1 X0.343S700
G1 X1.667S0
G1 Y0.05S0
G1 X-1.667S0
G1 X-0.325S700
G1 X-1.02S0
G1 X-0.363S700
G1 X-1.667S0
M9
G1 S0
M5
; return to starting pos
G0 X1.667Y-1.77
M2
