; LightBurn 1.2.01
; GRBL device profile, current position
; Bounds: X-1.67 Y0 to X3.08 Y1.77
G00 G17 G40 G21 G54
G91
M4
; Cut @ 4999.998 mm/min, 0% power
M8
G0 X0.306Y0
; Layer Lim
G1 X0.1S0F5000
; Scan @ 4000.002 mm/min, 70% power
M8
G0 X-2.073Y0.02
; Layer C02
G1 X1.667F4000S0
G1 X0.227S700
G1 X0.927S0
G1 X0.256S700
G1 X1.667S0
G1 Y0.05S0
G1 X-1.667S0
G1 X-0.29S700
G1 X-0.893S0
G1 X-0.227S700
G1 X-1.667S0
G1 Y0.05S0
G1 X1.667S0
G1 X0.227S700
G1 X0.86S0
G1 X0.323S700
G1 X1.667S0
G1 Y0.05S0
G1 X-1.667S0
G1 X-0.356S700
G1 X-0.827S0
G1 X-0.227S700
G1 X-1.667S0
G1 Y0.05S0
G1 X1.667S0
G1 X0.227S700
G1 X0.793S0
G1 X0.39S700
G1 X1.667S0
G1 Y0.05S0
G1 X-1.667S0
G1 X-0.423S700
G1 X-0.76S0
G1 X-0.227S700
G1 X-1.667S0
G1 Y0.05S0
G1 X1.667S0
G1 X0.227S700
G1 X0.726S0
G1 X0.457S700
G1 X1.667S0
G1 Y0.05S0
G1 X-1.667S0
G1 X-0.49S700
G1 X-0.693S0
G1 X-0.227S700
G1 X-1.667S0
G1 Y0.05S0
G1 X1.667S0
G1 X0.227S700
G1 X0.659S0
G1 X0.273S700
G1 X0.024S0
G1 X0.227S700
G1 X1.667S0
G1 Y0.05S0
G1 X-1.667S0
G1 X-0.227S700
G1 X-0.057S0
G1 X-0.273S700
G1 X-0.626S0
G1 X-0.227S700
G1 X-1.667S0
G1 Y0.05S0
G1 X1.667S0
G1 X0.227S700
G1 X0.593S0
G1 X0.272S700
G1 X0.091S0
G1 X0.227S700
G1 X1.667S0
G1 Y0.05S0
G1 X-1.667S0
G1 X-0.227S700
G1 X-0.124S0
G1 X-0.273S700
G1 X-0.559S0
G1 X-0.227S700
G1 X-1.667S0
G1 Y0.05S0
G1 X1.667S0
G1 X0.227S700
G1 X0.526S0
G1 X0.273S700
G1 X0.157S0
G1 X0.227S700
G1 X1.667S0
G1 Y0.05S0
G1 X-1.667S0
G1 X-0.227S700
G1 X-0.191S0
G1 X-0.273S700
G1 X-0.492S0
G1 X-0.227S700
G1 X-1.667S0
G1 Y0.05S0
G1 X1.667S0
G1 X0.227S700
G1 X0.459S0
G1 X0.273S700
G1 X0.224S0
G1 X0.227S700
G1 X1.667S0
G1 Y0.05S0
G1 X-1.667S0
G1 X-0.227S700
G1 X-0.258S0
G1 X-0.273S700
G1 X-0.425S0
G1 X-0.227S700
G1 X-1.667S0
G1 Y0.05S0
G1 X1.667S0
G1 X0.227S700
G1 X0.392S0
G1 X0.273S700
G1 X0.291S0
G1 X0.227S700
G1 X1.667S0
G1 Y0.05S0
G1 X-1.667S0
G1 X-0.227S700
G1 X-0.325S0
G1 X-0.272S700
G1 X-0.359S0
G1 X-0.227S700
G1 X-1.667S0
G1 Y0.05S0
G1 X1.667S0
G1 X0.227S700
G1 X0.325S0
G1 X0.273S700
G1 X0.358S0
G1 X0.227S700
G1 X1.667S0
G1 Y0.05S0
G1 X-1.667S0
G1 X-0.227S700
G1 X-0.392S0
G1 X-0.272S700
G1 X-0.292S0
G1 X-0.227S700
G1 X-1.667S0
G1 Y0.05S0
G1 X1.667S0
G1 X0.227S700
G1 X0.258S0
G1 X0.273S700
G1 X0.425S0
G1 X0.227S700
G1 X1.667S0
G1 Y0.05S0
G1 X-1.667S0
G1 X-0.227S700
G1 X-0.459S0
G1 X-0.272S700
G1 X-0.225S0
G1 X-0.227S700
G1 X-1.667S0
G1 Y0.05S0
G1 X1.667S0
G1 X0.227S700
G1 X0.191S0
G1 X0.273S700
G1 X0.492S0
G1 X0.227S700
G1 X1.667S0
G1 Y0.05S0
G1 X-1.667S0
G1 X-0.227S700
G1 X-0.526S0
G1 X-0.272S700
G1 X-0.158S0
G1 X-0.227S700
G1 X-1.667S0
G1 Y0.05S0
G1 X1.667S0
G1 X0.227S700
G1 X0.125S0
G1 X0.272S700
G1 X0.559S0
G1 X0.227S700
G1 X1.667S0
G1 Y0.05S0
G1 X-1.667S0
G1 X-0.227S700
G1 X-0.593S0
G1 X-0.272S700
G1 X-0.091S0
G1 X-0.227S700
G1 X-1.667S0
G1 Y0.05S0
G1 X1.667S0
G1 X0.227S700
G1 X0.058S0
G1 X0.272S700
G1 X0.626S0
G1 X0.227S700
G1 X1.667S0
G1 Y0.05S0
G1 X-1.667S0
G1 X-0.227S700
G1 X-0.66S0
G1 X-0.272S700
G1 X-0.024S0
G1 X-0.227S700
G1 X-1.667S0
G1 Y0.05S0
G1 X1.667S0
G1 X0.49S700
G1 X0.693S0
G1 X0.227S700
G1 X1.667S0
G1 Y0.05S0
G1 X-1.667S0
G1 X-0.227S700
G1 X-0.726S0
G1 X-0.457S700
G1 X-1.667S0
G1 Y0.05S0
G1 X1.667S0
G1 X0.423S700
G1 X0.76S0
G1 X0.227S700
G1 X1.667S0
G1 Y0.05S0
G1 X-1.667S0
G1 X-0.227S700
G1 X-0.793S0
G1 X-0.39S700
G1 X-1.667S0
G1 Y0.05S0
G1 X1.667S0
G1 X0.356S700
G1 X0.827S0
G1 X0.227S700
G1 X1.667S0
G1 Y0.05S0
G1 X-1.667S0
G1 X-0.227S700
G1 X-0.86S0
G1 X-0.323S700
G1 X-1.667S0
G1 Y0.05S0
G1 X1.667S0
G1 X0.289S700
G1 X0.894S0
G1 X0.227S700
G1 X1.667S0
G1 Y0.05S0
G1 X-1.667S0
G1 X-0.227S700
G1 X-0.927S0
G1 X-0.256S700
G1 X-1.667S0
M9
G1 S0
M5
; return to starting pos
G0 X1.667Y-1.77
M2
