; LightBurn 1.2.01
; GRBL device profile, current position
; Bounds: X-1.67 Y0.02 to X3.39 Y1.8
G00 G17 G40 G21 G54
G91
M4
; Cut @ 4999.998 mm/min, 0% power
M8
G0 X0.384Y0.023
; Layer Lim
G1 X0.1S0F5000
; Scan @ 4000.002 mm/min, 70% power
M8
G0 X-1.583Y0.024
; Layer C02
G1 X1.667F4000S0
G1 X0.597S700
G1 X1.667S0
G1 X0.112Y0.05S0
G1 X-1.667S0
G1 X-0.821S700
G1 X-1.667S0
G1 X-0.081Y0.05S0
G1 X1.667S0
G1 X0.979S700
G1 X1.667S0
G1 X0.07Y0.05S0
G1 X-1.666S0
G1 X-1.108S700
G1 X-1.667S0
G1 X-0.057Y0.05S0
G1 X1.667S0
G1 X0.387S700
G1 X0.467S0
G1 X0.359S700
G1 X1.667S0
G1 X0.049Y0.05S0
G1 X-1.667S0
G1 X-0.337S700
G1 X-0.65S0
G1 X-0.316S700
G1 X-1.667S0
G1 X-0.041Y0.05S0
G1 X1.666S0
G1 X0.303S700
G1 X0.776S0
G1 X0.303S700
G1 X1.667S0
G1 X0.033Y0.05S0
G1 X-1.667S0
G1 X-0.289S700
G1 X-0.874S0
G1 X-0.285S700
G1 X-1.666S0
G1 X-0.029Y0.05S0
G1 X1.666S0
G1 X0.263S700
G1 X0.963S0
G1 X0.283S700
G1 X1.667S0
G1 X0.021Y0.05S0
G1 X-1.667S0
G1 X-0.265S700
G1 X-1.031S0
G1 X-0.262S700
G1 X-1.667S0
G1 X-0.019Y0.05S0
G1 X1.667S0
G1 X0.257S700
G1 X1.082S0
G1 X0.26S700
G1 X1.666S0
G1 X0.02Y0.05S0
G1 X-1.667S0
G1 X-0.26S700
G1 X-1.124S0
G1 X-0.253S700
G1 X-1.666S0
G1 X-0.018Y0.05S0
G1 X1.667S0
G1 X0.246S700
G1 X1.166S0
G1 X0.253S700
G1 X1.666S0
G1 X0.011Y0.05S0
G1 X-1.667S0
G1 X-0.245S700
G1 X-1.194S0
G1 X-0.246S700
G1 X-1.667S0
G1 X-0.009Y0.05S0
G1 X1.666S0
G1 X0.252S700
G1 X1.205S0
G1 X0.249S700
G1 X1.667S0
G1 Y0.05S0
G1 X-1.666S0
G1 X-0.248S700
G1 X-1.211S0
G1 X-0.256S700
G1 X-1.667S0
G1 Y0.05S0
G1 X1.665S0
G1 X0.254S700
G1 X1.217S0
G1 X0.247S700
G1 X1.666S0
G1 Y0.05S0
G1 X-1.666S0
G1 X-0.244S700
G1 X-1.223S0
G1 X-0.252S700
G1 X-1.666S0
G1 Y0.05S0
G1 X1.665S0
G1 X0.253S700
G1 X1.222S0
G1 X0.245S700
G1 X1.667S0
G1 Y0.05S0
G1 X-1.668S0
G1 X-0.245S700
G1 X-1.221S0
G1 X-0.246S700
G1 X-1.666S0
G1 X0.007Y0.05S0
G1 X1.667S0
G1 X0.238S700
G1 X1.219S0
G1 X0.246S700
G1 X1.667S0
G1 Y0.05S0
G1 X-1.669S0
G1 X-0.25S700
G1 X-1.202S0
G1 X-0.242S700
G1 X-1.666S0
G1 X0.009Y0.05S0
G1 X1.667S0
G1 X0.242S700
G1 X1.179S0
G1 X0.252S700
G1 X1.667S0
G1 X-0.012Y0.05S0
G1 X-1.666S0
G1 X-0.254S700
G1 X-1.156S0
G1 X-0.242S700
G1 X-1.667S0
G1 X0.01Y0.05S0
G1 X1.667S0
G1 X0.254S700
G1 X1.118S0
G1 X0.258S700
G1 X1.667S0
G1 X-0.019Y0.05S0
G1 X-1.667S0
G1 X-0.265S700
G1 X-1.071S0
G1 X-0.258S700
G1 X-1.667S0
G1 X0.021Y0.05S0
G1 X1.666S0
G1 X0.262S700
G1 X1.021S0
G1 X0.269S700
G1 X1.666S0
G1 X-0.023Y0.05S0
G1 X-1.666S0
G1 X-0.278S700
G1 X-0.955S0
G1 X-0.275S700
G1 X-1.667S0
G1 X0.031Y0.05S0
G1 X1.667S0
G1 X0.279S700
G1 X0.878S0
G1 X0.291S700
G1 X1.666S0
G1 X-0.037Y0.05S0
G1 X-1.666S0
G1 X-0.295S700
G1 X-0.779S0
G1 X-0.305S700
G1 X-1.667S0
G1 X0.037Y0.05S0
G1 X1.667S0
G1 X0.343S700
G1 X0.618S0
G1 X0.343S700
G1 X1.667S0
G1 X-0.048Y0.05S0
G1 X-1.667S0
G1 X-0.386S700
G1 X-0.441S0
G1 X-0.381S700
G1 X-1.667S0
G1 X0.05Y0.05S0
G1 X1.667S0
G1 X1.101S700
G1 X1.667S0
G1 X-0.064Y0.05S0
G1 X-1.666S0
G1 X-0.97S700
G1 X-1.666S0
G1 X0.081Y0.05S0
G1 X1.667S0
G1 X0.799S700
G1 X1.667S0
G1 X-0.122Y0.05S0
G1 X-1.667S0
G1 X-0.568S700
G1 X-1.667S0
M9
G1 S0
M5
; return to starting pos
G0 X1.1Y-1.797
M2
