; LightBurn 1.2.01
; GRBL device profile, current position
; Bounds: X-1.67 Y0 to X3.03 Y1.77
G00 G17 G40 G21 G54
G91
M4
; Cut @ 4999.998 mm/min, 0% power
M8
G0 X0.304Y0
; Layer Lim
G1 X0.1S0F5000
; Scan @ 4000.002 mm/min, 70% power
M8
G0 X-2.071Y0.022
; Layer C02
G1 X1.667F4000S0
G1 X0.237S700
G1 X1.667S0
G1 Y0.05S0
G1 X-1.667S0
G1 X-0.237S700
G1 X-1.667S0
G1 Y0.05S0
G1 X1.667S0
G1 X0.237S700
G1 X1.667S0
G1 Y0.05S0
G1 X-1.667S0
G1 X-0.237S700
G1 X-1.667S0
G1 Y0.05S0
G1 X1.667S0
G1 X0.237S700
G1 X1.667S0
G1 Y0.05S0
G1 X-1.667S0
G1 X-0.237S700
G1 X-1.667S0
G1 Y0.05S0
G1 X1.667S0
G1 X0.237S700
G1 X1.667S0
G1 Y0.05S0
G1 X-1.667S0
G1 X-0.237S700
G1 X-1.667S0
G1 Y0.05S0
G1 X1.667S0
G1 X0.237S700
G1 X1.667S0
G1 Y0.05S0
G1 X-1.667S0
G1 X-0.237S700
G1 X-1.667S0
G1 Y0.05S0
G1 X1.667S0
G1 X0.237S700
G1 X1.667S0
G1 Y0.05S0
G1 X-1.667S0
G1 X-0.237S700
G1 X-1.667S0
G1 Y0.05S0
G1 X1.667S0
G1 X0.237S700
G1 X1.667S0
G1 Y0.05S0
G1 X-1.667S0
G1 X-0.237S700
G1 X-1.667S0
G1 Y0.05S0
G1 X1.667S0
G1 X0.237S700
G1 X1.667S0
G1 X0.782Y0.05S0
G1 X-1.666S0
G1 X-1.02S700
G1 X-1.667S0
G1 Y0.05S0
G1 X1.667S0
G1 X1.126S700
G1 X1.667S0
G1 X0.074Y0.05S0
G1 X-1.667S0
G1 X-1.2S700
G1 X-1.667S0
G1 Y0.05S0
G1 X1.667S0
G1 X1.243S700
G1 X1.667S0
G1 X0.031Y0.05S0
G1 X-1.666S0
G1 X-0.336S700
G1 X-0.702S0
G1 X-0.237S700
G1 X-1.667S0
G1 Y0.05S0
G1 X1.667S0
G1 X0.237S700
G1 X0.778S0
G1 X0.291S700
G1 X1.666S0
G1 X0.025Y0.05S0
G1 X-1.667S0
G1 X-0.272S700
G1 X-0.821S0
G1 X-0.237S700
G1 X-1.667S0
G1 Y0.05S0
G1 X1.667S0
G1 X0.237S700
G1 X0.853S0
G1 X0.251S700
G1 X1.666S0
G1 X0.011Y0.05S0
G1 X-1.667S0
G1 X-0.243S700
G1 X-0.871S0
G1 X-0.237S700
G1 X-1.667S0
G1 Y0.05S0
G1 X1.667S0
G1 X0.237S700
G1 X0.878S0
G1 X0.247S700
G1 X1.667S0
G1 Y0.05S0
G1 X-1.666S0
G1 X-0.241S700
G1 X-0.885S0
G1 X-0.237S700
G1 X-1.667S0
G1 Y0.05S0
G1 X1.667S0
G1 X0.237S700
G1 X0.879S0
G1 X0.241S700
G1 X1.666S0
G1 X-0.006Y0.05S0
G1 X-1.667S0
G1 X-0.243S700
G1 X-0.87S0
G1 X-0.237S700
G1 X-1.667S0
G1 Y0.05S0
G1 X1.667S0
G1 X0.237S700
G1 X0.847S0
G1 X0.259S700
G1 X1.667S0
G1 X-0.02Y0.05S0
G1 X-1.666S0
G1 X-0.275S700
G1 X-0.812S0
G1 X-0.237S700
G1 X-1.667S0
G1 Y0.05S0
G1 X1.667S0
G1 X0.237S700
G1 X0.76S0
G1 X0.301S700
G1 X1.666S0
G1 X-0.026Y0.05S0
G1 X-1.666S0
G1 X-0.466S700
G1 X-0.569S0
G1 X-0.237S700
G1 X-1.667S0
G1 Y0.05S0
G1 X1.667S0
G1 X1.239S700
G1 X1.667S0
G1 X-0.07Y0.05S0
G1 X-1.667S0
G1 X-1.169S700
G1 X-1.667S0
G1 Y0.05S0
G1 X1.667S0
G1 X1.083S700
G1 X1.666S0
G1 X-0.137Y0.05S0
G1 X-1.667S0
G1 X-0.945S700
G1 X-1.667S0
M9
G1 S0
M5
; return to starting pos
G0 X1.667Y-1.772
M2
