; LightBurn 1.2.01
; GRBL device profile, current position
; Bounds: X-1.67 Y0.01 to X3.41 Y1.96
G00 G17 G40 G21 G54
G91
M4
; Cut @ 4999.998 mm/min, 0% power
M8
G0 X0.392Y0.139
; Layer Lim
G1 X0.1S0F5000
; Scan @ 4000.002 mm/min, 70% power
M8
G0 X-0.49Y-0.134
; Layer C02
G1 X1.667F4000S0
G1 X0.013S700
G1 X1.666S0
G1 X0.021Y0.05S0
G1 X-1.666S0
G1 X-0.14S700
G1 X-1.667S0
G1 X-0.1Y0.05S0
G1 X1.667S0
G1 X0.261S700
G1 X1.667S0
G1 X0.021Y0.05S0
G1 X-1.667S0
G1 X-0.355S700
G1 X-0.237S0
G1 X-0.569S700
G1 X-1.666S0
G1 X-0.116Y0.05S0
G1 X1.667S0
G1 X0.794S700
G1 X0.053S0
G1 X0.347S700
G1 X1.667S0
G1 X-0.096Y0.05S0
G1 X-1.666S0
G1 X-1.187S700
G1 X-1.666S0
G1 X-0.066Y0.05S0
G1 X1.667S0
G1 X1.171S700
G1 X1.667S0
G1 X-0.022Y0.05S0
G1 X-1.667S0
G1 X-0.378S700
G1 X-0.46S0
G1 X-0.368S700
G1 X-1.667S0
G1 X-0.045Y0.05S0
G1 X1.667S0
G1 X0.336S700
G1 X0.465S0
G1 X0.492S700
G1 X1.667S0
G1 X0.041Y0.05S0
G1 X-1.666S0
G1 X-0.664S700
G1 X-0.407S0
G1 X-0.309S700
G1 X-1.667S0
G1 X-0.026Y0.05S0
G1 X1.666S0
G1 X0.284S700
G1 X0.455S0
G1 X0.317S700
G1 X0.09S0
G1 X0.292S700
G1 X1.667S0
G1 X0.025Y0.05S0
G1 X-1.666S0
G1 X-0.287S700
G1 X-0.197S0
G1 X-0.225S700
G1 X-0.51S0
G1 X-0.271S700
G1 X-1.667S0
G1 X-0.027Y0.05S0
G1 X1.667S0
G1 X0.26S700
G1 X0.565S0
G1 X0.085S700
G1 X0.352S0
G1 X0.28S700
G1 X1.667S0
G1 X0.019Y0.05S0
G1 X-1.667S0
G1 X-0.268S700
G1 X-1.064S0
G1 X-0.248S700
G1 X-1.667S0
G1 X-0.016Y0.05S0
G1 X1.666S0
G1 X0.247S700
G1 X1.11S0
G1 X0.257S700
G1 X1.666S0
G1 X0.017Y0.05S0
G1 X-1.667S0
G1 X-0.26S700
G1 X-1.141S0
G1 X-0.245S700
G1 X-1.666S0
G1 X-0.014Y0.05S0
G1 X1.666S0
G1 X0.241S700
G1 X1.171S0
G1 X0.26S700
G1 X1.667S0
G1 X0.008Y0.05S0
G1 X-1.667S0
G1 X-0.255S700
G1 X-1.194S0
G1 X-0.238S700
G1 X-1.666S0
G1 X-0.008Y0.05S0
G1 X1.667S0
G1 X0.243S700
G1 X1.208S0
G1 X0.251S700
G1 X1.667S0
G1 X0.006Y0.05S0
G1 X-1.667S0
G1 X-0.244S700
G1 X-1.223S0
G1 X-0.248S700
G1 X-1.667S0
G1 Y0.05S0
G1 X1.666S0
G1 X0.247S700
G1 X1.224S0
G1 X0.245S700
G1 X1.667S0
G1 Y0.05S0
G1 X-1.666S0
G1 X-0.249S700
G1 X-1.221S0
G1 X-0.245S700
G1 X-1.667S0
G1 Y0.05S0
G1 X1.668S0
G1 X0.245S700
G1 X1.217S0
G1 X0.252S700
G1 X1.666S0
G1 X-0.007Y0.05S0
G1 X-1.667S0
G1 X-0.248S700
G1 X-1.211S0
G1 X-0.244S700
G1 X-1.667S0
G1 X0.01Y0.05S0
G1 X1.667S0
G1 X0.236S700
G1 X1.206S0
G1 X0.244S700
G1 X1.667S0
G1 X-0.007Y0.05S0
G1 X-1.667S0
G1 X-0.247S700
G1 X-1.19S0
G1 X-0.232S700
G1 X-1.666S0
G1 X0.01Y0.05S0
G1 X1.666S0
G1 X0.24S700
G1 X1.152S0
G1 X0.253S700
G1 X1.667S0
G1 X-0.016Y0.05S0
G1 X-1.666S0
G1 X-0.258S700
G1 X-1.114S0
G1 X-0.241S700
G1 X-1.667S0
G1 X0.02Y0.05S0
G1 X1.666S0
G1 X0.24S700
G1 X1.077S0
G1 X0.262S700
G1 X1.666S0
G1 X-0.022Y0.05S0
G1 X-1.667S0
G1 X-0.259S700
G1 X-1.03S0
G1 X-0.247S700
G1 X-1.667S0
G1 X0.023Y0.05S0
G1 X1.667S0
G1 X0.262S700
G1 X0.965S0
G1 X0.262S700
G1 X1.667S0
G1 X-0.024Y0.05S0
G1 X-1.667S0
G1 X-0.286S700
G1 X-0.878S0
G1 X-0.271S700
G1 X-1.667S0
G1 X0.031Y0.05S0
G1 X1.666S0
G1 X0.287S700
G1 X0.785S0
G1 X0.301S700
G1 X1.666S0
G1 X-0.034Y0.05S0
G1 X-1.667S0
G1 X-0.324S700
G1 X-0.654S0
G1 X-0.326S700
G1 X-1.667S0
G1 X0.044Y0.05S0
G1 X1.667S0
G1 X0.356S700
G1 X0.479S0
G1 X0.389S700
G1 X1.666S0
G1 X-0.059Y0.05S0
G1 X-1.667S0
G1 X-0.553S700
G1 X-0.061S0
G1 X-0.506S700
G1 X-1.667S0
G1 X0.06Y0.05S0
G1 X1.666S0
G1 X1.001S700
G1 X1.667S0
G1 X-0.088Y0.05S0
G1 X-1.667S0
G1 X-0.832S700
G1 X-1.667S0
G1 X0.114Y0.05S0
G1 X1.667S0
G1 X0.607S700
G1 X1.667S0
G1 X-0.21Y0.05S0
G1 X-1.666S0
G1 X-0.2S700
G1 X-1.666S0
M9
G1 S0
M5
; return to starting pos
G0 X0.916Y-1.955
M2
