; LightBurn 1.2.01
; GRBL device profile, current position
; Bounds: X-1.67 Y0 to X3.23 Y1.77
G00 G17 G40 G21 G54
G91
M4
; Cut @ 4999.998 mm/min, 0% power
M8
G0 X0.3Y0
; Layer Lim
G1 X0.1S0F5000
; Scan @ 4000.002 mm/min, 70% power
M8
G0 X-2.067Y0.024
; Layer C02
G1 X1.667F4000S0
G1 X0.237S700
G1 X1.027S0
G1 X0.299S700
G1 X1.667S0
G1 X-0.031Y0.05S0
G1 X-1.667S0
G1 X-0.299S700
G1 X-0.996S0
G1 X-0.237S700
G1 X-1.667S0
G1 Y0.05S0
G1 X1.667S0
G1 X0.237S700
G1 X0.965S0
G1 X0.299S700
G1 X1.667S0
G1 X-0.031Y0.05S0
G1 X-1.666S0
G1 X-0.301S700
G1 X-0.933S0
G1 X-0.237S700
G1 X-1.667S0
G1 Y0.05S0
G1 X1.667S0
G1 X0.237S700
G1 X0.902S0
G1 X0.301S700
G1 X1.666S0
G1 X-0.03Y0.05S0
G1 X-1.667S0
G1 X-0.302S700
G1 X-0.87S0
G1 X-0.237S700
G1 X-1.667S0
G1 Y0.05S0
G1 X1.667S0
G1 X0.237S700
G1 X0.837S0
G1 X0.303S700
G1 X1.667S0
G1 X-0.035Y0.05S0
G1 X-1.667S0
G1 X-0.301S700
G1 X-0.804S0
G1 X-0.237S700
G1 X-1.667S0
G1 Y0.05S0
G1 X1.667S0
G1 X0.237S700
G1 X0.771S0
G1 X0.299S700
G1 X1.667S0
G1 X-0.035Y0.05S0
G1 X-1.667S0
G1 X-0.297S700
G1 X-0.738S0
G1 X-0.237S700
G1 X-1.667S0
G1 Y0.05S0
G1 X1.667S0
G1 X0.237S700
G1 X0.705S0
G1 X0.295S700
G1 X1.667S0
G1 X-0.036Y0.05S0
G1 X-1.666S0
G1 X-0.29S700
G1 X-0.675S0
G1 X-0.237S700
G1 X-1.667S0
G1 Y0.05S0
G1 X1.667S0
G1 X0.237S700
G1 X0.645S0
G1 X0.283S700
G1 X1.667S0
G1 X-0.048Y0.05S0
G1 X-1.667S0
G1 X-0.286S700
G1 X-0.594S0
G1 X-0.237S700
G1 X-1.667S0
G1 Y0.05S0
G1 X1.667S0
G1 X0.237S700
G1 X0.536S0
G1 X0.296S700
G1 X1.667S0
G1 X-0.077Y0.05S0
G1 X-1.667S0
G1 X-0.331S700
G1 X-0.424S0
G1 X-0.237S700
G1 X-1.667S0
G1 Y0.05S0
G1 X1.667S0
G1 X0.977S700
G1 X1.667S0
G1 X0.168Y0.05S0
G1 X-1.667S0
G1 X-1.145S700
G1 X-1.667S0
G1 Y0.05S0
G1 X1.667S0
G1 X1.236S700
G1 X1.667S0
G1 X0.059Y0.05S0
G1 X-1.667S0
G1 X-1.295S700
G1 X-1.667S0
G1 Y0.05S0
G1 X1.667S0
G1 X0.237S700
G1 X0.732S0
G1 X0.37S700
G1 X1.666S0
G1 X0.029Y0.05S0
G1 X-1.667S0
G1 X-0.298S700
G1 X-0.832S0
G1 X-0.237S700
G1 X-1.667S0
G1 Y0.05S0
G1 X1.667S0
G1 X0.237S700
G1 X0.883S0
G1 X0.276S700
G1 X1.666S0
G1 X0.015Y0.05S0
G1 X-1.667S0
G1 X-0.256S700
G1 X-0.917S0
G1 X-0.237S700
G1 X-1.667S0
G1 Y0.05S0
G1 X1.667S0
G1 X0.237S700
G1 X0.934S0
G1 X0.247S700
G1 X1.667S0
G1 X0.008Y0.05S0
G1 X-1.666S0
G1 X-0.246S700
G1 X-0.944S0
G1 X-0.237S700
G1 X-1.667S0
G1 Y0.05S0
G1 X1.667S0
G1 X0.237S700
G1 X0.945S0
G1 X0.246S700
G1 X1.667S0
G1 X-0.008Y0.05S0
G1 X-1.666S0
G1 X-0.249S700
G1 X-0.935S0
G1 X-0.237S700
G1 X-1.667S0
G1 Y0.05S0
G1 X1.667S0
G1 X0.237S700
G1 X0.919S0
G1 X0.257S700
G1 X1.667S0
G1 X-0.007Y0.05S0
G1 X-1.667S0
G1 X-0.284S700
G1 X-0.885S0
G1 X-0.237S700
G1 X-1.667S0
G1 Y0.05S0
G1 X1.667S0
G1 X0.237S700
G1 X0.834S0
G1 X0.306S700
G1 X1.667S0
G1 X-0.03Y0.05S0
G1 X-1.666S0
G1 X-0.385S700
G1 X-0.726S0
G1 X-0.237S700
G1 X-1.667S0
G1 Y0.05S0
G1 X1.667S0
G1 X1.318S700
G1 X1.667S0
G1 X-0.065Y0.05S0
G1 X-1.666S0
G1 X-1.254S700
G1 X-1.667S0
G1 Y0.05S0
G1 X1.667S0
G1 X1.187S700
G1 X1.667S0
G1 X-0.17Y0.05S0
G1 X-1.667S0
G1 X-1.017S700
G1 X-1.667S0
M9
G1 S0
M5
; return to starting pos
G0 X1.667Y-1.774
M2
