; LightBurn 1.2.01
; GRBL device profile, current position
; Bounds: X-1.67 Y0 to X3.09 Y1.85
G00 G17 G40 G21 G54
G91
M4
; Cut @ 4999.998 mm/min, 0% power
M8
G0 X0.384Y0.03
; Layer Lim
G1 X0.1S0F5000
; Scan @ 4000.002 mm/min, 70% power
M8
G0 X-1.393Y-0.029
; Layer C02
G1 X1.666F4000S0
G1 X0.047S700
G1 X1.666S0
G1 X0.275Y0.05S0
G1 X-1.667S0
G1 X-0.659S700
G1 X-1.666S0
G1 X-0.114Y0.05S0
G1 X1.666S0
G1 X0.872S700
G1 X1.667S0
G1 X0.068Y0.05S0
G1 X-1.667S0
G1 X-1.022S700
G1 X-1.667S0
G1 X-0.051Y0.05S0
G1 X1.667S0
G1 X1.118S700
G1 X1.667S0
G1 X0.04Y0.05S0
G1 X-1.666S0
G1 X-0.344S700
G1 X-0.445S0
G1 X-0.415S700
G1 X-1.666S0
G1 X-0.038Y0.05S0
G1 X1.667S0
G1 X0.339S700
G1 X0.655S0
G1 X0.274S700
G1 X1.667S0
G1 X0.025Y0.05S0
G1 X-1.667S0
G1 X-0.246S700
G1 X-0.772S0
G1 X-0.299S700
G1 X-1.667S0
G1 X-0.024Y0.05S0
G1 X1.667S0
G1 X0.259S700
G1 X0.864S0
G1 X0.233S700
G1 X1.667S0
G1 X0.014Y0.05S0
G1 X-1.667S0
G1 X-0.228S700
G1 X-0.909S0
G1 X-0.252S700
G1 X-1.666S0
G1 X-0.008Y0.05S0
G1 X1.667S0
G1 X0.235S700
G1 X0.942S0
G1 X0.223S700
G1 X1.667S0
G1 Y0.05S0
G1 X-1.663S0
G1 X-0.236S700
G1 X-0.946S0
G1 X-0.23S700
G1 X-1.667S0
G1 X-0.007Y0.05S0
G1 X1.667S0
G1 X0.227S700
G1 X0.939S0
G1 X0.248S700
G1 X1.667S0
G1 X-0.007Y0.05S0
G1 X-1.667S0
G1 X-0.269S700
G1 X-1.666S0
G1 X-0.041Y0.05S0
G1 X1.667S0
G1 X0.29S700
G1 X1.666S0
G1 X-0.029Y0.05S0
G1 X-1.666S0
G1 X-0.327S700
G1 X-1.667S0
G1 X-0.146Y0.05S0
G1 X1.667S0
G1 X0.443S700
G1 X1.667S0
G1 X-0.049Y0.05S0
G1 X-1.667S0
G1 X-0.593S700
G1 X-1.667S0
G1 X-0.192Y0.05S0
G1 X1.667S0
G1 X0.737S700
G1 X1.667S0
G1 X-0.079Y0.05S0
G1 X-1.667S0
G1 X-0.79S700
G1 X-1.667S0
G1 X-0.085Y0.05S0
G1 X1.667S0
G1 X0.764S700
G1 X1.666S0
G1 X-0.173Y0.05S0
G1 X-1.667S0
G1 X-0.657S700
G1 X-1.667S0
G1 X-0.048Y0.05S0
G1 X1.666S0
G1 X0.505S700
G1 X1.667S0
G1 X-0.179Y0.05S0
G1 X-1.666S0
G1 X-0.365S700
G1 X-1.667S0
G1 X-0.018Y0.05S0
G1 X1.666S0
G1 X0.279S700
G1 X1.666S0
G1 X-0.05Y0.05S0
G1 X-1.666S0
G1 X-0.247S700
G1 X-1.667S0
G1 X-0.013Y0.05S0
G1 X1.667S0
G1 X0.239S700
G1 X0.829S0
G1 X0.038S700
G1 X1.666S0
G1 X0.186Y0.05S0
G1 X-1.666S0
G1 X-0.238S700
G1 X-0.828S0
G1 X-0.226S700
G1 X-1.666S0
G1 Y0.05S0
G1 X1.667S0
G1 X0.226S700
G1 X0.812S0
G1 X0.246S700
G1 X1.667S0
G1 X-0.012Y0.05S0
G1 X-1.666S0
G1 X-0.251S700
G1 X-0.78S0
G1 X-0.239S700
G1 X-1.667S0
G1 X0.019Y0.05S0
G1 X1.667S0
G1 X0.253S700
G1 X0.705S0
G1 X0.275S700
G1 X1.667S0
G1 X-0.023Y0.05S0
G1 X-1.667S0
G1 X-0.293S700
G1 X-0.619S0
G1 X-0.28S700
G1 X-1.666S0
G1 X0.023Y0.05S0
G1 X1.667S0
G1 X0.321S700
G1 X0.47S0
G1 X0.346S700
G1 X1.667S0
G1 X-0.04Y0.05S0
G1 X-1.666S0
G1 X-1.054S700
G1 X-1.667S0
G1 X0.045Y0.05S0
G1 X1.666S0
G1 X0.961S700
G1 X1.667S0
G1 X-0.099Y0.05S0
G1 X-1.667S0
G1 X-0.769S700
G1 X-1.666S0
G1 X0.109Y0.05S0
G1 X1.667S0
G1 X0.554S700
G1 X1.667S0
G1 X-0.267Y0.05S0
G1 X-1.666S0
G1 X-0.013S700
G1 X-1.666S0
M9
G1 S0
M5
; return to starting pos
G0 X0.96Y-1.851
M2
