; LightBurn 1.2.01
; GRBL device profile, current position
; Bounds: X-1.67 Y0 to X2.36 Y1.85
G00 G17 G40 G21 G54
G91
M4
; Cut @ 4999.998 mm/min, 0% power
M8
G0 X0.496Y0.031
; Layer Lim
G1 X0.1S0F5000
; Scan @ 4000.002 mm/min, 70% power
M8
G0 X-2.263Y-0.031
; Layer C02
G1 X1.667F4000S0
G1 X0.177S700
G1 X1.667S0
G1 X0.014Y0.05S0
G1 X-1.667S0
G1 X-0.177S700
G1 X-1.667S0
G1 X0.014Y0.05S0
G1 X1.667S0
G1 X0.177S700
G1 X1.667S0
G1 X0.014Y0.05S0
G1 X-1.667S0
G1 X-0.177S700
G1 X-1.667S0
G1 X0.014Y0.05S0
G1 X1.667S0
G1 X0.177S700
G1 X1.667S0
G1 X0.014Y0.05S0
G1 X-1.667S0
G1 X-0.177S700
G1 X-1.667S0
G1 X0.015Y0.05S0
G1 X1.666S0
G1 X0.177S700
G1 X1.667S0
G1 X0.014Y0.05S0
G1 X-1.667S0
G1 X-0.177S700
G1 X-1.666S0
G1 X0.014Y0.05S0
G1 X1.666S0
G1 X0.177S700
G1 X1.667S0
G1 X0.014Y0.05S0
G1 X-1.667S0
G1 X-0.177S700
G1 X-1.666S0
G1 X0.014Y0.05S0
G1 X1.666S0
G1 X0.177S700
G1 X1.667S0
G1 X0.014Y0.05S0
G1 X-1.667S0
G1 X-0.177S700
G1 X-1.666S0
G1 X0.014Y0.05S0
G1 X1.666S0
G1 X0.177S700
G1 X1.667S0
G1 X0.014Y0.05S0
G1 X-1.667S0
G1 X-0.177S700
G1 X-1.666S0
G1 X0.014Y0.05S0
G1 X1.666S0
G1 X0.177S700
G1 X1.667S0
G1 X0.014Y0.05S0
G1 X-1.667S0
G1 X-0.177S700
G1 X-1.666S0
G1 X0.014Y0.05S0
G1 X1.666S0
G1 X0.177S700
G1 X1.667S0
G1 X0.014Y0.05S0
G1 X-1.667S0
G1 X-0.177S700
G1 X-1.666S0
G1 X0.014Y0.05S0
G1 X1.666S0
G1 X0.177S700
G1 X1.667S0
G1 X0.014Y0.05S0
G1 X-1.667S0
G1 X-0.177S700
G1 X-1.666S0
G1 X0.014Y0.05S0
G1 X1.666S0
G1 X0.177S700
G1 X1.667S0
G1 X0.014Y0.05S0
G1 X-1.667S0
G1 X-0.176S700
G1 X-1.667S0
G1 X0.014Y0.05S0
G1 X1.667S0
G1 X0.176S700
G1 X1.667S0
G1 X0.014Y0.05S0
G1 X-1.667S0
G1 X-0.176S700
G1 X-1.667S0
G1 X0.014Y0.05S0
G1 X1.667S0
G1 X0.176S700
G1 X1.667S0
G1 X0.013Y0.05S0
G1 X-1.666S0
G1 X-0.176S700
G1 X-1.667S0
G1 X0.014Y0.05S0
G1 X1.667S0
G1 X0.176S700
G1 X1.666S0
G1 X0.014Y0.05S0
G1 X-1.666S0
G1 X-0.176S700
G1 X-1.667S0
G1 X0.014Y0.05S0
G1 X1.667S0
G1 X0.176S700
G1 X1.666S0
G1 X0.014Y0.05S0
G1 X-1.666S0
G1 X-0.176S700
G1 X-1.667S0
G1 X0.014Y0.05S0
G1 X1.667S0
G1 X0.176S700
G1 X1.666S0
G1 X0.014Y0.05S0
G1 X-1.666S0
G1 X-0.176S700
G1 X-1.667S0
G1 X0.014Y0.05S0
G1 X1.667S0
G1 X0.176S700
G1 X1.666S0
G1 X0.014Y0.05S0
G1 X-1.666S0
G1 X-0.176S700
G1 X-1.667S0
G1 X0.014Y0.05S0
G1 X1.667S0
G1 X0.176S700
G1 X1.666S0
G1 X0.014Y0.05S0
G1 X-1.666S0
G1 X-0.176S700
G1 X-1.667S0
G1 X0.014Y0.05S0
G1 X1.667S0
G1 X0.176S700
G1 X1.666S0
G1 X0.014Y0.05S0
G1 X-1.666S0
G1 X-0.176S700
G1 X-1.667S0
M9
G1 S0
M5
; return to starting pos
G0 X1.148Y-1.85
M2
