; LightBurn 1.2.01
; GRBL device profile, current position
; Bounds: X-1.67 Y0.03 to X3.09 Y1.79
G00 G17 G40 G21 G54
G91
M4
; Cut @ 4999.998 mm/min, 0% power
M8
G0 X0.307Y0.031
; Layer Lim
G1 X0.1S0F5000
; Scan @ 4000.002 mm/min, 70% power
M8
G0 X-1.641Y0.004
; Layer C02
G1 X1.667F4000S0
G1 X0.552S700
G1 X1.666S0
G1 X0.117Y0.05S0
G1 X-1.667S0
G1 X-0.785S700
G1 X-1.667S0
G1 X-0.077Y0.05S0
G1 X1.667S0
G1 X0.941S700
G1 X1.666S0
G1 X0.054Y0.05S0
G1 X-1.667S0
G1 X-1.05S700
G1 X-1.667S0
G1 X-0.043Y0.05S0
G1 X1.667S0
G1 X0.409S700
G1 X0.309S0
G1 X0.421S700
G1 X1.666S0
G1 X0.036Y0.05S0
G1 X-1.667S0
G1 X-0.331S700
G1 X-0.558S0
G1 X-0.322S700
G1 X-1.666S0
G1 X-0.027Y0.05S0
G1 X1.666S0
G1 X0.301S700
G1 X0.691S0
G1 X0.275S700
G1 X1.667S0
G1 X0.022Y0.05S0
G1 X-1.666S0
G1 X-0.27S700
G1 X-0.763S0
G1 X-0.28S700
G1 X-1.666S0
G1 X-0.018Y0.05S0
G1 X1.667S0
G1 X0.27S700
G1 X0.817S0
G1 X0.261S700
G1 X1.667S0
G1 X0.011Y0.05S0
G1 X-1.666S0
G1 X-0.256S700
G1 X-0.861S0
G1 X-0.254S700
G1 X-1.667S0
G1 X-0.01Y0.05S0
G1 X1.666S0
G1 X0.248S700
G1 X0.895S0
G1 X0.25S700
G1 X1.667S0
G1 Y0.05S0
G1 X-1.666S0
G1 X-0.24S700
G1 X-0.918S0
G1 X-0.237S700
G1 X-1.666S0
G1 Y0.05S0
G1 X1.665S0
G1 X0.227S700
G1 X0.937S0
G1 X0.233S700
G1 X1.667S0
G1 Y0.05S0
G1 X-1.666S0
G1 X-0.23S700
G1 X-0.941S0
G1 X-0.228S700
G1 X-1.666S0
G1 Y0.05S0
G1 X1.665S0
G1 X0.231S700
G1 X0.938S0
G1 X0.232S700
G1 X1.667S0
G1 Y0.05S0
G1 X-1.665S0
G1 X-0.235S700
G1 X-0.935S0
G1 X-0.234S700
G1 X-1.666S0
G1 Y0.05S0
G1 X1.665S0
G1 X0.236S700
G1 X0.934S0
G1 X0.236S700
G1 X1.666S0
G1 Y0.05S0
G1 X-1.665S0
G1 X-0.237S700
G1 X-0.934S0
G1 X-0.237S700
G1 X-1.666S0
G1 Y0.05S0
G1 X1.665S0
G1 X0.238S700
G1 X0.934S0
G1 X0.238S700
G1 X1.666S0
G1 Y0.05S0
G1 X-1.665S0
G1 X-0.239S700
G1 X-0.934S0
G1 X-0.239S700
G1 X-1.667S0
G1 Y0.05S0
G1 X1.666S0
G1 X0.24S700
G1 X0.934S0
G1 X0.24S700
G1 X1.666S0
G1 Y0.05S0
G1 X-1.665S0
G1 X-0.241S700
G1 X-0.934S0
G1 X-0.241S700
G1 X-1.667S0
G1 Y0.05S0
G1 X1.666S0
G1 X0.242S700
G1 X0.934S0
G1 X0.242S700
G1 X1.666S0
G1 Y0.05S0
G1 X-1.665S0
G1 X-0.243S700
G1 X-0.934S0
G1 X-0.243S700
G1 X-1.667S0
G1 Y0.05S0
G1 X1.666S0
G1 X0.244S700
G1 X0.934S0
G1 X0.244S700
G1 X1.666S0
G1 Y0.05S0
G1 X-1.667S0
G1 X-0.243S700
G1 X-0.934S0
G1 X-0.243S700
G1 X-1.667S0
G1 Y0.05S0
G1 X1.667S0
G1 X0.243S700
G1 X0.934S0
G1 X0.243S700
G1 X1.666S0
G1 Y0.05S0
G1 X-1.667S0
G1 X-0.242S700
G1 X-0.934S0
G1 X-0.242S700
G1 X-1.667S0
G1 Y0.05S0
G1 X1.667S0
G1 X0.242S700
G1 X0.934S0
G1 X0.241S700
G1 X1.667S0
G1 Y0.05S0
G1 X-1.667S0
G1 X-0.241S700
G1 X-0.934S0
G1 X-0.241S700
G1 X-1.667S0
G1 Y0.05S0
G1 X1.668S0
G1 X0.24S700
G1 X0.934S0
G1 X0.24S700
G1 X1.667S0
G1 Y0.05S0
G1 X-1.667S0
G1 X-0.24S700
G1 X-0.934S0
G1 X-0.24S700
G1 X-1.667S0
G1 Y0.05S0
G1 X1.668S0
G1 X0.239S700
G1 X0.934S0
G1 X0.239S700
G1 X1.667S0
G1 Y0.05S0
G1 X-1.668S0
G1 X-0.238S700
G1 X-0.934S0
G1 X-0.239S700
G1 X-1.666S0
G1 Y0.05S0
G1 X1.667S0
G1 X0.238S700
G1 X0.934S0
G1 X0.238S700
G1 X1.666S0
G1 Y0.05S0
G1 X-1.667S0
G1 X-0.237S700
G1 X-0.934S0
G1 X-0.237S700
G1 X-1.667S0
M9
G1 S0
M5
; return to starting pos
G0 X1.66Y-1.785
M2
