; LightBurn 1.2.01
; GRBL device profile, current position
; Bounds: X-1.66 Y0 to X3.3 Y1.77
G00 G17 G40 G21 G54
G91
M4
; Cut @ 4999.998 mm/min, 0% power
M8
G0 X0.485Y0
; Layer Lim
G1 X0.1S0F5000
; Scan @ 4000.002 mm/min, 70% power
M8
G0 X-1.566Y0.02
; Layer C02
G1 X1.667F4000S0
G1 X0.258S700
G1 X1.667S0
G1 X0.019Y0.05S0
G1 X-1.666S0
G1 X-0.298S700
G1 X-1.666S0
G1 X-0.02Y0.05S0
G1 X1.667S0
G1 X0.336S700
G1 X1.667S0
G1 X0.02Y0.05S0
G1 X-1.667S0
G1 X-0.375S700
G1 X-1.667S0
G1 X-0.019Y0.05S0
G1 X1.666S0
G1 X0.201S700
G1 X0.014S0
G1 X0.2S700
G1 X1.666S0
G1 X0.02Y0.05S0
G1 X-1.667S0
G1 X-0.204S700
G1 X-0.044S0
G1 X-0.205S700
G1 X-1.667S0
G1 X-0.019Y0.05S0
G1 X1.667S0
G1 X0.209S700
G1 X0.074S0
G1 X0.209S700
G1 X1.666S0
G1 X0.02Y0.05S0
G1 X-1.667S0
G1 X-0.211S700
G1 X-0.108S0
G1 X-0.212S700
G1 X-1.666S0
G1 X-0.02Y0.05S0
G1 X1.667S0
G1 X0.214S700
G1 X0.143S0
G1 X0.213S700
G1 X1.667S0
G1 X0.019Y0.05S0
G1 X-1.667S0
G1 X-0.214S700
G1 X-0.178S0
G1 X-0.217S700
G1 X-1.666S0
G1 X-0.02Y0.05S0
G1 X1.667S0
G1 X0.218S700
G1 X0.214S0
G1 X0.216S700
G1 X1.667S0
G1 X0.019Y0.05S0
G1 X-1.666S0
G1 X-0.218S700
G1 X-0.249S0
G1 X-0.22S700
G1 X-1.667S0
G1 X-0.019Y0.05S0
G1 X1.666S0
G1 X0.222S700
G1 X0.285S0
G1 X0.219S700
G1 X1.667S0
G1 X0.019Y0.05S0
G1 X-1.666S0
G1 X-0.221S700
G1 X-0.32S0
G1 X-0.224S700
G1 X-1.667S0
G1 X-0.019Y0.05S0
G1 X1.667S0
G1 X0.225S700
G1 X0.356S0
G1 X0.222S700
G1 X1.667S0
G1 X0.02Y0.05S0
G1 X-1.667S0
G1 X-0.224S700
G1 X-0.391S0
G1 X-0.228S700
G1 X-1.666S0
G1 X-0.02Y0.05S0
G1 X1.667S0
G1 X0.23S700
G1 X0.427S0
G1 X0.225S700
G1 X1.666S0
G1 X0.02Y0.05S0
G1 X-1.667S0
G1 X-0.226S700
G1 X-0.463S0
G1 X-0.232S700
G1 X-1.666S0
G1 X-0.02Y0.05S0
G1 X1.667S0
G1 X0.234S700
G1 X0.498S0
G1 X0.228S700
G1 X1.666S0
G1 X0.02Y0.05S0
G1 X-1.667S0
G1 X-0.229S700
G1 X-0.534S0
G1 X-0.235S700
G1 X-1.667S0
G1 X-0.019Y0.05S0
G1 X1.666S0
G1 X0.238S700
G1 X0.569S0
G1 X0.231S700
G1 X1.667S0
G1 X0.019Y0.05S0
G1 X-1.667S0
G1 X-0.232S700
G1 X-0.605S0
G1 X-0.239S700
G1 X-1.667S0
G1 X-0.019Y0.05S0
G1 X1.667S0
G1 X0.24S700
G1 X0.642S0
G1 X0.233S700
G1 X1.667S0
G1 X0.019Y0.05S0
G1 X-1.666S0
G1 X-0.234S700
G1 X-0.679S0
G1 X-0.242S700
G1 X-1.666S0
G1 X-0.02Y0.05S0
G1 X1.667S0
G1 X0.243S700
G1 X0.716S0
G1 X0.234S700
G1 X1.667S0
G1 X0.019Y0.05S0
G1 X-1.666S0
G1 X-0.235S700
G1 X-0.753S0
G1 X-0.245S700
G1 X-1.666S0
G1 X-0.02Y0.05S0
G1 X1.667S0
G1 X0.245S700
G1 X0.79S0
G1 X0.236S700
G1 X1.667S0
G1 X0.02Y0.05S0
G1 X-1.667S0
G1 X-0.237S700
G1 X-0.827S0
G1 X-0.246S700
G1 X-1.667S0
G1 X-0.019Y0.05S0
G1 X1.666S0
G1 X0.248S700
G1 X0.864S0
G1 X0.238S700
G1 X1.666S0
G1 X0.02Y0.05S0
G1 X-1.667S0
G1 X-0.238S700
G1 X-0.901S0
G1 X-0.249S700
G1 X-1.667S0
G1 X-0.019Y0.05S0
G1 X1.667S0
G1 X0.249S700
G1 X0.939S0
G1 X0.239S700
G1 X1.666S0
G1 X0.02Y0.05S0
G1 X-1.667S0
G1 X-0.239S700
G1 X-0.976S0
G1 X-0.251S700
G1 X-1.666S0
G1 X-0.02Y0.05S0
G1 X1.667S0
G1 X0.252S700
G1 X1.013S0
G1 X0.24S700
G1 X1.667S0
G1 X0.019Y0.05S0
G1 X-1.667S0
G1 X-0.24S700
G1 X-1.05S0
G1 X-0.254S700
G1 X-1.666S0
G1 X-0.02Y0.05S0
G1 X1.667S0
G1 X0.255S700
G1 X1.087S0
G1 X0.241S700
G1 X1.667S0
G1 X0.019Y0.05S0
G1 X-1.666S0
G1 X-0.242S700
G1 X-1.125S0
G1 X-0.255S700
G1 X-1.667S0
M9
G1 S0
M5
; return to starting pos
G0 X1.659Y-1.77
M2
