; LightBurn 1.2.01
; GRBL device profile, current position
; Bounds: X-1.66 Y0 to X3.96 Y1.77
G00 G17 G40 G21 G54
G91
M4
; Cut @ 4999.998 mm/min, 0% power
M8
G0 X0.466Y0
; Layer Lim
G1 X0.1S0F5000
; Scan @ 4000.002 mm/min, 70% power
M8
G0 X-1.763Y0.02
; Layer C02
G1 X1.667F4000S0
G1 X0.252S700
G1 X0.855S0
G1 X0.239S700
G1 X1.667S0
G1 X0.014Y0.05S0
G1 X-1.667S0
G1 X-0.267S700
G1 X-0.827S0
G1 X-0.28S700
G1 X-1.666S0
G1 X-0.013Y0.05S0
G1 X1.666S0
G1 X0.307S700
G1 X0.799S0
G1 X0.295S700
G1 X1.666S0
G1 X0.014Y0.05S0
G1 X-1.666S0
G1 X-0.323S700
G1 X-0.771S0
G1 X-0.334S700
G1 X-1.667S0
G1 X-0.013Y0.05S0
G1 X1.667S0
G1 X0.361S700
G1 X0.744S0
G1 X0.349S700
G1 X1.667S0
G1 X0.014Y0.05S0
G1 X-1.667S0
G1 X-0.187S700
G1 X-0.19
G1 X-0.716S0
G1 X-0.196S700
G1 X-0.193
G1 X-1.666S0
G1 X-0.014Y0.05S0
G1 X1.667S0
G1 X0.188S700
G1 X0.031S0
G1 X0.197S700
G1 X0.688S0
G1 X0.187S700
G1 X0.028S0
G1 X0.19S700
G1 X1.666S0
G1 X0.014Y0.05S0
G1 X-1.667S0
G1 X-0.191S700
G1 X-0.049S0
G1 X-0.192S700
G1 X-0.66S0
G1 X-0.199S700
G1 X-0.053S0
G1 X-0.191S700
G1 X-1.667S0
G1 X-0.013Y0.05S0
G1 X1.667S0
G1 X0.195S700
G1 X0.075S0
G1 X0.2S700
G1 X0.632S0
G1 X0.197S700
G1 X0.069S0
G1 X0.194S700
G1 X1.667S0
G1 X0.013Y0.05S0
G1 X-1.666S0
G1 X-0.197S700
G1 X-0.09S0
G1 X-0.2S700
G1 X-0.605S0
G1 X-0.201S700
G1 X-0.099S0
G1 X-0.198S700
G1 X-1.666S0
G1 X-0.014Y0.05S0
G1 X1.667S0
G1 X0.199S700
G1 X0.123S0
G1 X0.203S700
G1 X0.577S0
G1 X0.205S700
G1 X0.111S0
G1 X0.198S700
G1 X1.667S0
G1 X0.014Y0.05S0
G1 X-1.667S0
G1 X-0.201S700
G1 X-0.132S0
G1 X-0.209S700
G1 X-0.55S0
G1 X-0.203S700
G1 X-0.147S0
G1 X-0.201S700
G1 X-1.667S0
G1 X-0.013Y0.05S0
G1 X1.666S0
G1 X0.204S700
G1 X0.171S0
G1 X0.204S700
G1 X0.522S0
G1 X0.21S700
G1 X0.156S0
G1 X0.204S700
G1 X1.667S0
G1 X0.013Y0.05S0
G1 X-1.666S0
G1 X-0.206S700
G1 X-0.181S0
G1 X-0.211S700
G1 X-0.494S0
G1 X-0.205S700
G1 X-0.195S0
G1 X-0.206S700
G1 X-1.666S0
G1 X-0.014Y0.05S0
G1 X1.667S0
G1 X0.207S700
G1 X0.219S0
G1 X0.207S700
G1 X0.466S0
G1 X0.212S700
G1 X0.205S0
G1 X0.208S700
G1 X1.667S0
G1 X0.014Y0.05S0
G1 X-1.667S0
G1 X-0.211S700
G1 X-0.229S0
G1 X-0.212S700
G1 X-0.439S0
G1 X-0.208S700
G1 X-0.243S0
G1 X-0.209S700
G1 X-1.667S0
G1 X-0.013Y0.05S0
G1 X1.666S0
G1 X0.212S700
G1 X0.267S0
G1 X0.209S700
G1 X0.411S0
G1 X0.213S700
G1 X0.254S0
G1 X0.213S700
G1 X1.666S0
G1 X0.014Y0.05S0
G1 X-1.667S0
G1 X-0.215S700
G1 X-0.278S0
G1 X-0.214S700
G1 X-0.383S0
G1 X-0.211S700
G1 X-0.291S0
G1 X-0.213S700
G1 X-1.667S0
G1 X-0.013Y0.05S0
G1 X1.667S0
G1 X0.215S700
G1 X0.315S0
G1 X0.212S700
G1 X0.355S0
G1 X0.215S700
G1 X0.302S0
G1 X0.218S700
G1 X1.667S0
G1 X0.013Y0.05S0
G1 X-1.666S0
G1 X-0.22S700
G1 X-0.327S0
G1 X-0.216S700
G1 X-0.327S0
G1 X-0.213S700
G1 X-0.339S0
G1 X-0.217S700
G1 X-1.667S0
G1 X-0.013Y0.05S0
G1 X1.666S0
G1 X0.22S700
G1 X0.362S0
G1 X0.215S700
G1 X0.299S0
G1 X0.217S700
G1 X0.351S0
G1 X0.223S700
G1 X1.666S0
G1 X0.014Y0.05S0
G1 X-1.667S0
G1 X-0.224S700
G1 X-0.376S0
G1 X-0.217S700
G1 X-0.273S0
G1 X-0.213S700
G1 X-0.389S0
G1 X-0.221S700
G1 X-1.667S0
G1 X-0.013Y0.05S0
G1 X1.667S0
G1 X0.223S700
G1 X0.415S0
G1 X0.212S700
G1 X0.245S0
G1 X0.218S700
G1 X0.402S0
G1 X0.225S700
G1 X1.667S0
G1 X0.013Y0.05S0
G1 X-1.666S0
G1 X-0.226S700
G1 X-0.428S0
G1 X-0.219S700
G1 X-0.217S0
G1 X-0.212S700
G1 X-0.441S0
G1 X-0.225S700
G1 X-1.666S0
G1 X-0.013Y0.05S0
G1 X1.666S0
G1 X0.226S700
G1 X0.468S0
G1 X0.211S700
G1 X0.189S0
G1 X0.218S700
G1 X0.456S0
G1 X0.226S700
G1 X1.667S0
G1 X0.014Y0.05S0
G1 X-1.667S0
G1 X-0.228S700
G1 X-0.482S0
G1 X-0.218S700
G1 X-0.161S0
G1 X-0.21S700
G1 X-0.494S0
G1 X-0.228S700
G1 X-1.667S0
G1 X-0.013Y0.05S0
G1 X1.667S0
G1 X0.229S700
G1 X0.52S0
G1 X0.21S700
G1 X0.134S0
G1 X0.216S700
G1 X0.51S0
G1 X0.229S700
G1 X1.666S0
G1 X0.014Y0.05S0
G1 X-1.667S0
G1 X-0.229S700
G1 X-0.537S0
G1 X-0.216S700
G1 X-0.106S0
G1 X-0.209S700
G1 X-0.547S0
G1 X-0.231S700
G1 X-1.666S0
G1 X-0.014Y0.05S0
G1 X1.667S0
G1 X0.232S700
G1 X0.574S0
G1 X0.207S700
G1 X0.079S0
G1 X0.215S700
G1 X0.564S0
G1 X0.231S700
G1 X1.667S0
G1 X0.014Y0.05S0
G1 X-1.667S0
G1 X-0.232S700
G1 X-0.591S0
G1 X-0.214S700
G1 X-0.053S0
G1 X-0.206S700
G1 X-0.6S0
G1 X-0.233S700
G1 X-1.667S0
G1 X-0.013Y0.05S0
G1 X1.667S0
G1 X0.235S700
G1 X0.626S0
G1 X0.203S700
G1 X0.027S0
G1 X0.213S700
G1 X0.619S0
G1 X0.233S700
G1 X1.666S0
G1 X0.014Y0.05S0
G1 X-1.667S0
G1 X-0.234S700
G1 X-0.645S0
G1 X-0.212S700
G1 X-0.202
G1 X-0.653S0
G1 X-0.237S700
G1 X-1.666S0
G1 X-0.014Y0.05S0
G1 X1.667S0
G1 X0.238S700
G1 X0.679S0
G1 X0.385S700
G1 X0.673S0
G1 X0.235S700
G1 X1.667S0
G1 X0.013Y0.05S0
G1 X-1.666S0
G1 X-0.236S700
G1 X-0.7S0
G1 X-0.356S700
G1 X-0.706S0
G1 X-0.239S700
G1 X-1.667S0
G1 X-0.013Y0.05S0
G1 X1.667S0
G1 X0.24S700
G1 X0.733S0
G1 X0.326S700
G1 X0.728S0
G1 X0.236S700
G1 X1.667S0
G1 X0.014Y0.05S0
G1 X-1.667S0
G1 X-0.238S700
G1 X-0.754S0
G1 X-0.298S700
G1 X-0.758S0
G1 X-0.243S700
G1 X-1.666S0
M9
G1 S0
M5
; return to starting pos
G0 X1.661Y-1.77
M2
