; LightBurn 1.2.01
; GRBL device profile, current position
; Bounds: X-1.65 Y0 to X3.29 Y1.77
G00 G17 G40 G21 G54
G91
M4
; Cut @ 4999.998 mm/min, 0% power
M8
G0 X0.485Y0
; Layer Lim
G1 X0.1S0F5000
; Scan @ 4000.002 mm/min, 70% power
M8
G0 X-2.237Y0.02
; Layer C02
G1 X1.667F4000S0
G1 X0.284S700
G1 X1.035S0
G1 X0.293S700
G1 X1.667S0
G1 X-0.036Y0.05S0
G1 X-1.667S0
G1 X-0.292S700
G1 X-0.964S0
G1 X-0.283S700
G1 X-1.667S0
G1 X0.037Y0.05S0
G1 X1.667S0
G1 X0.282S700
G1 X0.892S0
G1 X0.292S700
G1 X1.667S0
G1 X-0.036Y0.05S0
G1 X-1.667S0
G1 X-0.291S700
G1 X-0.821S0
G1 X-0.281S700
G1 X-1.667S0
G1 X0.037Y0.05S0
G1 X1.667S0
G1 X0.28S700
G1 X0.75S0
G1 X0.291S700
G1 X1.666S0
G1 X-0.036Y0.05S0
G1 X-1.666S0
G1 X-0.29S700
G1 X-0.679S0
G1 X-0.279S700
G1 X-1.666S0
G1 X0.037Y0.05S0
G1 X1.666S0
G1 X0.278S700
G1 X0.607S0
G1 X0.29S700
G1 X1.667S0
G1 X-0.036Y0.05S0
G1 X-1.667S0
G1 X-0.289S700
G1 X-0.536S0
G1 X-0.277S700
G1 X-1.666S0
G1 X0.037Y0.05S0
G1 X1.667S0
G1 X0.275S700
G1 X0.465S0
G1 X0.288S700
G1 X1.667S0
G1 X-0.036Y0.05S0
G1 X-1.666S0
G1 X-0.289S700
G1 X-0.393S0
G1 X-0.274S700
G1 X-1.667S0
G1 X0.037Y0.05S0
G1 X1.667S0
G1 X0.273S700
G1 X0.322S0
G1 X0.288S700
G1 X1.666S0
G1 X-0.035Y0.05S0
G1 X-1.667S0
G1 X-0.287S700
G1 X-0.251S0
G1 X-0.272S700
G1 X-1.667S0
G1 X0.037Y0.05S0
G1 X1.667S0
G1 X0.271S700
G1 X0.179S0
G1 X0.287S700
G1 X1.667S0
G1 X-0.036Y0.05S0
G1 X-1.667S0
G1 X-0.284S700
G1 X-0.114S0
G1 X-0.266S700
G1 X-1.667S0
G1 X0.037Y0.05S0
G1 X1.667S0
G1 X0.261S700
G1 X0.049S0
G1 X0.281S700
G1 X1.667S0
G1 X-0.036Y0.05S0
G1 X-1.666S0
G1 X-0.519S700
G1 X-1.666S0
G1 X0.037Y0.05S0
G1 X1.666S0
G1 X0.446S700
G1 X1.666S0
G1 X-0.035Y0.05S0
G1 X-1.667S0
G1 X-0.373S700
G1 X-1.666S0
G1 X0.037Y0.05S0
G1 X1.667S0
G1 X0.299S700
G1 X1.667S0
G1 Y0.05S0
G1 X-1.668S0
G1 X-0.315S700
G1 X-1.667S0
G1 X-0.035Y0.05S0
G1 X1.666S0
G1 X0.388S700
G1 X1.667S0
G1 X0.037Y0.05S0
G1 X-1.666S0
G1 X-0.461S700
G1 X-1.667S0
G1 X-0.036Y0.05S0
G1 X1.667S0
G1 X0.268S700
G1 X0.012S0
G1 X0.254S700
G1 X1.667S0
G1 X0.037Y0.05S0
G1 X-1.667S0
G1 X-0.257S700
G1 X-0.077S0
G1 X-0.272S700
G1 X-1.667S0
G1 X-0.036Y0.05S0
G1 X1.667S0
G1 X0.277S700
G1 X0.143S0
G1 X0.259S700
G1 X1.667S0
G1 X0.037Y0.05S0
G1 X-1.666S0
G1 X-0.262S700
G1 X-0.213S0
G1 X-0.278S700
G1 X-1.666S0
G1 X-0.036Y0.05S0
G1 X1.667S0
G1 X0.278S700
G1 X0.282S0
G1 X0.265S700
G1 X1.667S0
G1 X0.037Y0.05S0
G1 X-1.667S0
G1 X-0.267S700
G1 X-0.351S0
G1 X-0.28S700
G1 X-1.667S0
G1 X-0.035Y0.05S0
G1 X1.666S0
G1 X0.281S700
G1 X0.421S0
G1 X0.27S700
G1 X1.666S0
G1 X0.037Y0.05S0
G1 X-1.666S0
G1 X-0.271S700
G1 X-0.491S0
G1 X-0.282S700
G1 X-1.667S0
G1 X-0.035Y0.05S0
G1 X1.666S0
G1 X0.283S700
G1 X0.565S0
G1 X0.269S700
G1 X1.667S0
G1 X0.037Y0.05S0
G1 X-1.667S0
G1 X-0.267S700
G1 X-0.64S0
G1 X-0.282S700
G1 X-1.667S0
G1 X-0.036Y0.05S0
G1 X1.667S0
G1 X0.282S700
G1 X0.716S0
G1 X0.265S700
G1 X1.666S0
G1 X0.038Y0.05S0
G1 X-1.667S0
G1 X-0.263S700
G1 X-0.791S0
G1 X-0.282S700
G1 X-1.666S0
G1 X-0.036Y0.05S0
G1 X1.667S0
G1 X0.282S700
G1 X0.866S0
G1 X0.26S700
G1 X1.667S0
G1 X0.037Y0.05S0
G1 X-1.667S0
G1 X-0.258S700
G1 X-0.941S0
G1 X-0.282S700
G1 X-1.667S0
M9
G1 S0
M5
; return to starting pos
G0 X1.571Y-1.77
M2
