; LightBurn 1.2.01
; GRBL device profile, current position
; Bounds: X-1.65 Y0 to X3.29 Y1.77
G00 G17 G40 G21 G54
G91
M4
; Cut @ 4999.998 mm/min, 0% power
M8
G0 X0.489Y0
; Layer Lim
G1 X0.1S0F5000
; Scan @ 4000.002 mm/min, 70% power
M8
G0 X-1.566Y0.02
; Layer C02
G1 X1.667F4000S0
G1 X0.237S700
G1 X1.667S0
G1 Y0.05S0
G1 X-1.667S0
G1 X-0.237S700
G1 X-1.667S0
G1 Y0.05S0
G1 X1.667S0
G1 X0.237S700
G1 X1.667S0
G1 Y0.05S0
G1 X-1.667S0
G1 X-0.237S700
G1 X-1.667S0
G1 Y0.05S0
G1 X1.667S0
G1 X0.237S700
G1 X1.667S0
G1 Y0.05S0
G1 X-1.667S0
G1 X-0.237S700
G1 X-1.667S0
G1 Y0.05S0
G1 X1.667S0
G1 X0.237S700
G1 X1.667S0
G1 Y0.05S0
G1 X-1.667S0
G1 X-0.237S700
G1 X-1.667S0
G1 Y0.05S0
G1 X1.667S0
G1 X0.237S700
G1 X1.667S0
G1 Y0.05S0
G1 X-1.667S0
G1 X-0.237S700
G1 X-1.667S0
G1 Y0.05S0
G1 X1.667S0
G1 X0.237S700
G1 X1.667S0
G1 Y0.05S0
G1 X-1.667S0
G1 X-0.237S700
G1 X-1.667S0
G1 Y0.05S0
G1 X1.667S0
G1 X0.237S700
G1 X1.667S0
G1 Y0.05S0
G1 X-1.667S0
G1 X-0.237S700
G1 X-1.667S0
G1 Y0.05S0
G1 X1.667S0
G1 X0.237S700
G1 X1.667S0
G1 X0.008Y0.05S0
G1 X-1.667S0
G1 X-0.253S700
G1 X-1.667S0
G1 X-0.033Y0.05S0
G1 X1.667S0
G1 X0.321S700
G1 X1.666S0
G1 X0.035Y0.05S0
G1 X-1.667S0
G1 X-0.389S700
G1 X-1.667S0
G1 X-0.033Y0.05S0
G1 X1.667S0
G1 X0.457S700
G1 X1.666S0
G1 X0.035Y0.05S0
G1 X-1.667S0
G1 X-0.236S700
G1 X-0.027S0
G1 X-0.262S700
G1 X-1.666S0
G1 X-0.034Y0.05S0
G1 X1.667S0
G1 X0.266S700
G1 X0.087S0
G1 X0.24S700
G1 X1.667S0
G1 X0.034Y0.05S0
G1 X-1.666S0
G1 X-0.244S700
G1 X-0.147S0
G1 X-0.271S700
G1 X-1.666S0
G1 X-0.034Y0.05S0
G1 X1.667S0
G1 X0.274S700
G1 X0.207S0
G1 X0.248S700
G1 X1.667S0
G1 X0.035Y0.05S0
G1 X-1.667S0
G1 X-0.252S700
G1 X-0.27S0
G1 X-0.276S700
G1 X-1.666S0
G1 X-0.034Y0.05S0
G1 X1.667S0
G1 X0.278S700
G1 X0.332S0
G1 X0.255S700
G1 X1.667S0
G1 X0.035Y0.05S0
G1 X-1.667S0
G1 X-0.259S700
G1 X-0.395S0
G1 X-0.279S700
G1 X-1.667S0
G1 X-0.034Y0.05S0
G1 X1.667S0
G1 X0.281S700
G1 X0.458S0
G1 X0.263S700
G1 X1.666S0
G1 X0.035Y0.05S0
G1 X-1.667S0
G1 X-0.266S700
G1 X-0.52S0
G1 X-0.283S700
G1 X-1.667S0
G1 X-0.033Y0.05S0
G1 X1.666S0
G1 X0.285S700
G1 X0.585S0
G1 X0.268S700
G1 X1.667S0
G1 X0.034Y0.05S0
G1 X-1.666S0
G1 X-0.269S700
G1 X-0.651S0
G1 X-0.286S700
G1 X-1.667S0
G1 X-0.033Y0.05S0
G1 X1.666S0
G1 X0.287S700
G1 X0.717S0
G1 X0.27S700
G1 X1.667S0
G1 X0.035Y0.05S0
G1 X-1.667S0
G1 X-0.271S700
G1 X-0.784S0
G1 X-0.287S700
G1 X-1.667S0
G1 X-0.033Y0.05S0
G1 X1.667S0
G1 X0.287S700
G1 X0.85S0
G1 X0.272S700
G1 X1.667S0
G1 X0.035Y0.05S0
G1 X-1.667S0
G1 X-0.273S700
G1 X-0.918S0
G1 X-0.287S700
G1 X-1.667S0
G1 X-0.033Y0.05S0
G1 X1.667S0
G1 X0.287S700
G1 X0.984S0
G1 X0.275S700
G1 X1.666S0
G1 X0.035Y0.05S0
G1 X-1.667S0
G1 X-0.275S700
G1 X-1.051S0
G1 X-0.288S700
G1 X-1.666S0
M9
G1 S0
M5
; return to starting pos
G0 X1.653Y-1.77
M2
