; LightBurn 1.2.01
; GRBL device profile, current position
; Bounds: X-1.67 Y0 to X3.08 Y1.77
G00 G17 G40 G21 G54
G91
M4
; Cut @ 4999.998 mm/min, 0% power
M8
G0 X0.446Y0
; Layer Lim
G1 X0.1S0F5000
; Scan @ 4000.002 mm/min, 70% power
M8
G0 X-2.213Y0.02
; Layer C02
G1 X1.667F4000S0
G1 X1.415S700
G1 X1.667S0
G1 Y0.05S0
G1 X-1.667S0
G1 X-1.415S700
G1 X-1.667S0
G1 Y0.05S0
G1 X1.667S0
G1 X1.415S700
G1 X1.667S0
G1 Y0.05S0
G1 X-1.667S0
G1 X-1.415S700
G1 X-1.667S0
G1 Y0.05S0
G1 X1.667S0
G1 X0.279S700
G1 X1.667S0
G1 X0.043Y0.05S0
G1 X-1.666S0
G1 X-0.284S700
G1 X-1.667S0
G1 X0.04Y0.05S0
G1 X1.666S0
G1 X0.288S700
G1 X1.667S0
G1 X0.041Y0.05S0
G1 X-1.667S0
G1 X-0.289S700
G1 X-1.667S0
G1 X0.039Y0.05S0
G1 X1.667S0
G1 X0.291S700
G1 X1.666S0
G1 X0.041Y0.05S0
G1 X-1.667S0
G1 X-0.292S700
G1 X-1.666S0
G1 X0.039Y0.05S0
G1 X1.667S0
G1 X0.293S700
G1 X1.666S0
G1 X0.041Y0.05S0
G1 X-1.667S0
G1 X-0.294S700
G1 X-1.667S0
G1 X0.04Y0.05S0
G1 X1.666S0
G1 X0.296S700
G1 X1.666S0
G1 X0.041Y0.05S0
G1 X-1.667S0
G1 X-0.296S700
G1 X-1.667S0
G1 X0.039Y0.05S0
G1 X1.667S0
G1 X0.298S700
G1 X1.666S0
G1 X0.041Y0.05S0
G1 X-1.667S0
G1 X-0.299S700
G1 X-1.666S0
G1 X0.039Y0.05S0
G1 X1.667S0
G1 X0.3S700
G1 X1.666S0
G1 X0.041Y0.05S0
G1 X-1.667S0
G1 X-0.301S700
G1 X-1.666S0
G1 X0.041Y0.05S0
G1 X1.666S0
G1 X0.301S700
G1 X1.666S0
G1 X0.041Y0.05S0
G1 X-1.667S0
G1 X-0.3S700
G1 X-1.666S0
G1 X0.041Y0.05S0
G1 X1.666S0
G1 X0.299S700
G1 X1.667S0
G1 X0.041Y0.05S0
G1 X-1.667S0
G1 X-0.299S700
G1 X-1.666S0
G1 X0.041Y0.05S0
G1 X1.667S0
G1 X0.297S700
G1 X1.667S0
G1 X0.041Y0.05S0
G1 X-1.667S0
G1 X-0.297S700
G1 X-1.667S0
G1 X0.041Y0.05S0
G1 X1.667S0
G1 X0.296S700
G1 X1.667S0
G1 X0.041Y0.05S0
G1 X-1.667S0
G1 X-0.296S700
G1 X-1.667S0
G1 X0.041Y0.05S0
G1 X1.667S0
G1 X0.295S700
G1 X1.667S0
G1 X0.04Y0.05S0
G1 X-1.666S0
G1 X-0.295S700
G1 X-1.667S0
G1 X0.041Y0.05S0
G1 X1.667S0
G1 X0.294S700
G1 X1.667S0
G1 X0.04Y0.05S0
G1 X-1.666S0
G1 X-0.294S700
G1 X-1.667S0
G1 X0.045Y0.05S0
G1 X1.667S0
G1 X0.289S700
G1 X1.667S0
G1 X0.04Y0.05S0
G1 X-1.666S0
G1 X-0.285S700
G1 X-1.666S0
G1 X-0.991Y0.05S0
G1 X1.667S0
G1 X1.282S700
G1 X1.666S0
G1 Y0.05S0
G1 X-1.666S0
G1 X-1.282S700
G1 X-1.667S0
G1 Y0.05S0
G1 X1.667S0
G1 X1.282S700
G1 X1.666S0
G1 Y0.05S0
G1 X-1.666S0
G1 X-1.282S700
G1 X-1.667S0
M9
G1 S0
M5
; return to starting pos
G0 X1.563Y-1.77
M2
