; LightBurn 1.2.01
; GRBL device profile, current position
; Bounds: X-1.67 Y0 to X2.37 Y2.35
G00 G17 G40 G21 G54
G91
M4
; Cut @ 4999.998 mm/min, 0% power
M8
G0 X0.427Y0.526
; Layer Lim
G1 X0.1S0F5000
; Scan @ 4000.002 mm/min, 70% power
M8
G0 X-1.618Y-0.523
; Layer C02
G1 X1.666F4000S0
G1 X0.132S700
G1 X1.667S0
G1 Y0.05S0
G1 X-1.667S0
G1 X-0.299S700
G1 X-1.666S0
G1 X-0.054Y0.05S0
G1 X1.667S0
G1 X0.352S700
G1 X1.667S0
G1 Y0.05S0
G1 X-1.667S0
G1 X-0.399S700
G1 X-1.666S0
G1 X-0.022Y0.05S0
G1 X1.666S0
G1 X0.271S700
G1 X1.667S0
G1 X-0.061Y0.05S0
G1 X-1.666S0
G1 X-0.233S700
G1 X-1.666S0
G1 X-0.006Y0.05S0
G1 X1.667S0
G1 X0.215S700
G1 X1.666S0
G1 X-0.01Y0.05S0
G1 X-1.666S0
G1 X-0.206S700
G1 X-1.667S0
G1 Y0.05S0
G1 X1.666S0
G1 X0.205S700
G1 X1.667S0
G1 Y0.05S0
G1 X-1.669S0
G1 X-0.204S700
G1 X-1.667S0
G1 Y0.05S0
G1 X1.666S0
G1 X0.204S700
G1 X1.667S0
G1 Y0.05S0
G1 X-1.667S0
G1 X-0.205S700
G1 X-1.667S0
G1 Y0.05S0
G1 X1.666S0
G1 X0.206S700
G1 X1.667S0
G1 Y0.05S0
G1 X-1.668S0
G1 X-0.206S700
G1 X-1.667S0
G1 Y0.05S0
G1 X1.667S0
G1 X0.205S700
G1 X1.666S0
G1 Y0.05S0
G1 X-1.668S0
G1 X-0.201S700
G1 X-1.667S0
G1 Y0.05S0
G1 X1.667S0
G1 X0.197S700
G1 X1.667S0
G1 Y0.05S0
G1 X-1.67S0
G1 X-0.207S700
G1 X-1.667S0
G1 X-0.014Y0.05S0
G1 X1.666S0
G1 X0.211S700
G1 X1.666S0
G1 X-0.019Y0.05S0
G1 X-1.667S0
G1 X-0.223S700
G1 X-1.666S0
G1 X-0.039Y0.05S0
G1 X1.666S0
G1 X0.241S700
G1 X1.666S0
G1 X-0.04Y0.05S0
G1 X-1.667S0
G1 X-0.26S700
G1 X-1.667S0
G1 X-0.095Y0.05S0
G1 X1.667S0
G1 X0.313S700
G1 X1.666S0
G1 X-0.077Y0.05S0
G1 X-1.667S0
G1 X-0.235S700
G1 X-1.667S0
G1 Y0.05S0
G1 X1.667S0
G1 X0.254S700
G1 X1.666S0
G1 X0.064Y0.05S0
G1 X-1.666S0
G1 X-0.318S700
G1 X-1.667S0
G1 X0.113Y0.05S0
G1 X1.666S0
G1 X0.241S700
G1 X1.667S0
G1 X0.035Y0.05S0
G1 X-1.667S0
G1 X-0.211S700
G1 X-1.667S0
G1 X0.035Y0.05S0
G1 X1.667S0
G1 X0.197S700
G1 X1.667S0
G1 X0.021Y0.05S0
G1 X-1.667S0
G1 X-0.192S700
G1 X-1.667S0
G1 X0.006Y0.05S0
G1 X1.667S0
G1 X0.201S700
G1 X1.667S0
G1 X0.008Y0.05S0
G1 X-1.666S0
G1 X-0.209S700
G1 X-1.666S0
G1 Y0.05S0
G1 X1.668S0
G1 X0.216S700
G1 X1.666S0
G1 Y0.05S0
G1 X-1.666S0
G1 X-0.214S700
G1 X-1.666S0
G1 Y0.05S0
G1 X1.668S0
G1 X0.21S700
G1 X1.667S0
G1 Y0.05S0
G1 X-1.67S0
G1 X-0.206S700
G1 X-1.666S0
G1 Y0.05S0
G1 X1.663S0
G1 X0.209S700
G1 X1.667S0
G1 Y0.05S0
G1 X-1.666S0
G1 X-0.213S700
G1 X-1.667S0
G1 Y0.05S0
G1 X1.669S0
G1 X0.211S700
G1 X1.667S0
G1 Y0.05S0
G1 X-1.665S0
G1 X-0.209S700
G1 X-1.666S0
G1 X0.005Y0.05S0
G1 X1.667S0
G1 X0.205S700
G1 X1.667S0
G1 X0.016Y0.05S0
G1 X-1.666S0
G1 X-0.21S700
G1 X-1.666S0
G1 X0.012Y0.05S0
G1 X1.667S0
G1 X0.215S700
G1 X1.667S0
G1 X0.185Y0.05S0
G1 X-1.667S0
G1 X-0.382S700
G1 X-1.667S0
G1 X0.021Y0.05S0
G1 X1.666S0
G1 X0.386S700
G1 X1.667S0
G1 Y0.05S0
G1 X-1.667S0
G1 X-0.349S700
G1 X-1.667S0
G1 X0.067Y0.05S0
G1 X1.667S0
G1 X0.282S700
G1 X1.667S0
G1 X-0.072Y0.05S0
G1 X-1.667S0
G1 X-0.047S700
G1 X-1.666S0
M9
G1 S0
M5
; return to starting pos
G0 X1.078Y-2.353
M2
