; LightBurn 1.2.01
; GRBL device profile, current position
; Bounds: X-1.67 Y0.05 to X2.37 Y2.3
G00 G17 G40 G21 G54
G91
M4
; Cut @ 4999.998 mm/min, 0% power
M8
G0 X0.439Y0.526
; Layer Lim
G1 X0.1S0F5000
; Scan @ 4000.002 mm/min, 70% power
M8
G0 X-2.206Y-0.478
; Layer C02
G1 X1.667F4000S0
G1 X0.29S700
G1 X1.666S0
G1 X0.064Y0.05S0
G1 X-1.667S0
G1 X-0.353S700
G1 X-1.667S0
G1 Y0.05S0
G1 X1.667S0
G1 X0.391S700
G1 X1.667S0
G1 X0.029Y0.05S0
G1 X-1.666S0
G1 X-0.334S700
G1 X-1.667S0
G1 X0.124Y0.05S0
G1 X1.666S0
G1 X0.224S700
G1 X1.667S0
G1 X0.007Y0.05S0
G1 X-1.666S0
G1 X-0.213S700
G1 X-1.667S0
G1 X0.015Y0.05S0
G1 X1.667S0
G1 X0.204S700
G1 X1.666S0
G1 Y0.05S0
G1 X-1.664S0
G1 X-0.204S700
G1 X-1.667S0
G1 Y0.05S0
G1 X1.669S0
G1 X0.204S700
G1 X1.667S0
G1 Y0.05S0
G1 X-1.666S0
G1 X-0.205S700
G1 X-1.666S0
G1 Y0.05S0
G1 X1.667S0
G1 X0.205S700
G1 X1.666S0
G1 Y0.05S0
G1 X-1.666S0
G1 X-0.204S700
G1 X-1.667S0
G1 Y0.05S0
G1 X1.667S0
G1 X0.206S700
G1 X1.667S0
G1 Y0.05S0
G1 X-1.665S0
G1 X-0.207S700
G1 X-1.667S0
G1 Y0.05S0
G1 X1.668S0
G1 X0.208S700
G1 X1.667S0
G1 Y0.05S0
G1 X-1.665S0
G1 X-0.208S700
G1 X-1.667S0
G1 X0.01Y0.05S0
G1 X1.666S0
G1 X0.201S700
G1 X1.667S0
G1 X0.007Y0.05S0
G1 X-1.666S0
G1 X-0.196S700
G1 X-1.667S0
G1 X0.019Y0.05S0
G1 X1.667S0
G1 X0.202S700
G1 X1.667S0
G1 X0.038Y0.05S0
G1 X-1.667S0
G1 X-0.216S700
G1 X-1.666S0
G1 X0.031Y0.05S0
G1 X1.667S0
G1 X0.249S700
G1 X1.666S0
G1 X0.108Y0.05S0
G1 X-1.667S0
G1 X-0.316S700
G1 X-1.667S0
G1 X0.068Y0.05S0
G1 X1.667S0
G1 X0.248S700
G1 X1.667S0
G1 Y0.05S0
G1 X-1.667S0
G1 X-0.242S700
G1 X-1.667S0
G1 X-0.075Y0.05S0
G1 X1.667S0
G1 X0.317S700
G1 X1.667S0
G1 X-0.099Y0.05S0
G1 X-1.666S0
G1 X-0.26S700
G1 X-1.666S0
G1 X-0.041Y0.05S0
G1 X1.667S0
G1 X0.239S700
G1 X1.666S0
G1 X-0.037Y0.05S0
G1 X-1.666S0
G1 X-0.222S700
G1 X-1.667S0
G1 X-0.02Y0.05S0
G1 X1.667S0
G1 X0.21S700
G1 X1.667S0
G1 X-0.014Y0.05S0
G1 X-1.667S0
G1 X-0.206S700
G1 X-1.667S0
G1 Y0.05S0
G1 X1.663S0
G1 X0.197S700
G1 X1.666S0
G1 Y0.05S0
G1 X-1.665S0
G1 X-0.201S700
G1 X-1.667S0
G1 Y0.05S0
G1 X1.665S0
G1 X0.206S700
G1 X1.666S0
G1 Y0.05S0
G1 X-1.667S0
G1 X-0.206S700
G1 X-1.667S0
G1 Y0.05S0
G1 X1.666S0
G1 X0.206S700
G1 X1.667S0
G1 Y0.05S0
G1 X-1.668S0
G1 X-0.205S700
G1 X-1.667S0
G1 Y0.05S0
G1 X1.667S0
G1 X0.204S700
G1 X1.666S0
G1 Y0.05S0
G1 X-1.667S0
G1 X-0.205S700
G1 X-1.666S0
G1 Y0.05S0
G1 X1.664S0
G1 X0.205S700
G1 X1.667S0
G1 Y0.05S0
G1 X-1.667S0
G1 X-0.207S700
G1 X-1.666S0
G1 X-0.011Y0.05S0
G1 X1.667S0
G1 X0.216S700
G1 X1.667S0
G1 X-0.007Y0.05S0
G1 X-1.667S0
G1 X-0.234S700
G1 X-1.666S0
G1 X-0.067Y0.05S0
G1 X1.666S0
G1 X0.279S700
G1 X1.667S0
G1 X-0.022Y0.05S0
G1 X-1.667S0
G1 X-0.397S700
G1 X-1.667S0
G1 Y0.05S0
G1 X1.667S0
G1 X0.348S700
G1 X1.667S0
G1 X-0.059Y0.05S0
G1 X-1.666S0
G1 X-0.29S700
G1 X-1.667S0
M9
G1 S0
M5
; return to starting pos
G0 X1.667Y-2.298
M2
