; LightBurn 1.2.01
; GRBL device profile, current position
; Bounds: X-1.67 Y0 to X2.92 Y1.06
G00 G17 G40 G21 G54
G91
M4
; Cut @ 4999.998 mm/min, 0% power
M8
G0 X0.39Y0
; Layer Lim
G1 X0.1S0F5000
; Scan @ 4000.002 mm/min, 70% power
M8
G0 X-2.157Y0.705
; Layer C02
G1 X1.667F4000S0
G1 X0.029S700
G1 X0.727S0
G1 X0.306S700
G1 X1.667S0
G1 X0.104Y0.05S0
G1 X-1.667S0
G1 X-0.542S700
G1 X-0.538S0
G1 X-0.086S700
G1 X-1.667S0
G1 Y0.05S0
G1 X1.667S0
G1 X0.159S700
G1 X0.299S0
G1 X0.771S700
G1 X1.666S0
G1 X0.021Y0.05S0
G1 X-1.667S0
G1 X-1.249S700
G1 X-1.667S0
G1 Y0.05S0
G1 X1.667S0
G1 X1.249S700
G1 X1.667S0
G1 Y0.05S0
G1 X-1.667S0
G1 X-0.153S700
G1 X-0.336S0
G1 X-0.731S700
G1 X-1.666S0
G1 X0.058Y0.05S0
G1 X1.667S0
G1 X0.53S700
G1 X0.558S0
G1 X0.073S700
G1 X1.667S0
G1 Y0.05S0
G1 X-1.667S0
G1 X-0.024S700
G1 X-0.733S0
G1 X-0.301S700
G1 X-1.667S0
M9
G1 S0
M5
; return to starting pos
G0 X1.476Y-1.055
M2
