; LightBurn 1.2.01
; GRBL device profile, current position
; Bounds: X-1.66 Y0 to X2.84 Y2.35
G00 G17 G40 G21 G54
G91
M4
; Cut @ 4999.998 mm/min, 0% power
M8
G0 X0.395Y0.525
; Layer Lim
G1 X0.1S0F5000
; Scan @ 4000.002 mm/min, 70% power
M8
G0 X-1.614Y-0.522
; Layer C02
G1 X1.667F4000S0
G1 X0.058S700
G1 X1.667S0
G1 X0.261Y0.05S0
G1 X-1.666S0
G1 X-0.521S700
G1 X-1.666S0
G1 X-0.089Y0.05S0
G1 X1.666S0
G1 X0.687S700
G1 X1.667S0
G1 X0.047Y0.05S0
G1 X-1.667S0
G1 X-0.787S700
G1 X-1.666S0
G1 X-0.044Y0.05S0
G1 X1.666S0
G1 X0.331S700
G1 X0.219S0
G1 X0.322S700
G1 X1.667S0
G1 X0.02Y0.05S0
G1 X-1.667S0
G1 X-0.25S700
G1 X-0.403S0
G1 X-0.267S700
G1 X-1.667S0
G1 X-0.029Y0.05S0
G1 X1.667S0
G1 X0.26S700
G1 X0.472S0
G1 X0.237S700
G1 X1.667S0
G1 X0.008Y0.05S0
G1 X-1.667S0
G1 X-0.219S700
G1 X-0.532S0
G1 X-0.237S700
G1 X-1.667S0
G1 X-0.011Y0.05S0
G1 X1.666S0
G1 X0.234S700
G1 X0.546S0
G1 X0.223S700
G1 X1.667S0
G1 Y0.05S0
G1 X-1.667S0
G1 X-0.224S700
G1 X-0.56S0
G1 X-0.136S700
G1 X-1.666S0
G1 X0.654Y0.05S0
G1 X1.667S0
G1 X0.252S700
G1 X1.667S0
G1 X-0.013Y0.05S0
G1 X-1.667S0
G1 X-0.283S700
G1 X-1.667S0
G1 X-0.044Y0.05S0
G1 X1.667S0
G1 X0.298S700
G1 X1.667S0
G1 X-0.031Y0.05S0
G1 X-1.667S0
G1 X-0.341S700
G1 X-1.667S0
G1 X-0.075Y0.05S0
G1 X1.667S0
G1 X0.362S700
G1 X1.667S0
G1 X-0.027Y0.05S0
G1 X-1.666S0
G1 X-0.414S700
G1 X-1.667S0
G1 X-0.078Y0.05S0
G1 X1.666S0
G1 X0.591S700
G1 X1.666S0
G1 X0.054Y0.05S0
G1 X-1.666S0
G1 X-0.229S700
G1 X-0.098S0
G1 X-0.396S700
G1 X-1.667S0
G1 X-0.078Y0.05S0
G1 X1.667S0
G1 X0.4S700
G1 X0.23S0
G1 X0.217S700
G1 X1.667S0
G1 X0.023Y0.05S0
G1 X-1.666S0
G1 X-0.208S700
G1 X-0.343S0
G1 X-0.393S700
G1 X-1.667S0
G1 X-0.042Y0.05S0
G1 X1.666S0
G1 X0.354S700
G1 X0.446S0
G1 X0.21S700
G1 X1.667S0
G1 Y0.05S0
G1 X-1.662S0
G1 X-0.202S700
G1 X-0.54S0
G1 X-0.315S700
G1 X-1.667S0
G1 X-0.042Y0.05S0
G1 X1.666S0
G1 X0.27S700
G1 X0.61S0
G1 X0.224S700
G1 X1.666S0
G1 Y0.05S0
G1 X-1.67S0
G1 X-0.24S700
G1 X-0.643S0
G1 X-0.249S700
G1 X-1.667S0
G1 X-0.016Y0.05S0
G1 X1.666S0
G1 X0.227S700
G1 X0.649S0
G1 X0.257S700
G1 X1.667S0
G1 X-0.016Y0.05S0
G1 X-1.667S0
G1 X-0.284S700
G1 X-0.626S0
G1 X-0.223S700
G1 X-1.667S0
G1 Y0.05S0
G1 X1.666S0
G1 X0.209S700
G1 X0.582S0
G1 X0.307S700
G1 X1.667S0
G1 X-0.04Y0.05S0
G1 X-1.666S0
G1 X-0.352S700
G1 X-0.5S0
G1 X-0.204S700
G1 X-1.667S0
G1 X0.008Y0.05S0
G1 X1.666S0
G1 X0.196S700
G1 X0.423S0
G1 X0.382S700
G1 X1.666S0
G1 X-0.065Y0.05S0
G1 X-1.667S0
G1 X-0.394S700
G1 X-0.31S0
G1 X-0.208S700
G1 X-1.667S0
G1 X0.023Y0.05S0
G1 X1.666S0
G1 X0.222S700
G1 X0.197S0
G1 X0.401S700
G1 X1.666S0
G1 X-0.079Y0.05S0
G1 X-1.667S0
G1 X-0.39S700
G1 X-0.056S0
G1 X-0.247S700
G1 X-1.666S0
G1 X0.051Y0.05S0
G1 X1.667S0
G1 X0.562S700
G1 X1.667S0
G1 X-0.08Y0.05S0
G1 X-1.666S0
G1 X-0.376S700
G1 X-1.667S0
G1 X-0.036Y0.05S0
G1 X1.667S0
G1 X0.335S700
G1 X1.667S0
G1 X-0.076Y0.05S0
G1 X-1.666S0
G1 X-0.307S700
G1 X-1.666S0
G1 X-0.024Y0.05S0
G1 X1.667S0
G1 X0.275S700
G1 X1.666S0
G1 X-0.043Y0.05S0
G1 X-1.666S0
G1 X-0.256S700
G1 X-1.667S0
G1 X-0.008Y0.05S0
G1 X1.667S0
G1 X0.221S700
G1 X0.495S0
G1 X0.041S700
G1 X1.667S0
G1 X0.182Y0.05S0
G1 X-1.667S0
G1 X-0.235S700
G1 X-0.49S0
G1 X-0.219S700
G1 X-1.667S0
G1 Y0.05S0
G1 X1.668S0
G1 X0.216S700
G1 X0.479S0
G1 X0.238S700
G1 X1.667S0
G1 X-0.01Y0.05S0
G1 X-1.667S0
G1 X-0.257S700
G1 X-0.425S0
G1 X-0.229S700
G1 X-1.667S0
G1 X0.012Y0.05S0
G1 X1.666S0
G1 X0.253S700
G1 X0.358S0
G1 X0.261S700
G1 X1.667S0
G1 X-0.028Y0.05S0
G1 X-1.667S0
G1 X-0.333S700
G1 X-0.155S0
G1 X-0.315S700
G1 X-1.667S0
G1 X0.042Y0.05S0
G1 X1.667S0
G1 X0.717S700
G1 X1.666S0
G1 X-0.052Y0.05S0
G1 X-1.667S0
G1 X-0.614S700
G1 X-1.666S0
G1 X0.089Y0.05S0
G1 X1.667S0
G1 X0.428S700
G1 X1.666S0
G1 X-0.194Y0.05S0
G1 X-1.667S0
G1 X-0.032S700
G1 X-1.667S0
M9
G1 S0
M5
; return to starting pos
G0 X1.099Y-2.353
M2
