; LightBurn 1.2.01
; GRBL device profile, current position
; Bounds: X-1.67 Y0 to X2.34 Y1.81
G00 G17 G40 G21 G54
G91
M4
; Cut @ 4999.998 mm/min, 0% power
M8
G0 X0.335Y0
; Layer Lim
G1 X0.1S0F5000
; Scan @ 4000.002 mm/min, 70% power
M8
G0 X-1.858Y1.158
; Layer C02
G1 X1.667F4000S0
G1 X0.187S700
G1 X1.667S0
G1 X0.091Y0.05S0
G1 X-1.666S0
G1 X-0.387S700
G1 X-1.667S0
G1 X-0.05Y0.05S0
G1 X1.666S0
G1 X0.5S700
G1 X1.666S0
G1 X0.033Y0.05S0
G1 X-1.666S0
G1 X-0.181S700
G1 X-0.203S0
G1 X-0.189S700
G1 X-1.666S0
G1 X-0.021Y0.05S0
G1 X1.666S0
G1 X0.149S700
G1 X0.32S0
G1 X0.155S700
G1 X1.667S0
G1 X0.01Y0.05S0
G1 X-1.667S0
G1 X-0.134S700
G1 X-0.374S0
G1 X-0.147S700
G1 X-1.667S0
G1 Y0.05S0
G1 X1.664S0
G1 X0.135S700
G1 X0.399S0
G1 X0.134S700
G1 X1.667S0
G1 Y0.05S0
G1 X-1.668S0
G1 X-0.133S700
G1 X-0.401S0
G1 X-0.133S700
G1 X-1.667S0
G1 X0.005Y0.05S0
G1 X1.667S0
G1 X0.138S700
G1 X0.381S0
G1 X0.134S700
G1 X1.666S0
G1 X-0.009Y0.05S0
G1 X-1.667S0
G1 X-0.156S700
G1 X-0.318S0
G1 X-0.149S700
G1 X-1.666S0
G1 X0.02Y0.05S0
G1 X1.667S0
G1 X0.187S700
G1 X0.201S0
G1 X0.184S700
G1 X1.666S0
G1 X-0.032Y0.05S0
G1 X-1.666S0
G1 X-0.497S700
G1 X-1.667S0
G1 X0.05Y0.05S0
G1 X1.667S0
G1 X0.384S700
G1 X1.667S0
G1 X-0.112Y0.05S0
G1 X-1.667S0
G1 X-0.159S700
G1 X-1.667S0
M9
G1 S0
M5
; return to starting pos
G0 X1.415Y-1.808
M2
