; LightBurn 1.2.01
; GRBL device profile, current position
; Bounds: X-1.67 Y0 to X2.92 Y1.85
G00 G17 G40 G21 G54
G91
M4
; Cut @ 4999.998 mm/min, 0% power
M8
G0 X0.31Y0.03
; Layer Lim
G1 X0.5S0F5000
; Scan @ 4000.002 mm/min, 70% power
M8
G0 X-1.693Y-0.029
; Layer C02
G1 X1.666F4000S0
G1 X0.029S700
G1 X1.667S0
G1 X0.234Y0.05S0
G1 X-1.667S0
G1 X-0.443S700
G1 X-0.383S0
G1 X-0.22S700
G1 X-1.667S0
G1 Y0.05S0
G1 X1.667S0
G1 X0.22S700
G1 X0.305S0
G1 X0.599S700
G1 X1.666S0
G1 X0.044Y0.05S0
G1 X-1.667S0
G1 X-0.697S700
G1 X-0.25S0
G1 X-0.22S700
G1 X-1.667S0
G1 Y0.05S0
G1 X1.667S0
G1 X0.22S700
G1 X0.205S0
G1 X0.308S700
G1 X0.178S0
G1 X0.293S700
G1 X1.667S0
G1 X0.022Y0.05S0
G1 X-1.667S0
G1 X-0.247S700
G1 X-0.316S0
G1 X-0.266S700
G1 X-0.177S0
G1 X-0.22S700
G1 X-1.667S0
G1 Y0.05S0
G1 X1.667S0
G1 X0.22S700
G1 X0.17S0
G1 X0.226S700
G1 X0.398S0
G1 X0.231S700
G1 X1.667S0
G1 X0.006Y0.05S0
G1 X-1.667S0
G1 X-0.22S700
G1 X-0.448S0
G1 X-0.085S700
G1 X-0.278S0
G1 X-0.22S700
G1 X-1.667S0
G1 Y0.05S0
G1 X1.667S0
G1 X0.22S700
G1 X0.816S0
G1 X0.221S700
G1 X1.667S0
G1 X-0.007Y0.05S0
G1 X-1.667S0
G1 X-0.222S700
G1 X-0.808S0
G1 X-0.22S700
G1 X-1.667S0
G1 Y0.05S0
G1 X1.667S0
G1 X0.22S700
G1 X0.783S0
G1 X0.238S700
G1 X1.667S0
G1 X-0.019Y0.05S0
G1 X-1.666S0
G1 X-0.27S700
G1 X-0.733S0
G1 X-0.22S700
G1 X-1.667S0
G1 Y0.05S0
G1 X1.667S0
G1 X0.22S700
G1 X0.663S0
G1 X0.314S700
G1 X1.666S0
G1 X-0.038Y0.05S0
G1 X-1.666S0
G1 X-0.346S700
G1 X-0.593S0
G1 X-0.22S700
G1 X-1.667S0
G1 Y0.05S0
G1 X1.667S0
G1 X0.22S700
G1 X0.521S0
G1 X0.369S700
G1 X1.666S0
G1 X-0.067Y0.05S0
G1 X-1.666S0
G1 X-0.37S700
G1 X-0.453S0
G1 X-0.22S700
G1 X-1.667S0
G1 Y0.05S0
G1 X1.667S0
G1 X0.22S700
G1 X0.411S0
G1 X0.341S700
G1 X1.667S0
G1 X-0.071Y0.05S0
G1 X-1.667S0
G1 X-0.298S700
G1 X-0.383S0
G1 X-0.22S700
G1 X-1.667S0
G1 Y0.05S0
G1 X1.667S0
G1 X0.22S700
G1 X0.362S0
G1 X0.259S700
G1 X1.667S0
G1 X-0.035Y0.05S0
G1 X-1.666S0
G1 X-0.234S700
G1 X-0.353S0
G1 X-0.22S700
G1 X-1.667S0
G1 Y0.05S0
G1 X1.667S0
G1 X0.22S700
G1 X0.349S0
G1 X0.223S700
G1 X1.666S0
G1 Y0.05S0
G1 X-1.663S0
G1 X-0.219S700
G1 X-0.356S0
G1 X-0.22S700
G1 X-1.667S0
G1 Y0.05S0
G1 X1.667S0
G1 X0.22S700
G1 X0.379S0
G1 X0.218S700
G1 X1.667S0
G1 X0.026Y0.05S0
G1 X-1.666S0
G1 X-0.217S700
G1 X-0.407S0
G1 X-0.22S700
G1 X-1.667S0
G1 Y0.05S0
G1 X1.667S0
G1 X0.22S700
G1 X0.434S0
G1 X0.216S700
G1 X1.667S0
G1 X0.027Y0.05S0
G1 X-1.667S0
G1 X-0.216S700
G1 X-0.46S0
G1 X-0.221S700
G1 X-1.667S0
G1 Y0.05S0
G1 X1.67S0
G1 X0.22S700
G1 X0.478S0
G1 X0.222S700
G1 X1.667S0
G1 X0.018Y0.05S0
G1 X-1.666S0
G1 X-0.22S700
G1 X-0.496S0
G1 X-0.22S700
G1 X-1.667S0
G1 Y0.05S0
G1 X1.669S0
G1 X0.221S700
G1 X0.514S0
G1 X0.217S700
G1 X1.667S0
G1 X0.01Y0.05S0
G1 X-1.667S0
G1 X-0.214S700
G1 X-0.513S0
G1 X-0.226S700
G1 X-1.667S0
G1 X0.013Y0.05S0
G1 X1.667S0
G1 X0.235S700
G1 X0.492S0
G1 X0.21S700
G1 X1.667S0
G1 Y0.05S0
G1 X-1.669S0
G1 X-0.226S700
G1 X-0.452S0
G1 X-0.244S700
G1 X-1.666S0
G1 X0.018Y0.05S0
G1 X1.667S0
G1 X0.26S700
G1 X0.382S0
G1 X0.245S700
G1 X1.667S0
G1 X-0.026Y0.05S0
G1 X-1.667S0
G1 X-0.299S700
G1 X-0.205S0
G1 X-0.311S700
G1 X-1.666S0
G1 X0.046Y0.05S0
G1 X1.666S0
G1 X0.743S700
G1 X1.666S0
G1 X-0.061Y0.05S0
G1 X-1.667S0
G1 X-0.631S700
G1 X-1.666S0
G1 X0.104Y0.05S0
G1 X1.666S0
G1 X0.444S700
G1 X1.666S0
G1 X-0.162Y0.05S0
G1 X-1.667S0
G1 X-0.019S700
G1 X-1.667S0
M9
G1 S0
M5
; return to starting pos
G0 X1.097Y-1.851
M2
