; LightBurn 1.2.01
; GRBL device profile, current position
; Bounds: X-1.67 Y0.01 to X3.39 Y2.16
G00 G17 G40 G21 G54
G91
M4
; Cut @ 4999.998 mm/min, 0% power
M8
G0 X0.384Y0.023
; Layer Lim
G1 X0.1S0F5000
; Scan @ 4000.002 mm/min, 70% power
M8
G0 X-1.449Y-0.011
; Layer C02
G1 X1.666F4000S0
G1 X0.329S700
G1 X1.666S0
G1 X0.167Y0.05S0
G1 X-1.666S0
G1 X-0.682S700
G1 X-1.666S0
G1 X-0.083Y0.05S0
G1 X1.667S0
G1 X0.87S700
G1 X1.666S0
G1 X0.072Y0.05S0
G1 X-1.667S0
G1 X-1.015S700
G1 X-1.667S0
G1 X-0.058Y0.05S0
G1 X1.667S0
G1 X0.427S700
G1 X0.25S0
G1 X0.46S700
G1 X1.667S0
G1 X0.049Y0.05S0
G1 X-1.667S0
G1 X-0.353S700
G1 X-0.518S0
G1 X-0.368S700
G1 X-1.666S0
G1 X-0.042Y0.05S0
G1 X1.667S0
G1 X0.309S700
G1 X0.689S0
G1 X0.33S700
G1 X1.667S0
G1 X0.033Y0.05S0
G1 X-1.667S0
G1 X-0.292S700
G1 X-0.81S0
G1 X-0.3S700
G1 X-1.667S0
G1 X-0.029Y0.05S0
G1 X1.666S0
G1 X0.279S700
G1 X0.899S0
G1 X0.288S700
G1 X1.666S0
G1 X0.029Y0.05S0
G1 X-1.667S0
G1 X-0.278S700
G1 X-0.986S0
G1 X-0.259S700
G1 X-1.666S0
G1 X-0.026Y0.05S0
G1 X1.666S0
G1 X0.261S700
G1 X1.048S0
G1 X0.261S700
G1 X1.667S0
G1 X0.021Y0.05S0
G1 X-1.666S0
G1 X-0.26S700
G1 X-1.094S0
G1 X-0.256S700
G1 X-1.667S0
G1 X-0.019Y0.05S0
G1 X1.667S0
G1 X0.251S700
G1 X1.136S0
G1 X0.258S700
G1 X1.667S0
G1 X0.01Y0.05S0
G1 X-1.666S0
G1 X-0.251S700
G1 X-1.178S0
G1 X-0.242S700
G1 X-1.667S0
G1 X-0.009Y0.05S0
G1 X1.666S0
G1 X0.248S700
G1 X1.2S0
G1 X0.243S700
G1 X1.667S0
G1 X0.008Y0.05S0
G1 X-1.667S0
G1 X-0.248S700
G1 X-1.207S0
G1 X-0.253S700
G1 X-1.667S0
G1 X-0.006Y0.05S0
G1 X1.666S0
G1 X0.256S700
G1 X1.213S0
G1 X0.247S700
G1 X1.667S0
G1 Y0.05S0
G1 X-1.666S0
G1 X-0.246S700
G1 X-1.219S0
G1 X-0.253S700
G1 X-1.667S0
G1 Y0.05S0
G1 X1.666S0
G1 X0.252S700
G1 X1.223S0
G1 X0.245S700
G1 X1.666S0
G1 Y0.05S0
G1 X-1.667S0
G1 X-0.245S700
G1 X-1.222S0
G1 X-0.251S700
G1 X-1.667S0
G1 X0.008Y0.05S0
G1 X1.666S0
G1 X0.244S700
G1 X1.22S0
G1 X0.246S700
G1 X1.666S0
G1 Y0.05S0
G1 X-1.667S0
G1 X-0.247S700
G1 X-1.215S0
G1 X-0.239S700
G1 X-1.667S0
G1 X0.008Y0.05S0
G1 X1.667S0
G1 X0.242S700
G1 X1.195S0
G1 X0.251S700
G1 X1.667S0
G1 X-0.012Y0.05S0
G1 X-1.666S0
G1 X-0.253S700
G1 X-1.172S0
G1 X-0.242S700
G1 X-1.667S0
G1 X0.01Y0.05S0
G1 X1.666S0
G1 X0.246S700
G1 X1.146S0
G1 X0.254S700
G1 X1.667S0
G1 X-0.011Y0.05S0
G1 X-1.667S0
G1 X-0.263S700
G1 X-1.104S0
G1 X-0.258S700
G1 X-1.666S0
G1 X0.02Y0.05S0
G1 X1.667S0
G1 X0.258S700
G1 X1.058S0
G1 X0.266S700
G1 X1.667S0
G1 X-0.023Y0.05S0
G1 X-1.667S0
G1 X-0.269S700
G1 X-1.005S0
G1 X-0.265S700
G1 X-1.666S0
G1 X0.022Y0.05S0
G1 X1.666S0
G1 X0.278S700
G1 X0.933S0
G1 X0.283S700
G1 X1.667S0
G1 X-0.033Y0.05S0
G1 X-1.667S0
G1 X-0.291S700
G1 X-0.857S0
G1 X-0.28S700
G1 X-1.667S0
G1 X0.032Y0.05S0
G1 X1.667S0
G1 X0.317S700
G1 X0.736S0
G1 X0.306S700
G1 X1.667S0
G1 X-0.037Y0.05S0
G1 X-1.667S0
G1 X-0.359S700
G1 X-0.571S0
G1 X-0.351S700
G1 X-1.666S0
G1 X0.047Y0.05S0
G1 X1.667S0
G1 X0.431S700
G1 X0.352S0
G1 X0.396S700
G1 X1.667S0
G1 X-0.057Y0.05S0
G1 X-1.667S0
G1 X-1.066S700
G1 X-1.667S0
G1 X0.069Y0.05S0
G1 X1.667S0
G1 X0.925S700
G1 X1.666S0
G1 X-0.088Y0.05S0
G1 X-1.667S0
G1 X-0.745S700
G1 X-1.666S0
G1 X0.132Y0.05S0
G1 X1.667S0
G1 X0.471S700
G1 X1.666S0
G1 X0.113Y0.15S0
G1 X-1.667S0
G1 X-0.23S700
G1 X-0.226S0
G1 X-0.229S700
G1 X-1.667S0
G1 Y0.05S0
G1 X1.667S0
G1 X0.229S700
G1 X0.226S0
G1 X0.23S700
G1 X1.667S0
G1 Y0.05S0
G1 X-1.667S0
G1 X-0.23S700
G1 X-0.226S0
G1 X-0.229S700
G1 X-1.667S0
G1 Y0.05S0
G1 X1.667S0
G1 X0.229S700
G1 X0.226S0
G1 X0.23S700
G1 X1.667S0
G1 Y0.05S0
G1 X-1.667S0
G1 X-0.23S700
G1 X-0.226S0
G1 X-0.229S700
G1 X-1.667S0
M9
G1 S0
M5
; return to starting pos
G0 X1.149Y-2.162
M2
