; LightBurn 1.2.01
; GRBL device profile, current position
; Bounds: X-1.67 Y0.02 to X3.09 Y2.17
G00 G17 G40 G21 G54
G91
M4
; Cut @ 4999.998 mm/min, 0% power
M8
G0 X0.307Y0.031
; Layer Lim
G1 X0.1S0F5000
; Scan @ 4000.002 mm/min, 70% power
M8
G0 X-1.553Y-0.016
; Layer C02
G1 X1.666F4000S0
G1 X0.374S700
G1 X1.666S0
G1 X0.173Y0.05S0
G1 X-1.667S0
G1 X-0.716S700
G1 X-1.666S0
G1 X-0.086Y0.05S0
G1 X1.666S0
G1 X0.886S700
G1 X1.667S0
G1 X0.062Y0.05S0
G1 X-1.667S0
G1 X-1.007S700
G1 X-1.666S0
G1 X-0.051Y0.05S0
G1 X1.666S0
G1 X0.538S700
G1 X0.081S0
G1 X0.491S700
G1 X1.667S0
G1 X0.036Y0.05S0
G1 X-1.667S0
G1 X-0.352S700
G1 X-0.487S0
G1 X-0.343S700
G1 X-1.667S0
G1 X-0.032Y0.05S0
G1 X1.666S0
G1 X0.311S700
G1 X0.641S0
G1 X0.297S700
G1 X1.667S0
G1 X0.022Y0.05S0
G1 X-1.666S0
G1 X-0.272S700
G1 X-0.736S0
G1 X-0.286S700
G1 X-1.667S0
G1 X-0.022Y0.05S0
G1 X1.667S0
G1 X0.276S700
G1 X0.795S0
G1 X0.267S700
G1 X1.667S0
G1 X0.012Y0.05S0
G1 X-1.667S0
G1 X-0.257S700
G1 X-0.844S0
G1 X-0.261S700
G1 X-1.666S0
G1 X-0.012Y0.05S0
G1 X1.667S0
G1 X0.248S700
G1 X0.885S0
G1 X0.252S700
G1 X1.666S0
G1 X0.006Y0.05S0
G1 X-1.667S0
G1 X-0.243S700
G1 X-0.91S0
G1 X-0.241S700
G1 X-1.667S0
G1 Y0.05S0
G1 X1.666S0
G1 X0.231S700
G1 X0.928S0
G1 X0.237S700
G1 X1.667S0
G1 Y0.05S0
G1 X-1.666S0
G1 X-0.23S700
G1 X-0.942S0
G1 X-0.226S700
G1 X-1.667S0
G1 Y0.05S0
G1 X1.666S0
G1 X0.229S700
G1 X0.939S0
G1 X0.232S700
G1 X1.667S0
G1 Y0.05S0
G1 X-1.666S0
G1 X-0.234S700
G1 X-0.935S0
G1 X-0.233S700
G1 X-1.667S0
G1 Y0.05S0
G1 X1.666S0
G1 X0.235S700
G1 X0.934S0
G1 X0.235S700
G1 X1.667S0
G1 Y0.05S0
G1 X-1.666S0
G1 X-0.236S700
G1 X-0.934S0
G1 X-0.236S700
G1 X-1.667S0
G1 Y0.05S0
G1 X1.666S0
G1 X0.237S700
G1 X0.934S0
G1 X0.237S700
G1 X1.667S0
G1 Y0.05S0
G1 X-1.666S0
G1 X-0.238S700
G1 X-0.934S0
G1 X-0.238S700
G1 X-1.667S0
G1 Y0.05S0
G1 X1.666S0
G1 X0.239S700
G1 X0.934S0
G1 X0.239S700
G1 X1.667S0
G1 Y0.05S0
G1 X-1.666S0
G1 X-0.24S700
G1 X-0.934S0
G1 X-0.24S700
G1 X-1.667S0
G1 Y0.05S0
G1 X1.665S0
G1 X0.242S700
G1 X0.934S0
G1 X0.241S700
G1 X1.667S0
G1 Y0.05S0
G1 X-1.666S0
G1 X-0.242S700
G1 X-0.934S0
G1 X-0.243S700
G1 X-1.666S0
G1 Y0.05S0
G1 X1.665S0
G1 X0.244S700
G1 X0.934S0
G1 X0.243S700
G1 X1.667S0
G1 Y0.05S0
G1 X-1.667S0
G1 X-0.243S700
G1 X-0.934S0
G1 X-0.244S700
G1 X-1.666S0
G1 Y0.05S0
G1 X1.667S0
G1 X0.243S700
G1 X0.934S0
G1 X0.243S700
G1 X1.666S0
G1 Y0.05S0
G1 X-1.667S0
G1 X-0.242S700
G1 X-0.934S0
G1 X-0.242S700
G1 X-1.667S0
G1 Y0.05S0
G1 X1.667S0
G1 X0.242S700
G1 X0.934S0
G1 X0.242S700
G1 X1.666S0
G1 Y0.05S0
G1 X-1.667S0
G1 X-0.241S700
G1 X-0.934S0
G1 X-0.241S700
G1 X-1.667S0
G1 Y0.05S0
G1 X1.667S0
G1 X0.241S700
G1 X0.934S0
G1 X0.24S700
G1 X1.667S0
G1 Y0.05S0
G1 X-1.667S0
G1 X-0.24S700
G1 X-0.934S0
G1 X-0.24S700
G1 X-1.667S0
G1 Y0.05S0
G1 X1.668S0
G1 X0.239S700
G1 X0.934S0
G1 X0.239S700
G1 X1.667S0
G1 Y0.05S0
G1 X-1.667S0
G1 X-0.239S700
G1 X-0.934S0
G1 X-0.239S700
G1 X-1.667S0
G1 Y0.05S0
G1 X1.668S0
G1 X0.238S700
G1 X0.934S0
G1 X0.238S700
G1 X1.667S0
G1 Y0.05S0
G1 X-1.668S0
G1 X-0.237S700
G1 X-0.934S0
G1 X-0.238S700
G1 X-1.666S0
G1 Y0.05S0
G1 X1.667S0
G1 X0.237S700
G1 X0.934S0
G1 X0.237S700
G1 X1.666S0
G1 X-0.365Y0.15S0
G1 X-1.666S0
G1 X-0.23S700
G1 X-0.226S0
G1 X-0.229S700
G1 X-1.667S0
G1 Y0.05S0
G1 X1.667S0
G1 X0.229S700
G1 X0.226S0
G1 X0.23S700
G1 X1.666S0
G1 Y0.05S0
G1 X-1.666S0
G1 X-0.23S700
G1 X-0.226S0
G1 X-0.229S700
G1 X-1.667S0
G1 Y0.05S0
G1 X1.667S0
G1 X0.229S700
G1 X0.226S0
G1 X0.23S700
G1 X1.666S0
G1 Y0.05S0
G1 X-1.666S0
G1 X-0.23S700
G1 X-0.226S0
G1 X-0.229S700
G1 X-1.667S0
M9
G1 S0
M5
; return to starting pos
G0 X1.302Y-2.165
M2
