; LightBurn 1.2.01
; GRBL device profile, current position
; Bounds: X-1.66 Y0 to X1.92 Y1.79
G00 G17 G40 G21 G54
G91
M4
; Cut @ 4999.998 mm/min, 0% power
M8
G0 X0.364Y0
; Layer Lim
G1 X0.1S0F5000
; Scan @ 4000.002 mm/min, 70% power
M8
G0 X-2.088Y1.24
; Layer C02
G1 X1.666F4000S0
G1 X0.039S700
G1 X1.667S0
G1 X0.073Y0.05S0
G1 X-1.667S0
G1 X-0.142S700
G1 X-1.667S0
G1 X0.04Y0.05S0
G1 X1.667S0
G1 X0.141S700
G1 X1.667S0
G1 X0.027Y0.05S0
G1 X-1.667S0
G1 X-0.133S700
G1 X-1.666S0
G1 X0.032Y0.05S0
G1 X1.666S0
G1 X0.11S700
G1 X1.667S0
G1 X0.009Y0.05S0
G1 X-1.667S0
G1 X-0.112S700
G1 X-1.667S0
G1 X0.007Y0.05S0
G1 X1.666S0
G1 X0.115S700
G1 X1.666S0
G1 X0.009Y0.05S0
G1 X-1.667S0
G1 X-0.235S700
G1 X-1.667S0
G1 Y0.05S0
G1 X1.667S0
G1 X0.235S700
G1 X1.667S0
G1 Y0.05S0
G1 X-1.667S0
G1 X-0.235S700
G1 X-1.667S0
G1 Y0.05S0
G1 X1.667S0
G1 X0.235S700
G1 X1.667S0
G1 Y0.05S0
G1 X-1.667S0
G1 X-0.235S700
G1 X-1.667S0
M9
G1 S0
M5
; return to starting pos
G0 X1.647Y-1.79
M2
