; LightBurn 1.2.01
; GRBL device profile, current position
; Bounds: X-1.67 Y0 to X2.29 Y1.8
G00 G17 G40 G21 G54
G91
M4
; Cut @ 4999.998 mm/min, 0% power
M8
G0 X0.395Y0
; Layer Lim
G1 X0.1S0F5000
; Scan @ 4000.002 mm/min, 70% power
M8
G0 X-2.162Y1.252
; Layer C02
G1 X1.667F4000S0
G1 X0.236S700
G1 X0.143S0
G1 X0.235S700
G1 X1.667S0
G1 Y0.05S0
G1 X-1.667S0
G1 X-0.235S700
G1 X-0.143S0
G1 X-0.236S700
G1 X-1.667S0
G1 Y0.05S0
G1 X1.667S0
G1 X0.236S700
G1 X0.143S0
G1 X0.235S700
G1 X1.667S0
G1 Y0.05S0
G1 X-1.667S0
G1 X-0.235S700
G1 X-0.143S0
G1 X-0.236S700
G1 X-1.667S0
G1 Y0.05S0
G1 X1.667S0
G1 X0.236S700
G1 X0.143S0
G1 X0.235S700
G1 X1.667S0
G1 X-0.113Y0.05S0
G1 X-1.667S0
G1 X-0.114S700
G1 X-0.264S0
G1 X-0.115S700
G1 X-1.666S0
G1 X0.009Y0.05S0
G1 X1.666S0
G1 X0.111S700
G1 X0.268S0
G1 X0.111S700
G1 X1.667S0
G1 X0.005Y0.05S0
G1 X-1.666S0
G1 X-0.108S700
G1 X-0.271S0
G1 X-0.108S700
G1 X-1.666S0
G1 X0.009Y0.05S0
G1 X1.666S0
G1 X0.131S700
G1 X0.248S0
G1 X0.13S700
G1 X1.667S0
G1 X0.035Y0.05S0
G1 X-1.667S0
G1 X-0.138S700
G1 X-0.24S0
G1 X-0.139S700
G1 X-1.667S0
G1 X0.04Y0.05S0
G1 X1.666S0
G1 X0.144S700
G1 X0.235S0
G1 X0.143S700
G1 X1.667S0
G1 X-0.032Y0.05S0
G1 X-1.666S0
G1 X-0.04S700
G1 X-0.339S0
G1 X-0.04S700
G1 X-1.666S0
M9
G1 S0
M5
; return to starting pos
G0 X1.493Y-1.802
M2
