; LightBurn 1.2.01
; GRBL device profile, current position
; Bounds: X-1.66 Y0.02 to X2.3 Y0.57
G00 G17 G40 G21 G54
G91
M4
; Cut @ 4999.998 mm/min, 0% power
M8
G0 X0.41Y0.331
; Layer Lim
G1 X0.1S0F5000
; Scan @ 4000.002 mm/min, 70% power
M8
G0 X-2.134Y-0.313
; Layer C02
G1 X1.666F4000S0
G1 X0.039S700
G1 X0.34S0
G1 X0.039S700
G1 X1.667S0
G1 X0.072Y0.05S0
G1 X-1.667S0
G1 X-0.142S700
G1 X-0.235S0
G1 X-0.143S700
G1 X-1.667S0
G1 X0.04Y0.05S0
G1 X1.667S0
G1 X0.141S700
G1 X0.237S0
G1 X0.131S700
G1 X1.667S0
G1 X0.029Y0.05S0
G1 X-1.666S0
G1 X-0.125S700
G1 X-0.245S0
G1 X-0.133S700
G1 X-1.667S0
G1 X0.032Y0.05S0
G1 X1.667S0
G1 X0.109S700
G1 X0.269S0
G1 X0.119S700
G1 X1.667S0
G1 Y0.05S0
G1 X-1.662S0
G1 X-0.118S700
G1 X-0.266S0
G1 X-0.112S700
G1 X-1.666S0
G1 X0.006Y0.05S0
G1 X1.667S0
G1 X0.114S700
G1 X0.264S0
G1 X0.116S700
G1 X1.667S0
G1 Y0.05S0
G1 X-1.662S0
G1 X-0.234S700
G1 X-0.143S0
G1 X-0.235S700
G1 X-1.667S0
G1 Y0.05S0
G1 X1.667S0
G1 X0.235S700
G1 X0.143S0
G1 X0.236S700
G1 X1.666S0
G1 Y0.05S0
G1 X-1.666S0
G1 X-0.236S700
G1 X-0.143S0
G1 X-0.235S700
G1 X-1.667S0
G1 Y0.05S0
G1 X1.667S0
G1 X0.235S700
G1 X0.143S0
G1 X0.236S700
G1 X1.666S0
G1 Y0.05S0
G1 X-1.666S0
G1 X-0.236S700
G1 X-0.143S0
G1 X-0.235S700
G1 X-1.667S0
M9
G1 S0
M5
; return to starting pos
G0 X1.647Y-0.568
M2
