; LightBurn 1.2.01
; GRBL device profile, current position
; Bounds: X-1.66 Y0 to X1.99 Y1.75
G00 G17 G40 G21 G54
G91
M4
; Cut @ 4999.998 mm/min, 0% power
M8
G0 X0.34Y0
; Layer Lim
G1 X0.1S0F5000
; Scan @ 4000.002 mm/min, 70% power
M8
G0 X-2.105Y1.198
; Layer C02
G1 X1.667F4000S0
G1 X0.151S700
G1 X1.666S0
G1 X0.02Y0.05S0
G1 X-1.667S0
G1 X-0.168S700
G1 X-1.667S0
G1 Y0.05S0
G1 X1.669S0
G1 X0.185S700
G1 X1.667S0
G1 X0.019Y0.05S0
G1 X-1.667S0
G1 X-0.202S700
G1 X-1.667S0
G1 Y0.05S0
G1 X1.669S0
G1 X0.219S700
G1 X1.667S0
G1 X0.019Y0.05S0
G1 X-1.667S0
G1 X-0.236S700
G1 X-1.667S0
G1 X0.006Y0.05S0
G1 X1.667S0
G1 X0.248S700
G1 X1.667S0
G1 X0.011Y0.05S0
G1 X-1.667S0
G1 X-0.249S700
G1 X-1.667S0
G1 X0.011Y0.05S0
G1 X1.666S0
G1 X0.25S700
G1 X1.667S0
G1 X0.011Y0.05S0
G1 X-1.667S0
G1 X-0.25S700
G1 X-1.667S0
G1 X0.01Y0.05S0
G1 X1.667S0
G1 X0.251S700
G1 X1.666S0
G1 X0.011Y0.05S0
G1 X-1.666S0
G1 X-0.252S700
G1 X-1.666S0
M9
G1 S0
M5
; return to starting pos
G0 X1.597Y-1.748
M2
