; LightBurn 1.2.01
; GRBL device profile, current position
; Bounds: X-1.66 Y0 to X3.05 Y1.85
G00 G17 G40 G21 G54
G91
M4
; Cut @ 4999.998 mm/min, 0% power
M8
G0 X0.531Y0.039
; Layer Lim
G1 X0.1S0F5000
; Scan @ 4000.002 mm/min, 70% power
M8
G0 X-1.344Y-0.037
; Layer C02
G1 X1.667F4000S0
G1 X0.081S700
G1 X1.667S0
G1 X0.219Y0.05S0
G1 X-1.666S0
G1 X-0.565S700
G1 X-1.666S0
G1 X-0.111Y0.05S0
G1 X1.667S0
G1 X0.757S700
G1 X1.667S0
G1 Y0.05S0
G1 X-1.667S0
G1 X-0.828S700
G1 X-1.667S0
G1 X-0.063Y0.05S0
G1 X1.666S0
G1 X0.892S700
G1 X1.667S0
G1 Y0.05S0
G1 X-1.667S0
G1 X-0.151S700
G1 X-0.396S0
G1 X-0.392S700
G1 X-1.667S0
G1 X-0.046Y0.05S0
G1 X1.667S0
G1 X0.323S700
G1 X0.623S0
G1 X0.039S700
G1 X1.667S0
G1 X-0.717Y0.05S0
G1 X-1.666S0
G1 X-0.3S700
G1 X-1.667S0
G1 X-0.032Y0.05S0
G1 X1.667S0
G1 X0.281S700
G1 X1.666S0
G1 X-0.051Y0.05S0
G1 X-1.667S0
G1 X-0.254S700
G1 X-1.667S0
G1 X-0.019Y0.05S0
G1 X1.666S0
G1 X0.25S700
G1 X1.667S0
G1 X-0.024Y0.05S0
G1 X-1.667S0
G1 X-0.245S700
G1 X-1.667S0
G1 X-0.015Y0.05S0
G1 X1.667S0
G1 X0.244S700
G1 X1.667S0
G1 X-0.014Y0.05S0
G1 X-1.666S0
G1 X-0.244S700
G1 X-1.666S0
G1 X-0.196Y0.05S0
G1 X1.667S0
G1 X1.157S700
G1 X1.666S0
G1 X0.011Y0.05S0
G1 X-1.667S0
G1 X-1.156S700
G1 X-1.667S0
G1 X0.01Y0.05S0
G1 X1.667S0
G1 X1.156S700
G1 X1.667S0
G1 X0.01Y0.05S0
G1 X-1.666S0
G1 X-1.156S700
G1 X-1.667S0
G1 X0.127Y0.05S0
G1 X1.667S0
G1 X0.243S700
G1 X1.667S0
G1 Y0.05S0
G1 X-1.667S0
G1 X-0.245S700
G1 X-1.666S0
G1 Y0.05S0
G1 X1.667S0
G1 X0.244S700
G1 X1.667S0
G1 X0.826Y0.05S0
G1 X-1.666S0
G1 X-1.224S700
G1 X-1.666S0
G1 X0.01Y0.05S0
G1 X1.667S0
G1 X1.223S700
G1 X1.667S0
G1 X0.01Y0.05S0
G1 X-1.667S0
G1 X-1.223S700
G1 X-1.666S0
G1 X0.153Y0.05S0
G1 X1.667S0
G1 X0.249S700
G1 X1.666S0
G1 X0.016Y0.05S0
G1 X-1.667S0
G1 X-0.252S700
G1 X-1.667S0
G1 X0.013Y0.05S0
G1 X1.666S0
G1 X0.256S700
G1 X1.667S0
G1 X0.015Y0.05S0
G1 X-1.667S0
G1 X-0.251S700
G1 X-1.667S0
G1 X0.022Y0.05S0
G1 X1.667S0
G1 X0.265S700
G1 X1.667S0
G1 X0.037Y0.05S0
G1 X-1.667S0
G1 X-0.278S700
G1 X-1.666S0
G1 X0.032Y0.05S0
G1 X1.667S0
G1 X0.285S700
G1 X1.667S0
G1 X0.751Y0.05S0
G1 X-1.667S0
G1 X-0.032S700
G1 X-0.648S0
G1 X-0.324S700
G1 X-1.666S0
G1 X0.045Y0.05S0
G1 X1.666S0
G1 X0.356S700
G1 X0.492S0
G1 X0.122S700
G1 X1.666S0
G1 X0.011Y0.05S0
G1 X-1.666S0
G1 X-0.309S700
G1 X-0.126S0
G1 X-0.5S700
G1 X-1.666S0
G1 X0.079Y0.05S0
G1 X1.667S0
G1 X0.865S700
G1 X1.667S0
G1 X0.011Y0.05S0
G1 X-1.667S0
G1 X-0.797S700
G1 X-1.666S0
G1 X0.108Y0.05S0
G1 X1.667S0
G1 X0.569S700
G1 X1.667S0
G1 X-0.327Y0.05S0
G1 X-1.667S0
G1 X-0.055S700
G1 X-1.667S0
M9
G1 S0
M5
; return to starting pos
G0 X0.784Y-1.852
M2
