; LightBurn 1.2.01
; GRBL device profile, current position
; Bounds: X0 Y0 to X85.6 Y54
G00 G17 G40 G21 G54
G91
M4
; Cut @ 3000 mm/min, 10% power
M8
G0 X85.6Y0
; Layer Lim
G1 X-85.6S0F3000
G1 Y54
G1 X85.6
G1 Y-54
; Scan @ 4000.002 mm/min, 40% power
M8
G0 X-13.251Y5.052
; Layer C01
G1 X1.666F4000S0
G1 X1.739S400
G1 X1.107S0
G1 X3.357S400
G1 X1.667S0
G1 X0.122Y0.06S0
G1 X-1.667S0
G1 X-3.684S400
G1 X-0.96S0
G1 X-1.836S400
G1 X-1.667S0
G1 X-0.07Y0.06S0
G1 X1.666S0
G1 X1.849S400
G1 X0.895S0
G1 X3.897S400
G1 X1.667S0
G1 X0.042Y0.06S0
G1 X-1.667S0
G1 X-4.042S400
G1 X-0.85S0
G1 X-1.856S400
G1 X-1.666S0
G1 X-0.035Y0.06S0
G1 X1.666S0
G1 X1.852S400
G1 X0.81S0
G1 X4.162S400
G1 X1.667S0
G1 X0.036Y0.06S0
G1 X-1.667S0
G1 X-1.51S400
G1 X-0.021S0
G1 X-2.739S400
G1 X-0.776S0
G1 X-1.848S400
G1 X-1.667S0
G1 X-0.02Y0.06S0
G1 X1.667S0
G1 X1.829S400
G1 X0.758S0
G1 X2.736S400
G1 X0.082S0
G1 X1.522S400
G1 X1.666S0
G1 X0.013Y0.06S0
G1 X-1.667S0
G1 X-1.533S400
G1 X-0.142S0
G1 X-2.733S400
G1 X-0.74S0
G1 X-1.802S400
G1 X-1.667S0
G1 X-0.011Y0.06S0
G1 X1.667S0
G1 X1.783S400
G1 X0.728S0
G1 X2.715S400
G1 X0.203S0
G1 X1.545S400
G1 X1.667S0
G1 Y0.06S0
G1 X-1.664S0
G1 X-1.547S400
G1 X-0.264S0
G1 X-2.695S400
G1 X-0.711S0
G1 X-1.764S400
G1 X-1.667S0
G1 Y0.06S0
G1 X1.667S0
G1 X1.74S400
G1 X0.697S0
G1 X2.674S400
G1 X0.324S0
G1 X1.546S400
G1 X1.667S0
G1 Y0.06S0
G1 X-1.667S0
G1 X-1.544S400
G1 X-0.386S0
G1 X-2.641S400
G1 X-0.693S0
G1 X-1.717S400
G1 X-1.667S0
G1 Y0.06S0
G1 X1.667S0
G1 X1.693S400
G1 X0.691S0
G1 X2.607S400
G1 X0.447S0
G1 X1.543S400
G1 X1.667S0
G1 Y0.06S0
G1 X-1.667S0
G1 X-1.542S400
G1 X-0.507S0
G1 X-2.575S400
G1 X-0.678S0
G1 X-1.679S400
G1 X-1.667S0
G1 Y0.06S0
G1 X1.667S0
G1 X1.668S400
G1 X0.674S0
G1 X2.53S400
G1 X0.568S0
G1 X1.541S400
G1 X1.667S0
G1 Y0.06S0
G1 X-1.667S0
G1 X-1.54S400
G1 X-0.629S0
G1 X-2.485S400
G1 X-0.669S0
G1 X-1.658S400
G1 X-1.667S0
G1 Y0.06S0
G1 X1.667S0
G1 X1.647S400
G1 X0.665S0
G1 X2.441S400
G1 X0.689S0
G1 X1.539S400
G1 X1.667S0
G1 Y0.06S0
G1 X-1.667S0
G1 X-1.538S400
G1 X-0.75S0
G1 X-2.393S400
G1 X-0.663S0
G1 X-1.637S400
G1 X-1.667S0
G1 Y0.06S0
G1 X1.667S0
G1 X1.629S400
G1 X0.662S0
G1 X2.342S400
G1 X0.812S0
G1 X1.536S400
G1 X1.667S0
G1 Y0.06S0
G1 X-1.667S0
G1 X-1.535S400
G1 X-0.872S0
G1 X-2.293S400
G1 X-0.658S0
G1 X-1.623S400
G1 X-1.667S0
G1 Y0.06S0
G1 X1.667S0
G1 X1.618S400
G1 X0.653S0
G1 X2.243S400
G1 X0.933S0
G1 X1.534S400
G1 X1.667S0
G1 Y0.06S0
G1 X-1.667S0
G1 X-1.533S400
G1 X-0.994S0
G1 X-2.193S400
G1 X-0.649S0
G1 X-1.612S400
G1 X-1.667S0
G1 Y0.06S0
G1 X1.667S0
G1 X1.606S400
G1 X0.645S0
G1 X2.144S400
G1 X1.054S0
G1 X1.532S400
G1 X1.667S0
G1 Y0.06S0
G1 X-1.667S0
G1 X-1.531S400
G1 X-1.115S0
G1 X-2.093S400
G1 X-0.641S0
G1 X-1.601S400
G1 X-1.667S0
G1 Y0.06S0
G1 X1.667S0
G1 X1.595S400
G1 X0.637S0
G1 X2.043S400
G1 X1.176S0
G1 X1.53S400
G1 X1.667S0
G1 Y0.06S0
G1 X-1.667S0
G1 X-1.528S400
G1 X-1.237S0
G1 X-1.994S400
G1 X-0.632S0
G1 X-1.59S400
G1 X-1.667S0
G1 Y0.06S0
G1 X1.667S0
G1 X1.584S400
G1 X0.628S0
G1 X1.944S400
G1 X1.298S0
G1 X1.527S400
G1 X1.667S0
G1 Y0.06S0
G1 X-1.667S0
G1 X-1.526S400
G1 X-1.359S0
G1 X-1.894S400
G1 X-0.623S0
G1 X-1.579S400
G1 X-1.667S0
G1 Y0.06S0
G1 X1.667S0
G1 X1.573S400
G1 X0.622S0
G1 X1.842S400
G1 X1.419S0
G1 X1.525S400
G1 X1.667S0
G1 Y0.06S0
G1 X-1.667S0
G1 X-1.524S400
G1 X-1.48S0
G1 X-1.788S400
G1 X-0.622S0
G1 X-1.567S400
G1 X-1.667S0
G1 Y0.06S0
G1 X1.667S0
G1 X1.562S400
G1 X0.621S0
G1 X1.734S400
G1 X0.879S0
G1 X0.058S400
G1 X0.604S0
G1 X1.523S400
G1 X1.667S0
G1 Y0.06S0
G1 X-1.667S0
G1 X-1.521S400
G1 X-0.605S0
G1 X-0.119S400
G1 X-0.878S0
G1 X-1.681S400
G1 X-0.621S0
G1 X-1.556S400
G1 X-1.667S0
G1 Y0.06S0
G1 X1.667S0
G1 X1.551S400
G1 X0.619S0
G1 X1.628S400
G1 X0.878S0
G1 X0.18S400
G1 X0.605S0
G1 X1.52S400
G1 X1.667S0
G1 Y0.06S0
G1 X-1.667S0
G1 X-1.519S400
G1 X-0.606S0
G1 X-0.24S400
G1 X-0.878S0
G1 X-1.574S400
G1 X-0.616S0
G1 X-1.548S400
G1 X-1.667S0
G1 Y0.06S0
G1 X1.667S0
G1 X1.546S400
G1 X0.612S0
G1 X1.521S400
G1 X0.877S0
G1 X0.301S400
G1 X0.606S0
G1 X1.518S400
G1 X1.667S0
G1 Y0.06S0
G1 X-1.667S0
G1 X-1.518S400
G1 X-0.605S0
G1 X-0.362S400
G1 X-0.877S0
G1 X-1.467S400
G1 X-0.607S0
G1 X-1.545S400
G1 X-1.667S0
G1 Y0.06S0
G1 X1.667S0
G1 X1.543S400
G1 X0.602S0
G1 X1.415S400
G1 X0.876S0
G1 X0.422S400
G1 X0.605S0
G1 X1.518S400
G1 X1.667S0
G1 Y0.06S0
G1 X-1.667S0
G1 X-1.518S400
G1 X-0.604S0
G1 X-0.483S400
G1 X-0.876S0
G1 X-1.361S400
G1 X-0.597S0
G1 X-1.542S400
G1 X-1.667S0
G1 Y0.06S0
G1 X1.667S0
G1 X1.54S400
G1 X0.593S0
G1 X1.307S400
G1 X0.876S0
G1 X0.544S400
G1 X0.603S0
G1 X1.518S400
G1 X1.667S0
G1 Y0.06S0
G1 X-1.667S0
G1 X-1.519S400
G1 X-0.601S0
G1 X-0.605S400
G1 X-0.875S0
G1 X-1.252S400
G1 X-0.59S0
G1 X-1.539S400
G1 X-1.667S0
G1 Y0.06S0
G1 X1.667S0
G1 X1.537S400
G1 X0.59S0
G1 X1.194S400
G1 X0.875S0
G1 X0.665S400
G1 X0.601S0
G1 X1.519S400
G1 X1.667S0
G1 Y0.06S0
G1 X-1.667S0
G1 X-1.519S400
G1 X-0.6S0
G1 X-0.726S400
G1 X-0.875S0
G1 X-1.137S400
G1 X-0.588S0
G1 X-1.536S400
G1 X-1.667S0
G1 Y0.06S0
G1 X1.667S0
G1 X1.534S400
G1 X0.587S0
G1 X1.081S400
G1 X0.874S0
G1 X0.787S400
G1 X0.599S0
G1 X1.519S400
G1 X1.667S0
G1 Y0.06S0
G1 X-1.667S0
G1 X-1.519S400
G1 X-0.599S0
G1 X-0.847S400
G1 X-0.874S0
G1 X-1.023S400
G1 X-0.587S0
G1 X-1.532S400
G1 X-1.667S0
G1 Y0.06S0
G1 X1.667S0
G1 X1.531S400
G1 X0.585S0
G1 X0.966S400
G1 X0.874S0
G1 X0.908S400
G1 X0.597S0
G1 X1.52S400
G1 X1.667S0
G1 Y0.06S0
G1 X-1.667S0
G1 X-1.52S400
G1 X-0.596S0
G1 X-0.969S400
G1 X-0.873S0
G1 X-0.91S400
G1 X-0.584S0
G1 X-1.529S400
G1 X-1.667S0
G1 Y0.06S0
G1 X1.667S0
G1 X1.528S400
G1 X0.583S0
G1 X0.852S400
G1 X0.873S0
G1 X1.029S400
G1 X0.596S0
G1 X1.52S400
G1 X1.667S0
G1 Y0.06S0
G1 X-1.667S0
G1 X-1.52S400
G1 X-0.595S0
G1 X-1.09S400
G1 X-0.873S0
G1 X-0.795S400
G1 X-0.582S0
G1 X-1.526S400
G1 X-1.667S0
G1 Y0.06S0
G1 X1.667S0
G1 X1.526S400
G1 X0.579S0
G1 X0.739S400
G1 X0.872S0
G1 X1.151S400
G1 X0.594S0
G1 X1.52S400
G1 X1.667S0
G1 Y0.06S0
G1 X-1.667S0
G1 X-1.52S400
G1 X-0.593S0
G1 X-0.507S400
G1 X-0.015S0
G1 X-0.69S400
G1 X-0.872S0
G1 X-0.681S400
G1 X-0.578S0
G1 X-1.525S400
G1 X-1.667S0
G1 Y0.06S0
G1 X1.667S0
G1 X1.525S400
G1 X0.578S0
G1 X0.621S400
G1 X0.872S0
G1 X0.69S400
G1 X0.075S0
G1 X0.507S400
G1 X0.592S0
G1 X1.521S400
G1 X1.667S0
G1 Y0.06S0
G1 X-1.667S0
G1 X-1.521S400
G1 X-0.591S0
G1 X-0.508S400
G1 X-0.135S0
G1 X-0.69S400
G1 X-0.871S0
G1 X-0.562S400
G1 X-0.578S0
G1 X-1.525S400
G1 X-1.667S0
G1 Y0.06S0
G1 X1.667S0
G1 X1.525S400
G1 X0.579S0
G1 X0.516S400
G1 X0.856S0
G1 X0.69S400
G1 X0.195S0
G1 X0.509S400
G1 X0.59S0
G1 X1.521S400
G1 X1.667S0
G1 Y0.06S0
G1 X-1.667S0
G1 X-1.521S400
G1 X-0.59S0
G1 X-0.509S400
G1 X-0.255S0
G1 X-0.69S400
G1 X-0.796S0
G1 X-0.515S400
G1 X-0.581S0
G1 X-1.524S400
G1 X-1.667S0
G1 Y0.06S0
G1 X1.667S0
G1 X1.524S400
G1 X0.582S0
G1 X0.514S400
G1 X0.736S0
G1 X0.69S400
G1 X0.315S0
G1 X0.51S400
G1 X0.589S0
G1 X1.521S400
G1 X1.667S0
G1 Y0.06S0
G1 X-1.667S0
G1 X-1.522S400
G1 X-0.587S0
G1 X-0.511S400
G1 X-0.375S0
G1 X-0.69S400
G1 X-0.676S0
G1 X-0.513S400
G1 X-0.583S0
G1 X-1.524S400
G1 X-1.667S0
G1 Y0.06S0
G1 X1.667S0
G1 X1.523S400
G1 X0.585S0
G1 X0.512S400
G1 X0.616S0
G1 X0.69S400
G1 X0.435S0
G1 X0.511S400
G1 X0.587S0
G1 X1.522S400
G1 X1.667S0
G1 Y0.06S0
G1 X-1.667S0
G1 X-1.522S400
G1 X-0.586S0
G1 X-0.512S400
G1 X-0.495S0
G1 X-0.69S400
G1 X-0.556S0
G1 X-0.512S400
G1 X-0.585S0
G1 X-1.523S400
G1 X-1.667S0
G1 Y0.06S0
G1 X1.667S0
G1 X1.523S400
G1 X0.586S0
G1 X0.511S400
G1 X0.496S0
G1 X0.69S400
G1 X0.555S0
G1 X0.513S400
G1 X0.585S0
G1 X1.522S400
G1 X1.667S0
G1 Y0.06S0
G1 X-1.667S0
G1 X-1.522S400
G1 X-0.584S0
G1 X-0.514S400
G1 X-0.615S0
G1 X-0.69S400
G1 X-0.436S0
G1 X-0.51S400
G1 X-0.588S0
G1 X-1.522S400
G1 X-1.667S0
G1 Y0.06S0
G1 X1.667S0
G1 X1.522S400
G1 X0.589S0
G1 X0.509S400
G1 X0.376S0
G1 X0.69S400
G1 X0.675S0
G1 X0.514S400
G1 X0.584S0
G1 X1.522S400
G1 X1.667S0
G1 Y0.06S0
G1 X-1.667S0
G1 X-1.523S400
G1 X-0.582S0
G1 X-0.515S400
G1 X-0.735S0
G1 X-0.69S400
G1 X-0.316S0
G1 X-0.508S400
G1 X-0.59S0
G1 X-1.522S400
G1 X-1.667S0
G1 Y0.06S0
G1 X1.667S0
G1 X1.522S400
G1 X0.59S0
G1 X0.508S400
G1 X0.256S0
G1 X0.69S400
G1 X0.795S0
G1 X0.516S400
G1 X0.581S0
G1 X1.523S400
G1 X1.667S0
G1 Y0.06S0
G1 X-1.667S0
G1 X-1.523S400
G1 X-0.581S0
G1 X-0.516S400
G1 X-0.855S0
G1 X-0.69S400
G1 X-0.196S0
G1 X-0.507S400
G1 X-0.592S0
G1 X-1.521S400
G1 X-1.667S0
G1 Y0.06S0
G1 X1.667S0
G1 X1.521S400
G1 X0.592S0
G1 X0.507S400
G1 X0.136S0
G1 X0.69S400
G1 X0.87S0
G1 X0.562S400
G1 X0.58S0
G1 X1.523S400
G1 X1.667S0
G1 Y0.06S0
G1 X-1.667S0
G1 X-1.525S400
G1 X-0.577S0
G1 X-0.623S400
G1 X-0.87S0
G1 X-0.69S400
G1 X-0.076S0
G1 X-0.506S400
G1 X-0.593S0
G1 X-1.521S400
G1 X-1.667S0
G1 Y0.06S0
G1 X1.667S0
G1 X1.52S400
G1 X0.595S0
G1 X0.505S400
G1 X0.016S0
G1 X0.69S400
G1 X0.871S0
G1 X0.682S400
G1 X0.576S0
G1 X1.526S400
G1 X1.667S0
G1 Y0.06S0
G1 X-1.667S0
G1 X-1.527S400
G1 X-0.578S0
G1 X-0.739S400
G1 X-0.871S0
G1 X-1.151S400
G1 X-0.595S0
G1 X-1.52S400
G1 X-1.667S0
G1 Y0.06S0
G1 X1.667S0
G1 X1.52S400
G1 X0.596S0
G1 X1.09S400
G1 X0.871S0
G1 X0.796S400
G1 X0.58S0
G1 X1.528S400
G1 X1.667S0
G1 Y0.06S0
G1 X-1.667S0
G1 X-1.529S400
G1 X-0.581S0
G1 X-0.853S400
G1 X-0.872S0
G1 X-1.03S400
G1 X-0.596S0
G1 X-1.52S400
G1 X-1.667S0
G1 Y0.06S0
G1 X1.667S0
G1 X1.519S400
G1 X0.598S0
G1 X0.969S400
G1 X0.872S0
G1 X0.91S400
G1 X0.583S0
G1 X1.53S400
G1 X1.667S0
G1 Y0.06S0
G1 X-1.667S0
G1 X-1.532S400
G1 X-0.584S0
G1 X-0.966S400
G1 X-0.873S0
G1 X-0.908S400
G1 X-0.599S0
G1 X-1.519S400
G1 X-1.667S0
G1 Y0.06S0
G1 X1.667S0
G1 X1.519S400
G1 X0.599S0
G1 X0.848S400
G1 X0.873S0
G1 X1.024S400
G1 X0.585S0
G1 X1.533S400
G1 X1.667S0
G1 Y0.06S0
G1 X-1.667S0
G1 X-1.534S400
G1 X-0.587S0
G1 X-1.081S400
G1 X-0.873S0
G1 X-0.787S400
G1 X-0.601S0
G1 X-1.518S400
G1 X-1.667S0
G1 Y0.06S0
G1 X1.667S0
G1 X1.518S400
G1 X0.601S0
G1 X0.727S400
G1 X0.874S0
G1 X1.137S400
G1 X0.589S0
G1 X1.535S400
G1 X1.667S0
G1 Y0.06S0
G1 X-1.667S0
G1 X-1.536S400
G1 X-0.591S0
G1 X-1.194S400
G1 X-0.874S0
G1 X-0.666S400
G1 X-0.602S0
G1 X-1.518S400
G1 X-1.667S0
G1 Y0.06S0
G1 X1.667S0
G1 X1.517S400
G1 X0.604S0
G1 X0.605S400
G1 X0.874S0
G1 X1.252S400
G1 X0.592S0
G1 X1.537S400
G1 X1.667S0
G1 Y0.06S0
G1 X-1.667S0
G1 X-1.539S400
G1 X-0.594S0
G1 X-1.307S400
G1 X-0.875S0
G1 X-0.545S400
G1 X-0.604S0
G1 X-1.517S400
G1 X-1.667S0
G1 Y0.06S0
G1 X1.667S0
G1 X1.517S400
G1 X0.605S0
G1 X0.484S400
G1 X0.875S0
G1 X1.361S400
G1 X0.599S0
G1 X1.54S400
G1 X1.667S0
G1 Y0.06S0
G1 X-1.667S0
G1 X-1.541S400
G1 X-0.604S0
G1 X-1.415S400
G1 X-0.875S0
G1 X-0.423S400
G1 X-0.606S0
G1 X-1.517S400
G1 X-1.667S0
G1 Y0.06S0
G1 X1.667S0
G1 X1.518S400
G1 X0.605S0
G1 X0.363S400
G1 X0.876S0
G1 X1.467S400
G1 X0.61S0
G1 X1.542S400
G1 X1.667S0
G1 Y0.06S0
G1 X-1.667S0
G1 X-1.545S400
G1 X-0.613S0
G1 X-1.521S400
G1 X-0.876S0
G1 X-0.302S400
G1 X-0.605S0
G1 X-1.519S400
G1 X-1.667S0
G1 Y0.06S0
G1 X1.667S0
G1 X1.52S400
G1 X0.604S0
G1 X0.242S400
G1 X0.877S0
G1 X1.574S400
G1 X0.614S0
G1 X1.55S400
G1 X1.667S0
G1 Y0.06S0
G1 X-1.667S0
G1 X-1.555S400
G1 X-0.615S0
G1 X-1.628S400
G1 X-0.877S0
G1 X-0.181S400
G1 X-0.604S0
G1 X-1.521S400
G1 X-1.667S0
G1 Y0.06S0
G1 X1.667S0
G1 X1.523S400
G1 X0.603S0
G1 X0.12S400
G1 X0.877S0
G1 X1.682S400
G1 X0.616S0
G1 X1.56S400
G1 X1.667S0
G1 Y0.06S0
G1 X-1.667S0
G1 X-1.566S400
G1 X-0.617S0
G1 X-1.734S400
G1 X-0.878S0
G1 X-0.06S400
G1 X-0.602S0
G1 X-1.524S400
G1 X-1.667S0
G1 Y0.06S0
G1 X1.667S0
G1 X1.525S400
G1 X1.479S0
G1 X1.788S400
G1 X0.618S0
G1 X1.571S400
G1 X1.667S0
G1 Y0.06S0
G1 X-1.667S0
G1 X-1.576S400
G1 X-0.619S0
G1 X-1.842S400
G1 X-1.418S0
G1 X-1.526S400
G1 X-1.667S0
G1 Y0.06S0
G1 X1.667S0
G1 X1.527S400
G1 X1.358S0
G1 X1.894S400
G1 X0.621S0
G1 X1.581S400
G1 X1.667S0
G1 Y0.06S0
G1 X-1.667S0
G1 X-1.587S400
G1 X-0.625S0
G1 X-1.944S400
G1 X-1.297S0
G1 X-1.528S400
G1 X-1.667S0
G1 Y0.06S0
G1 X1.667S0
G1 X1.529S400
G1 X1.236S0
G1 X1.994S400
G1 X0.63S0
G1 X1.592S400
G1 X1.667S0
G1 Y0.06S0
G1 X-1.667S0
G1 X-1.597S400
G1 X-0.635S0
G1 X-2.043S400
G1 X-1.175S0
G1 X-1.531S400
G1 X-1.667S0
G1 Y0.06S0
G1 X1.667S0
G1 X1.532S400
G1 X1.114S0
G1 X2.093S400
G1 X0.64S0
G1 X1.602S400
G1 X1.667S0
G1 Y0.06S0
G1 X-1.667S0
G1 X-1.608S400
G1 X-0.643S0
G1 X-2.143S400
G1 X-1.054S0
G1 X-1.533S400
G1 X-1.667S0
G1 Y0.06S0
G1 X1.667S0
G1 X1.534S400
G1 X0.993S0
G1 X2.193S400
G1 X0.648S0
G1 X1.613S400
G1 X1.667S0
G1 Y0.06S0
G1 X-1.667S0
G1 X-1.618S400
G1 X-0.653S0
G1 X-2.243S400
G1 X-0.932S0
G1 X-1.535S400
G1 X-1.667S0
G1 Y0.06S0
G1 X1.667S0
G1 X1.536S400
G1 X0.872S0
G1 X2.292S400
G1 X0.658S0
G1 X1.623S400
G1 X1.667S0
G1 Y0.06S0
G1 X-1.667S0
G1 X-1.629S400
G1 X-0.662S0
G1 X-2.342S400
G1 X-0.811S0
G1 X-1.537S400
G1 X-1.667S0
G1 Y0.06S0
G1 X1.667S0
G1 X1.539S400
G1 X0.749S0
G1 X2.393S400
G1 X0.664S0
G1 X1.636S400
G1 X1.667S0
G1 Y0.06S0
G1 X-1.667S0
G1 X-1.647S400
G1 X-0.665S0
G1 X-2.44S400
G1 X-0.689S0
G1 X-1.54S400
G1 X-1.667S0
G1 Y0.06S0
G1 X1.667S0
G1 X1.541S400
G1 X0.628S0
G1 X2.485S400
G1 X0.67S0
G1 X1.657S400
G1 X1.667S0
G1 Y0.06S0
G1 X-1.667S0
G1 X-1.668S400
G1 X-0.674S0
G1 X-2.53S400
G1 X-0.567S0
G1 X-1.542S400
G1 X-1.667S0
G1 Y0.06S0
G1 X1.667S0
G1 X1.543S400
G1 X0.507S0
G1 X2.574S400
G1 X0.679S0
G1 X1.678S400
G1 X1.667S0
G1 Y0.06S0
G1 X-1.667S0
G1 X-1.692S400
G1 X-0.691S0
G1 X-2.608S400
G1 X-0.446S0
G1 X-1.544S400
G1 X-1.667S0
G1 Y0.06S0
G1 X1.667S0
G1 X1.545S400
G1 X0.386S0
G1 X2.64S400
G1 X0.694S0
G1 X1.716S400
G1 X1.667S0
G1 Y0.06S0
G1 X-1.667S0
G1 X-1.739S400
G1 X-0.698S0
G1 X-2.673S400
G1 X-0.325S0
G1 X-1.546S400
G1 X-1.667S0
G1 Y0.06S0
G1 X1.667S0
G1 X1.548S400
G1 X0.263S0
G1 X2.695S400
G1 X0.712S0
G1 X1.763S400
G1 X1.667S0
G1 X-0.009Y0.06S0
G1 X-1.666S0
G1 X-1.778S400
G1 X-0.729S0
G1 X-2.714S400
G1 X-0.203S0
G1 X-1.548S400
G1 X-1.667S0
G1 X0.007Y0.06S0
G1 X1.667S0
G1 X1.542S400
G1 X0.142S0
G1 X2.732S400
G1 X0.741S0
G1 X1.795S400
G1 X1.666S0
G1 X-0.013Y0.06S0
G1 X-1.667S0
G1 X-1.819S400
G1 X-0.759S0
G1 X-2.736S400
G1 X-0.081S0
G1 X-1.533S400
G1 X-1.666S0
G1 X0.02Y0.06S0
G1 X1.667S0
G1 X1.513S400
G1 X0.021S0
G1 X2.738S400
G1 X0.777S0
G1 X1.84S400
G1 X1.666S0
G1 X-0.041Y0.06S0
G1 X-1.666S0
G1 X-1.838S400
G1 X-0.81S0
G1 X-4.172S400
G1 X-1.667S0
G1 X0.035Y0.06S0
G1 X1.667S0
G1 X4.058S400
G1 X0.851S0
G1 X1.835S400
G1 X1.667S0
G1 X-0.06Y0.06S0
G1 X-1.667S0
G1 X-1.834S400
G1 X-0.895S0
G1 X-3.901S400
G1 X-1.667S0
G1 X0.072Y0.06S0
G1 X1.667S0
G1 X3.706S400
G1 X0.96S0
G1 X1.804S400
G1 X1.667S0
G1 X-0.178Y0.06S0
G1 X-1.667S0
G1 X-1.685S400
G1 X-1.107S0
G1 X-3.39S400
G1 X-1.667S0
; Scan @ 4000.002 mm/min, 70% power
M8
G0 X-10.269Y17.598
; Layer Mail
G1 X1.666S0
G1 X0.591S700
G1 X4.774S0
G1 X0.744S700
G1 X5.114S0
G1 X0.46S700
G1 X4.012S0
G1 X0.489S700
G1 X1.667S0
G1 X0.231Y0.1S0
G1 X-1.667S0
G1 X-0.993S700
G1 X-0.81S0
G1 X-1.907S700
G1 X-0.795S0
G1 X-0.904S700
G1 X-0.842S0
G1 X-1.908S700
G1 X-1.893S0
G1 X-1.321S700
G1 X-2.479S0
G1 X-0.578S700
G1 X-1.095S0
G1 X-1.168S700
G1 X-1.176S0
G1 X-0.578S700
G1 X-1.667S0
G1 Y0.1S0
G1 X1.667S0
G1 X0.578S700
G1 X1.009S0
G1 X1.496S700
G1 X0.934S0
G1 X0.578S700
G1 X2.333S0
G1 X1.617S700
G1 X1.764S0
G1 X1.887S700
G1 X0.713S0
G1 X1.152S700
G1 X0.697S0
G1 X1.886S700
G1 X0.673S0
G1 X1.274S700
G1 X1.667S0
G1 X0.107Y0.1S0
G1 X-1.667S0
G1 X-1.476S700
G1 X-0.578S0
G1 X-1.857S700
G1 X-0.628S0
G1 X-1.34S700
G1 X-0.623S0
G1 X-1.858S700
G1 X-1.694S0
G1 X-1.83S700
G1 X-2.219S0
G1 X-0.578S700
G1 X-0.816S0
G1 X-1.74S700
G1 X-0.883S0
G1 X-0.578S700
G1 X-1.667S0
G1 Y0.1S0
G1 X1.667S0
G1 X0.578S700
G1 X0.785S0
G1 X1.93S700
G1 X0.724S0
G1 X0.578S700
G1 X2.14S0
G1 X1.998S700
G1 X1.645S0
G1 X1.818S700
G1 X0.558S0
G1 X1.471S700
G1 X0.602S0
G1 X1.817S700
G1 X0.508S0
G1 X1.621S700
G1 X1.667S0
G1 X0.06Y0.1S0
G1 X-1.667S0
G1 X-0.624S700
G1 X-0.474S0
G1 X-0.641S700
G1 X-0.45S0
G1 X-1.774S700
G1 X-0.586S0
G1 X-0.606S700
G1 X-0.368S0
G1 X-0.605S700
G1 X-0.509S0
G1 X-1.774S700
G1 X-1.636S0
G1 X-0.805S700
G1 X-0.477S0
G1 X-0.836S700
G1 X-2.073S0
G1 X-0.578S700
G1 X-0.655S0
G1 X-0.864S700
G1 X-0.374S0
G1 X-0.837S700
G1 X-0.709S0
G1 X-0.578S700
G1 X-1.667S0
G1 Y0.1S0
G1 X1.667S0
G1 X0.578S700
G1 X0.644S0
G1 X0.708S700
G1 X0.763S0
G1 X0.726S700
G1 X0.598S0
G1 X0.578S700
G1 X2.029S0
G1 X0.702S700
G1 X0.845S0
G1 X0.655S700
G1 X1.656S0
G1 X0.67S700
G1 X1.528S0
G1 X0.564S700
G1 X0.516S0
G1 X0.554S700
G1 X0.617S0
G1 X0.67S700
G1 X1.465S0
G1 X0.579S700
G1 X0.63S0
G1 X0.608S700
G1 X1.666S0
G1 X0.031Y0.1S0
G1 X-1.667S0
G1 X-0.576S700
G1 X-0.742S0
G1 X-0.557S700
G1 X-1.343S0
G1 X-0.7S700
G1 X-0.651S0
G1 X-0.556S700
G1 X-0.588S0
G1 X-0.545S700
G1 X-1.409S0
G1 X-0.7S700
G1 X-1.691S0
G1 X-0.609S700
G1 X-1.029S0
G1 X-0.637S700
G1 X-1.985S0
G1 X-0.578S700
G1 X-0.552S0
G1 X-0.66S700
G1 X-0.984S0
G1 X-0.641S700
G1 X-0.602S0
G1 X-0.578S700
G1 X-1.667S0
G1 Y0.1S0
G1 X1.667S0
G1 X0.578S700
G1 X0.559S0
G1 X0.612S700
G1 X1.109S0
G1 X0.637S700
G1 X0.522S0
G1 X0.578S700
G1 X1.968S0
G1 X0.601S700
G1 X1.114S0
G1 X0.588S700
G1 X1.766S0
G1 X0.709S700
G1 X1.29S0
G1 X0.54S700
G1 X0.632S0
G1 X0.561S700
G1 X0.717S0
G1 X0.709S700
G1 X1.654S0
G1 X0.128S700
G1 X0.79S0
G1 X0.578S700
G1 X1.667S0
G1 X0.008Y0.1S0
G1 X-1.667S0
G1 X-0.562S700
G1 X-2.501S0
G1 X-0.715S700
G1 X-0.791S0
G1 X-0.564S700
G1 X-0.66S0
G1 X-0.548S700
G1 X-1.171S0
G1 X-0.715S700
G1 X-1.853S0
G1 X-0.589S700
G1 X-1.15S0
G1 X-0.583S700
G1 X-1.951S0
G1 X-0.578S700
G1 X-0.512S0
G1 X-0.599S700
G1 X-1.199S0
G1 X-0.604S700
G1 X-0.525S0
G1 X-0.578S700
G1 X-1.667S0
G1 Y0.1S0
G1 X1.667S0
G1 X0.578S700
G1 X0.501S0
G1 X0.594S700
G1 X1.267S0
G1 X0.249S700
G1 X0.828S0
G1 X0.578S700
G1 X2.442S0
G1 X0.065S700
G1 X1.133S0
G1 X0.625S700
G1 X1.956S0
G1 X0.72S700
G1 X1.06S0
G1 X0.556S700
G1 X0.676S0
G1 X0.567S700
G1 X0.87S0
G1 X0.72S700
G1 X2.397S0
G1 X0.572S700
G1 X1.666S0
G1 X-0.011Y0.1S0
G1 X-1.667S0
G1 X-0.569S700
G1 X-2.282S0
G1 X-0.726S700
G1 X-0.954S0
G1 X-0.573S700
G1 X-0.689S0
G1 X-0.564S700
G1 X-0.943S0
G1 X-0.725S700
G1 X-2.082S0
G1 X-0.702S700
G1 X-2.898S0
G1 X-1.218S700
G1 X-2.362S0
G1 X-0.6S700
G1 X-0.477S0
G1 X-0.578S700
G1 X-1.667S0
G1 Y0.1S0
G1 X1.667S0
G1 X0.578S700
G1 X0.461S0
G1 X0.598S700
G1 X2.38S0
G1 X1.717S700
G1 X2.111S0
G1 X0.954S700
G1 X2.223S0
G1 X0.726S700
G1 X0.826S0
G1 X0.573S700
G1 X0.695S0
G1 X0.577S700
G1 X1.052S0
G1 X0.726S700
G1 X2.147S0
G1 X0.585S700
G1 X1.667S0
G1 X-0.023Y0.1S0
G1 X-1.667S0
G1 X-0.609S700
G1 X-0.751S0
G1 X-0.085S700
G1 X-1.16S0
G1 X-0.724S700
G1 X-1.156S0
G1 X-0.574S700
G1 X-0.703S0
G1 X-0.581S700
G1 X-0.71S0
G1 X-0.725S700
G1 X-2.377S0
G1 X-1.285S700
G1 X-1.591S0
G1 X-1.858S700
G1 X-2.393S0
G1 X-0.592S700
G1 X-0.454S0
G1 X-0.578S700
G1 X-1.667S0
G1 Y0.1S0
G1 X1.667S0
G1 X0.578S700
G1 X0.447S0
G1 X0.597S700
G1 X2.395S0
G1 X1.973S700
G1 X1.161S0
G1 X1.526S700
G1 X2.552S0
G1 X0.704S700
G1 X0.632S0
G1 X0.577S700
G1 X0.709S0
G1 X0.571S700
G1 X1.256S0
G1 X0.703S700
G1 X0.717S0
G1 X0.564S700
G1 X0.555S0
G1 X0.654S700
G1 X1.667S0
G1 X-0.047Y0.1S0
G1 X-1.667S0
G1 X-0.864S700
G1 X-0.02S0
G1 X-0.823S700
G1 X-0.664S0
G1 X-0.673S700
G1 X-1.356S0
G1 X-0.575S700
G1 X-0.709S0
G1 X-0.573S700
G1 X-0.562S0
G1 X-0.674S700
G1 X-2.753S0
G1 X-1.594S700
G1 X-0.923S0
G1 X-2.044S700
G1 X-2.397S0
G1 X-0.595S700
G1 X-0.447S0
G1 X-0.578S700
G1 X-1.667S0
G1 Y0.1S0
G1 X1.667S0
G1 X0.578S700
G1 X0.456S0
G1 X0.592S700
G1 X2.391S0
G1 X0.578S700
G1 X0.562S0
G1 X0.974S700
G1 X0.743S0
G1 X1.542S700
G1 X3.015S0
G1 X0.643S700
G1 X0.495S0
G1 X0.571S700
G1 X0.706S0
G1 X0.575S700
G1 X1.459S0
G1 X0.643S700
G1 X0.613S0
G1 X1.622S700
G1 X1.666S0
G1 X-0.092Y0.1S0
G1 X-1.667S0
G1 X-1.51S700
G1 X-0.596S0
G1 X-0.593S700
G1 X-1.557S0
G1 X-0.567S700
G1 X-0.692S0
G1 X-0.579S700
G1 X-0.46S0
G1 X-0.594S700
G1 X-3.329S0
G1 X-1.4S700
G1 X-0.627S0
G1 X-0.685S700
G1 X-0.881S0
G1 X-0.578S700
G1 X-2.377S0
G1 X-0.596S700
G1 X-0.466S0
G1 X-0.578S700
G1 X-1.667S0
G1 Y0.1S0
G1 X1.667S0
G1 X0.578S700
G1 X0.48S0
G1 X0.596S700
G1 X2.363S0
G1 X0.578S700
G1 X0.964S0
G1 X0.632S700
G1 X0.529S0
G1 X1.163S700
G1 X3.693S0
G1 X0.571S700
G1 X0.437S0
G1 X0.576S700
G1 X0.676S0
G1 X0.561S700
G1 X1.628S0
G1 X0.571S700
G1 X0.578S0
G1 X1.363S700
G1 X1.667S0
G1 X-0.229Y0.1S0
G1 X-1.666S0
G1 X-0.459S700
G1 X-0.139S0
G1 X-0.518S700
G1 X-0.573S0
G1 X-0.562S700
G1 X-1.673S0
G1 X-0.56S700
G1 X-0.655S0
G1 X-0.571S700
G1 X-0.428S0
G1 X-0.562S700
G1 X-4.129S0
G1 X-0.8S700
G1 X-0.469S0
G1 X-0.612S700
G1 X-1.004S0
G1 X-0.578S700
G1 X-2.336S0
G1 X-0.602S700
G1 X-0.501S0
G1 X-0.578S700
G1 X-1.667S0
G1 Y0.1S0
G1 X1.667S0
G1 X0.578S700
G1 X0.522S0
G1 X0.611S700
G1 X1.216S0
G1 X0.193S700
G1 X0.897S0
G1 X0.578S700
G1 X1.019S0
G1 X0.593S700
G1 X0.448S0
G1 X0.626S700
G1 X3.527S0
G1 X0.076S700
G1 X0.748S0
G1 X0.547S700
G1 X0.435S0
G1 X0.566S700
G1 X0.633S0
G1 X0.558S700
G1 X0.886S0
G1 X0.076S700
G1 X0.748S0
G1 X0.547S700
G1 X0.583S0
G1 X0.517S700
G1 X1.667S0
G1 X0.018Y0.1S0
G1 X-1.667S0
G1 X-0.516S700
G1 X-0.594S0
G1 X-0.551S700
G1 X-0.74S0
G1 X-0.551S700
G1 X-0.45S0
G1 X-0.542S700
G1 X-0.612S0
G1 X-0.56S700
G1 X-0.443S0
G1 X-0.551S700
G1 X-0.74S0
G1 X-0.551S700
G1 X-1.567S0
G1 X-0.588S700
G1 X-0.972S0
G1 X-0.576S700
G1 X-0.439S0
G1 X-0.605S700
G1 X-1.003S0
G1 X-0.578S700
G1 X-0.506S0
G1 X-0.617S700
G1 X-1.142S0
G1 X-0.617S700
G1 X-0.557S0
G1 X-0.578S700
G1 X-1.667S0
G1 Y0.1S0
G1 X1.667S0
G1 X0.578S700
G1 X0.601S0
G1 X0.651S700
G1 X0.999S0
G1 X0.643S700
G1 X0.545S0
G1 X0.578S700
G1 X0.959S0
G1 X0.639S700
G1 X0.453S0
G1 X0.553S700
G1 X0.958S0
G1 X0.605S700
G1 X1.601S0
G1 X0.559S700
G1 X0.699S0
G1 X0.555S700
G1 X0.479S0
G1 X0.553S700
G1 X0.573S0
G1 X0.537S700
G1 X0.493S0
G1 X0.56S700
G1 X0.698S0
G1 X0.556S700
G1 X0.624S0
G1 X0.514S700
G1 X1.667S0
G1 X0.018Y0.1S0
G1 X-1.667S0
G1 X-0.513S700
G1 X-0.663S0
G1 X-0.584S700
G1 X-0.594S0
G1 X-0.589S700
G1 X-0.547S0
G1 X-0.56S700
G1 X-0.479S0
G1 X-0.567S700
G1 X-0.528S0
G1 X-0.584S700
G1 X-0.594S0
G1 X-0.589S700
G1 X-1.645S0
G1 X-0.642S700
G1 X-0.866S0
G1 X-0.573S700
G1 X-0.492S0
G1 X-0.708S700
G1 X-0.869S0
G1 X-0.578S700
G1 X-0.584S0
G1 X-0.701S700
G1 X-0.798S0
G1 X-0.709S700
G1 X-0.647S0
G1 X-0.578S700
G1 X-1.667S0
G1 Y0.1S0
G1 X1.667S0
G1 X0.578S700
G1 X0.719S0
G1 X0.823S700
G1 X0.443S0
G1 X0.829S700
G1 X0.625S0
G1 X0.672S700
G1 X0.303S0
G1 X1.142S700
G1 X0.561S0
G1 X0.684S700
G1 X0.564S0
G1 X0.762S700
G1 X1.72S0
G1 X0.677S700
G1 X0.352S0
G1 X0.683S700
G1 X0.582S0
G1 X0.642S700
G1 X0.26S0
G1 X0.642S700
G1 X0.61S0
G1 X0.678S700
G1 X0.352S0
G1 X0.683S700
G1 X0.701S0
G1 X1.535S700
G1 X1.667S0
G1 Y0.1S0
G1 X-1.667S0
G1 X-1.516S700
G1 X-0.783S0
G1 X-1.589S700
G1 X-0.724S0
G1 X-1.425S700
G1 X-0.711S0
G1 X-1.589S700
G1 X-1.834S0
G1 X-1.91S700
G1 X-0.659S0
G1 X-2.065S700
G1 X-0.706S0
G1 X-1.941S700
G1 X-0.792S0
G1 X-0.578S700
G1 X-1.667S0
G1 Y0.1S0
G1 X1.667S0
G1 X0.578S700
G1 X0.895S0
G1 X1.757S700
G1 X0.787S0
G1 X1.992S700
G1 X0.799S0
G1 X1.777S700
G1 X1.975S0
G1 X1.446S700
G1 X0.845S0
G1 X1.288S700
G1 X0.87S0
G1 X1.446S700
G1 X0.87S0
G1 X1.497S700
G1 X1.667S0
G1 Y0.1S0
G1 X-1.667S0
G1 X-1.479S700
G1 X-0.999S0
G1 X-1.225S700
G1 X-1.079S0
G1 X-1.072S700
G1 X-1.073S0
G1 X-1.225S700
G1 X-2.193S0
G1 X-1.571S700
G1 X-1.002S0
G1 X-1.887S700
G1 X-0.906S0
G1 X-1.526S700
G1 X-1.007S0
G1 X-0.578S700
G1 X-1.667S0
G1 Y0.1S0
G1 X1.667S0
G1 X0.578S700
G1 X1.192S0
G1 X1.192S700
G1 X1.055S0
G1 X1.721S700
G1 X1.335S0
G1 X1.25S700
G1 X2.493S0
G1 X0.934S700
G1 X1.369S0
G1 X0.778S700
G1 X1.368S0
G1 X0.934S700
G1 X1.163S0
G1 X1.46S700
G1 X1.667S0
G1 X-5.35Y0.1S0
G1 X-1.667S0
G1 X-0.029S700
G1 X-5.419S0
G1 X-0.641S700
G1 X-4.723S0
G1 X-0.601S700
G1 X-1.667S0
; Image @ 4000.002 mm/min, 60% power
M8
G0 X0.487Y5.58
; Layer C01
G1 X1.667S0
G1 X0.84S569.7
G1 X1.667S0
G1 X15.421Y0.06S0
G1 X-1.667S0
G1 X-0.54S569.7
G1 X-1.14S0
G1 X-0.42S569.7
G1 X-0.48S0
G1 X-1.44S569.7
G1 X-0.6S0
G1 X-1.44S569.7
G1 X-0.36S0
G1 X-1.32S569.7
G1 X-2.221S0
G1 X-0.18S569.7
G1 X-1.56S0
G1 X-0.3S569.7
G1 X-0.6S0
G1 X-1.44S569.7
G1 X-1.2S0
G1 X-1.26S569.7
G1 X-0.66S0
G1 X-0.42S569.7
G1 X-1.74S0
G1 X-0.36S569.7
G1 X-0.54S0
G1 X-1.44S569.7
G1 X-1.321S0
G1 X-5.4S532.3
G1 X-1.667S0
G1 Y0.06S0
G1 X1.667S0
G1 X5.4S532.3
G1 X1.321S0
G1 X1.44S569.7
G1 X0.54S0
G1 X0.36S569.7
G1 X1.74S0
G1 X0.42S569.7
G1 X0.6S0
G1 X1.5S569.7
G1 X1.02S0
G1 X1.44S569.7
G1 X0.6S0
G1 X0.3S569.7
G1 X1.5S0
G1 X0.24S569.7
G1 X2.221S0
G1 X1.32S569.7
G1 X0.36S0
G1 X1.44S569.7
G1 X0.6S0
G1 X1.44S569.7
G1 X0.48S0
G1 X0.42S569.7
G1 X1.08S0
G1 X0.54S569.7
G1 X1.667S0
G1 X-0.06Y0.06S0
G1 X-1.667S0
G1 X-0.48S569.7
G1 X-1.08S0
G1 X-0.42S569.7
G1 X-0.42S0
G1 X-1.5S569.7
G1 X-0.54S0
G1 X-1.5S569.7
G1 X-0.3S0
G1 X-1.38S569.7
G1 X-2.221S0
G1 X-0.3S569.7
G1 X-1.44S0
G1 X-0.3S569.7
G1 X-0.54S0
G1 X-1.5S569.7
G1 X-0.96S0
G1 X-1.56S569.7
G1 X-0.6S0
G1 X-0.42S569.7
G1 X-1.74S0
G1 X-0.36S569.7
G1 X-0.48S0
G1 X-1.5S569.7
G1 X-1.321S0
G1 X-5.4S532.3
G1 X-1.667S0
G1 Y0.06S0
G1 X1.667S0
G1 X5.4S532.3
G1 X1.321S0
G1 X1.5S569.7
G1 X0.48S0
G1 X0.36S569.7
G1 X1.74S0
G1 X0.42S569.7
G1 X0.6S0
G1 X1.68S569.7
G1 X0.84S0
G1 X1.5S569.7
G1 X0.54S0
G1 X0.3S569.7
G1 X1.38S0
G1 X0.36S569.7
G1 X2.221S0
G1 X1.38S569.7
G1 X0.3S0
G1 X1.5S569.7
G1 X0.54S0
G1 X1.5S569.7
G1 X0.42S0
G1 X0.42S569.7
G1 X1.02S0
G1 X0.48S569.7
G1 X1.667S0
G1 Y0.06S0
G1 X-1.667S0
G1 X-0.54S569.7
G1 X-0.96S0
G1 X-0.42S569.7
G1 X-0.36S0
G1 X-1.56S569.7
G1 X-0.48S0
G1 X-1.56S569.7
G1 X-0.24S0
G1 X-1.44S569.7
G1 X-2.221S0
G1 X-0.42S569.7
G1 X-1.32S0
G1 X-0.3S569.7
G1 X-0.48S0
G1 X-1.56S569.7
G1 X-0.78S0
G1 X-0.78S569.7
G1 X-0.42S0
G1 X-0.54S569.7
G1 X-0.6S0
G1 X-0.42S569.7
G1 X-1.74S0
G1 X-0.36S569.7
G1 X-0.42S0
G1 X-1.56S569.7
G1 X-1.321S0
G1 X-5.4S532.3
G1 X-1.667S0
G1 Y0.06S0
G1 X1.667S0
G1 X5.4S532.3
G1 X1.321S0
G1 X0.42S569.7
G1 X1.56S0
G1 X0.36S569.7
G1 X1.74S0
G1 X0.42S569.7
G1 X0.6S0
G1 X0.36S569.7
G1 X0.78S0
G1 X0.66S569.7
G1 X0.72S0
G1 X0.42S569.7
G1 X1.62S0
G1 X0.3S569.7
G1 X1.32S0
G1 X0.42S569.7
G1 X2.221S0
G1 X0.36S569.7
G1 X1.32S0
G1 X0.42S569.7
G1 X1.62S0
G1 X0.42S569.7
G1 X1.5S0
G1 X0.42S569.7
G1 X0.96S0
G1 X0.48S569.7
G1 X1.667S0
G1 X-0.06Y0.06S0
G1 X-1.667S0
G1 X-0.48S569.7
G1 X-0.9S0
G1 X-0.42S569.7
G1 X-1.5S0
G1 X-0.42S569.7
G1 X-1.62S0
G1 X-0.42S569.7
G1 X-1.32S0
G1 X-0.36S569.7
G1 X-2.221S0
G1 X-0.48S569.7
G1 X-1.26S0
G1 X-0.3S569.7
G1 X-1.62S0
G1 X-0.42S569.7
G1 X-0.66S0
G1 X-0.6S569.7
G1 X-0.9S0
G1 X-0.36S569.7
G1 X-0.6S0
G1 X-0.42S569.7
G1 X-1.74S0
G1 X-0.36S569.7
G1 X-1.56S0
G1 X-0.42S569.7
G1 X-1.321S0
G1 X-5.4S532.3
G1 X-1.667S0
G1 Y0.06S0
G1 X1.667S0
G1 X5.4S532.3
G1 X1.321S0
G1 X0.42S569.7
G1 X1.56S0
G1 X0.36S569.7
G1 X1.74S0
G1 X0.42S569.7
G1 X0.6S0
G1 X0.36S569.7
G1 X1.02S0
G1 X0.54S569.7
G1 X0.6S0
G1 X0.42S569.7
G1 X1.62S0
G1 X0.3S569.7
G1 X1.2S0
G1 X0.54S569.7
G1 X2.221S0
G1 X0.36S569.7
G1 X1.32S0
G1 X0.42S569.7
G1 X1.62S0
G1 X0.42S569.7
G1 X1.5S0
G1 X0.42S569.7
G1 X0.84S0
G1 X0.48S569.7
G1 X1.667S0
G1 Y0.06S0
G1 X-1.667S0
G1 X-0.54S569.7
G1 X-0.78S0
G1 X-0.42S569.7
G1 X-1.5S0
G1 X-0.42S569.7
G1 X-1.62S0
G1 X-0.42S569.7
G1 X-1.32S0
G1 X-0.36S569.7
G1 X-2.221S0
G1 X-0.6S569.7
G1 X-1.14S0
G1 X-0.3S569.7
G1 X-1.62S0
G1 X-0.42S569.7
G1 X-0.6S0
G1 X-0.48S569.7
G1 X-1.08S0
G1 X-0.36S569.7
G1 X-0.6S0
G1 X-0.42S569.7
G1 X-1.74S0
G1 X-0.36S569.7
G1 X-1.56S0
G1 X-0.42S569.7
G1 X-1.321S0
G1 X-5.4S532.3
G1 X-1.667S0
G1 Y0.06S0
G1 X1.667S0
G1 X5.4S532.3
G1 X1.321S0
G1 X0.42S569.7
G1 X1.56S0
G1 X0.36S569.7
G1 X1.74S0
G1 X0.42S569.7
G1 X0.6S0
G1 X0.36S569.7
G1 X1.14S0
G1 X0.48S569.7
G1 X0.54S0
G1 X0.42S569.7
G1 X1.62S0
G1 X0.3S569.7
G1 X1.08S0
G1 X0.66S569.7
G1 X2.221S0
G1 X0.36S569.7
G1 X1.32S0
G1 X0.42S569.7
G1 X1.62S0
G1 X0.42S569.7
G1 X1.5S0
G1 X0.42S569.7
G1 X0.78S0
G1 X0.48S569.7
G1 X1.667S0
G1 X-0.06Y0.06S0
G1 X-1.667S0
G1 X-0.48S569.7
G1 X-0.72S0
G1 X-0.42S569.7
G1 X-1.5S0
G1 X-0.42S569.7
G1 X-1.62S0
G1 X-0.42S569.7
G1 X-1.32S0
G1 X-0.36S569.7
G1 X-2.221S0
G1 X-0.66S569.7
G1 X-1.08S0
G1 X-0.3S569.7
G1 X-1.62S0
G1 X-0.42S569.7
G1 X-0.48S0
G1 X-0.54S569.7
G1 X-1.14S0
G1 X-0.36S569.7
G1 X-0.6S0
G1 X-0.42S569.7
G1 X-1.74S0
G1 X-0.36S569.7
G1 X-1.56S0
G1 X-0.42S569.7
G1 X-1.321S0
G1 X-5.4S532.3
G1 X-1.667S0
G1 Y0.06S0
G1 X1.667S0
G1 X5.4S532.3
G1 X1.321S0
G1 X0.42S569.7
G1 X1.56S0
G1 X0.36S569.7
G1 X1.74S0
G1 X0.42S569.7
G1 X0.6S0
G1 X0.36S569.7
G1 X1.2S0
G1 X0.48S569.7
G1 X0.48S0
G1 X0.42S569.7
G1 X1.62S0
G1 X0.3S569.7
G1 X1.02S0
G1 X0.72S569.7
G1 X2.221S0
G1 X0.36S569.7
G1 X1.32S0
G1 X0.42S569.7
G1 X1.62S0
G1 X0.42S569.7
G1 X1.5S0
G1 X0.42S569.7
G1 X0.66S0
G1 X0.48S569.7
G1 X1.667S0
G1 Y0.06S0
G1 X-1.667S0
G1 X-0.48S569.7
G1 X-0.66S0
G1 X-0.42S569.7
G1 X-1.5S0
G1 X-0.42S569.7
G1 X-1.62S0
G1 X-0.42S569.7
G1 X-1.32S0
G1 X-0.36S569.7
G1 X-2.221S0
G1 X-0.78S569.7
G1 X-0.96S0
G1 X-0.3S569.7
G1 X-1.62S0
G1 X-0.42S569.7
G1 X-0.48S0
G1 X-0.42S569.7
G1 X-1.26S0
G1 X-0.36S569.7
G1 X-0.6S0
G1 X-0.42S569.7
G1 X-1.74S0
G1 X-0.36S569.7
G1 X-1.56S0
G1 X-0.42S569.7
G1 X-1.321S0
G1 X-5.4S532.3
G1 X-1.667S0
G1 Y0.06S0
G1 X1.667S0
G1 X5.4S532.3
G1 X1.321S0
G1 X0.42S569.7
G1 X1.56S0
G1 X0.36S569.7
G1 X0.84S0
G1 X0.06S569.7
G1 X0.84S0
G1 X0.42S569.7
G1 X0.6S0
G1 X0.36S569.7
G1 X1.26S0
G1 X0.48S569.7
G1 X0.42S0
G1 X0.42S569.7
G1 X1.62S0
G1 X0.3S569.7
G1 X0.9S0
G1 X0.84S569.7
G1 X2.221S0
G1 X0.36S569.7
G1 X1.32S0
G1 X0.42S569.7
G1 X1.62S0
G1 X0.42S569.7
G1 X1.5S0
G1 X0.42S569.7
G1 X0.6S0
G1 X0.48S569.7
G1 X1.667S0
G1 X-0.06Y0.06S0
G1 X-1.667S0
G1 X-0.48S569.7
G1 X-0.54S0
G1 X-0.42S569.7
G1 X-1.5S0
G1 X-0.42S569.7
G1 X-1.62S0
G1 X-0.42S569.7
G1 X-1.32S0
G1 X-0.36S569.7
G1 X-2.221S0
G1 X-0.9S569.7
G1 X-0.84S0
G1 X-0.3S569.7
G1 X-1.62S0
G1 X-0.42S569.7
G1 X-0.42S0
G1 X-0.42S569.7
G1 X-1.32S0
G1 X-0.36S569.7
G1 X-0.6S0
G1 X-0.42S569.7
G1 X-0.78S0
G1 X-0.18S569.7
G1 X-0.78S0
G1 X-0.36S569.7
G1 X-1.56S0
G1 X-0.42S569.7
G1 X-1.321S0
G1 X-5.4S532.3
G1 X-1.667S0
G1 Y0.06S0
G1 X1.667S0
G1 X5.4S532.3
G1 X1.321S0
G1 X0.42S569.7
G1 X1.56S0
G1 X0.36S569.7
G1 X0.72S0
G1 X0.24S569.7
G1 X0.78S0
G1 X0.42S569.7
G1 X0.6S0
G1 X0.36S569.7
G1 X1.32S0
G1 X0.42S569.7
G1 X0.42S0
G1 X0.42S569.7
G1 X1.62S0
G1 X0.3S569.7
G1 X0.84S0
G1 X0.48S569.7
G1 X0.06S0
G1 X0.36S569.7
G1 X2.221S0
G1 X0.36S569.7
G1 X1.32S0
G1 X0.42S569.7
G1 X1.62S0
G1 X0.42S569.7
G1 X1.5S0
G1 X0.42S569.7
G1 X0.48S0
G1 X0.48S569.7
G1 X1.667S0
G1 X-0.06Y0.06S0
G1 X-1.667S0
G1 X-0.42S569.7
G1 X-0.48S0
G1 X-0.42S569.7
G1 X-1.5S0
G1 X-0.42S569.7
G1 X-1.62S0
G1 X-0.42S569.7
G1 X-1.32S0
G1 X-0.36S569.7
G1 X-2.221S0
G1 X-0.36S569.7
G1 X-0.12S0
G1 X-0.48S569.7
G1 X-0.78S0
G1 X-0.3S569.7
G1 X-1.62S0
G1 X-0.42S569.7
G1 X-0.36S0
G1 X-0.48S569.7
G1 X-1.32S0
G1 X-0.36S569.7
G1 X-0.6S0
G1 X-0.42S569.7
G1 X-0.72S0
G1 X-0.3S569.7
G1 X-0.72S0
G1 X-0.36S569.7
G1 X-1.56S0
G1 X-0.42S569.7
G1 X-1.321S0
G1 X-5.4S532.3
G1 X-1.667S0
G1 Y0.06S0
G1 X1.667S0
G1 X5.4S532.3
G1 X1.321S0
G1 X0.42S569.7
G1 X1.56S0
G1 X0.36S569.7
G1 X0.66S0
G1 X0.42S569.7
G1 X0.66S0
G1 X0.42S569.7
G1 X0.6S0
G1 X0.36S569.7
G1 X1.38S0
G1 X0.42S569.7
G1 X0.36S0
G1 X0.42S569.7
G1 X1.62S0
G1 X0.3S569.7
G1 X0.72S0
G1 X0.54S569.7
G1 X0.12S0
G1 X0.36S569.7
G1 X0.781S0
G1 X0.66S569.7
G1 X0.78S0
G1 X0.36S569.7
G1 X1.32S0
G1 X0.42S569.7
G1 X1.62S0
G1 X0.42S569.7
G1 X1.5S0
G1 X0.42S569.7
G1 X0.42S0
G1 X0.48S569.7
G1 X1.667S0
G1 X-0.06Y0.06S0
G1 X-1.667S0
G1 X-1.26S569.7
G1 X-1.5S0
G1 X-0.42S569.7
G1 X-1.62S0
G1 X-0.42S569.7
G1 X-1.32S0
G1 X-0.36S569.7
G1 X-0.78S0
G1 X-0.66S569.7
G1 X-0.781S0
G1 X-0.36S569.7
G1 X-0.18S0
G1 X-0.54S569.7
G1 X-0.66S0
G1 X-0.3S569.7
G1 X-1.62S0
G1 X-0.42S569.7
G1 X-0.36S0
G1 X-0.42S569.7
G1 X-1.38S0
G1 X-0.36S569.7
G1 X-0.6S0
G1 X-0.42S569.7
G1 X-0.6S0
G1 X-0.54S569.7
G1 X-0.6S0
G1 X-0.36S569.7
G1 X-1.56S0
G1 X-0.42S569.7
G1 X-1.321S0
G1 X-5.4S532.3
G1 X-1.667S0
G1 Y0.06S0
G1 X1.667S0
G1 X5.4S532.3
G1 X1.321S0
G1 X0.42S569.7
G1 X1.56S0
G1 X0.36S569.7
G1 X0.54S0
G1 X0.6S569.7
G1 X0.6S0
G1 X0.42S569.7
G1 X0.6S0
G1 X0.36S569.7
G1 X1.38S0
G1 X0.42S569.7
G1 X0.36S0
G1 X0.42S569.7
G1 X1.62S0
G1 X0.3S569.7
G1 X0.6S0
G1 X0.54S569.7
G1 X0.24S0
G1 X0.36S569.7
G1 X0.781S0
G1 X0.66S569.7
G1 X0.78S0
G1 X0.36S569.7
G1 X1.32S0
G1 X0.42S569.7
G1 X1.62S0
G1 X0.42S569.7
G1 X1.5S0
G1 X1.2S569.7
G1 X1.667S0
G1 Y0.06S0
G1 X-1.667S0
G1 X-1.2S569.7
G1 X-0.72S0
G1 X-1.2S569.7
G1 X-0.84S0
G1 X-1.2S569.7
G1 X-1.32S0
G1 X-0.36S569.7
G1 X-0.78S0
G1 X-0.66S569.7
G1 X-0.781S0
G1 X-0.36S569.7
G1 X-0.3S0
G1 X-0.48S569.7
G1 X-0.6S0
G1 X-0.3S569.7
G1 X-0.84S0
G1 X-1.2S569.7
G1 X-0.36S0
G1 X-0.42S569.7
G1 X-1.38S0
G1 X-0.36S569.7
G1 X-0.6S0
G1 X-0.42S569.7
G1 X-0.54S0
G1 X-0.66S569.7
G1 X-0.54S0
G1 X-0.36S569.7
G1 X-0.78S0
G1 X-1.2S569.7
G1 X-1.321S0
G1 X-5.4S532.3
G1 X-1.667S0
G1 Y0.06S0
G1 X1.667S0
G1 X5.4S532.3
G1 X1.321S0
G1 X1.2S569.7
G1 X0.78S0
G1 X0.36S569.7
G1 X0.48S0
G1 X0.78S569.7
G1 X0.48S0
G1 X0.42S569.7
G1 X0.6S0
G1 X0.36S569.7
G1 X1.38S0
G1 X0.42S569.7
G1 X0.36S0
G1 X1.2S569.7
G1 X0.84S0
G1 X0.3S569.7
G1 X0.54S0
G1 X0.48S569.7
G1 X0.36S0
G1 X0.36S569.7
G1 X0.781S0
G1 X0.66S569.7
G1 X0.78S0
G1 X0.36S569.7
G1 X1.32S0
G1 X1.2S569.7
G1 X0.84S0
G1 X1.2S569.7
G1 X0.72S0
G1 X1.32S569.7
G1 X1.667S0
G1 X0.12Y0.06S0
G1 X-1.667S0
G1 X-1.44S569.7
G1 X-0.66S0
G1 X-1.26S569.7
G1 X-0.78S0
G1 X-1.26S569.7
G1 X-1.32S0
G1 X-0.36S569.7
G1 X-0.78S0
G1 X-0.66S569.7
G1 X-0.781S0
G1 X-0.36S569.7
G1 X-0.36S0
G1 X-0.54S569.7
G1 X-0.48S0
G1 X-0.3S569.7
G1 X-0.78S0
G1 X-1.26S569.7
G1 X-0.36S0
G1 X-0.42S569.7
G1 X-1.38S0
G1 X-0.36S569.7
G1 X-0.6S0
G1 X-0.42S569.7
G1 X-0.42S0
G1 X-0.9S569.7
G1 X-0.42S0
G1 X-0.36S569.7
G1 X-0.72S0
G1 X-1.26S569.7
G1 X-1.321S0
G1 X-5.4S532.3
G1 X-1.667S0
G1 Y0.06S0
G1 X1.667S0
G1 X5.4S532.3
G1 X1.321S0
G1 X1.26S569.7
G1 X0.72S0
G1 X0.36S569.7
G1 X0.42S0
G1 X0.48S569.7
G1 X0.06S0
G1 X0.36S569.7
G1 X0.42S0
G1 X0.42S569.7
G1 X0.6S0
G1 X0.36S569.7
G1 X1.38S0
G1 X0.42S569.7
G1 X0.36S0
G1 X1.26S569.7
G1 X0.78S0
G1 X0.3S569.7
G1 X0.42S0
G1 X0.54S569.7
G1 X0.42S0
G1 X0.36S569.7
G1 X0.781S0
G1 X0.66S569.7
G1 X0.78S0
G1 X0.36S569.7
G1 X1.32S0
G1 X1.26S569.7
G1 X0.78S0
G1 X1.26S569.7
G1 X0.66S0
G1 X0.42S569.7
G1 X0.6S0
G1 X0.48S569.7
G1 X1.667S0
G1 X0.06Y0.06S0
G1 X-1.667S0
G1 X-0.48S569.7
G1 X-0.66S0
G1 X-0.42S569.7
G1 X-0.66S0
G1 X-1.26S569.7
G1 X-0.78S0
G1 X-1.26S569.7
G1 X-1.32S0
G1 X-0.36S569.7
G1 X-0.78S0
G1 X-0.66S569.7
G1 X-0.781S0
G1 X-0.36S569.7
G1 X-0.48S0
G1 X-0.54S569.7
G1 X-0.36S0
G1 X-0.3S569.7
G1 X-0.72S0
G1 X-1.32S569.7
G1 X-0.36S0
G1 X-0.42S569.7
G1 X-1.38S0
G1 X-0.36S569.7
G1 X-0.6S0
G1 X-0.42S569.7
G1 X-0.36S0
G1 X-0.36S569.7
G1 X-0.18S0
G1 X-0.48S569.7
G1 X-0.36S0
G1 X-0.36S569.7
G1 X-0.66S0
G1 X-1.32S569.7
G1 X-1.321S0
G1 X-5.4S532.3
G1 X-1.667S0
G1 Y0.06S0
G1 X1.667S0
G1 X5.4S532.3
G1 X1.321S0
G1 X0.42S569.7
G1 X1.56S0
G1 X0.36S569.7
G1 X0.3S0
G1 X0.48S569.7
G1 X0.3S0
G1 X0.36S569.7
G1 X0.3S0
G1 X0.42S569.7
G1 X0.6S0
G1 X0.36S569.7
G1 X1.38S0
G1 X0.42S569.7
G1 X0.36S0
G1 X0.42S569.7
G1 X1.62S0
G1 X0.3S569.7
G1 X0.36S0
G1 X0.48S569.7
G1 X0.54S0
G1 X0.36S569.7
G1 X0.781S0
G1 X0.66S569.7
G1 X0.78S0
G1 X0.36S569.7
G1 X1.32S0
G1 X0.42S569.7
G1 X1.62S0
G1 X0.42S569.7
G1 X1.5S0
G1 X0.42S569.7
G1 X0.72S0
G1 X0.42S569.7
G1 X1.667S0
G1 X0.06Y0.06S0
G1 X-1.667S0
G1 X-0.42S569.7
G1 X-0.78S0
G1 X-0.42S569.7
G1 X-1.5S0
G1 X-0.42S569.7
G1 X-1.62S0
G1 X-0.42S569.7
G1 X-1.32S0
G1 X-0.36S569.7
G1 X-0.78S0
G1 X-0.66S569.7
G1 X-0.781S0
G1 X-0.36S569.7
G1 X-0.6S0
G1 X-0.48S569.7
G1 X-0.3S0
G1 X-0.3S569.7
G1 X-1.62S0
G1 X-0.42S569.7
G1 X-0.36S0
G1 X-0.42S569.7
G1 X-1.38S0
G1 X-0.36S569.7
G1 X-0.6S0
G1 X-0.42S569.7
G1 X-0.24S0
G1 X-0.42S569.7
G1 X-0.3S0
G1 X-0.54S569.7
G1 X-0.24S0
G1 X-0.36S569.7
G1 X-1.56S0
G1 X-0.42S569.7
G1 X-1.321S0
G1 X-5.4S532.3
G1 X-1.667S0
G1 Y0.06S0
G1 X1.667S0
G1 X5.4S532.3
G1 X1.321S0
G1 X0.42S569.7
G1 X1.56S0
G1 X0.36S569.7
G1 X0.24S0
G1 X0.48S569.7
G1 X0.42S0
G1 X0.36S569.7
G1 X0.24S0
G1 X0.42S569.7
G1 X0.6S0
G1 X0.36S569.7
G1 X1.32S0
G1 X0.48S569.7
G1 X0.36S0
G1 X0.42S569.7
G1 X1.62S0
G1 X0.3S569.7
G1 X0.24S0
G1 X0.54S569.7
G1 X0.6S0
G1 X0.36S569.7
G1 X0.781S0
G1 X0.66S569.7
G1 X0.78S0
G1 X0.36S569.7
G1 X1.32S0
G1 X0.42S569.7
G1 X1.62S0
G1 X0.42S569.7
G1 X1.5S0
G1 X0.42S569.7
G1 X0.84S0
G1 X0.36S569.7
G1 X1.667S0
G1 X0.06Y0.06S0
G1 X-1.667S0
G1 X-0.42S569.7
G1 X-0.84S0
G1 X-0.42S569.7
G1 X-1.5S0
G1 X-0.42S569.7
G1 X-1.62S0
G1 X-0.42S569.7
G1 X-1.32S0
G1 X-0.36S569.7
G1 X-2.221S0
G1 X-0.36S569.7
G1 X-0.66S0
G1 X-0.54S569.7
G1 X-0.18S0
G1 X-0.3S569.7
G1 X-1.62S0
G1 X-0.42S569.7
G1 X-0.36S0
G1 X-0.48S569.7
G1 X-1.32S0
G1 X-0.36S569.7
G1 X-0.6S0
G1 X-0.42S569.7
G1 X-0.18S0
G1 X-0.36S569.7
G1 X-0.54S0
G1 X-0.48S569.7
G1 X-0.18S0
G1 X-0.36S569.7
G1 X-1.56S0
G1 X-0.42S569.7
G1 X-1.321S0
G1 X-5.4S532.3
G1 X-1.667S0
G1 Y0.06S0
G1 X1.667S0
G1 X5.4S532.3
G1 X1.321S0
G1 X0.42S569.7
G1 X1.56S0
G1 X0.36S569.7
G1 X0.12S0
G1 X0.54S569.7
G1 X0.6S0
G1 X0.36S569.7
G1 X0.12S0
G1 X0.42S569.7
G1 X0.6S0
G1 X0.36S569.7
G1 X1.32S0
G1 X0.42S569.7
G1 X0.42S0
G1 X0.42S569.7
G1 X1.62S0
G1 X0.3S569.7
G1 X0.12S0
G1 X0.54S569.7
G1 X0.72S0
G1 X0.36S569.7
G1 X2.221S0
G1 X0.36S569.7
G1 X1.32S0
G1 X0.42S569.7
G1 X1.62S0
G1 X0.42S569.7
G1 X1.5S0
G1 X0.42S569.7
G1 X0.9S0
G1 X0.36S569.7
G1 X1.667S0
G1 Y0.06S0
G1 X-1.667S0
G1 X-0.36S569.7
G1 X-0.9S0
G1 X-0.42S569.7
G1 X-1.5S0
G1 X-0.42S569.7
G1 X-1.62S0
G1 X-0.42S569.7
G1 X-1.32S0
G1 X-0.36S569.7
G1 X-2.221S0
G1 X-0.36S569.7
G1 X-0.78S0
G1 X-0.48S569.7
G1 X-0.12S0
G1 X-0.3S569.7
G1 X-1.62S0
G1 X-0.42S569.7
G1 X-0.42S0
G1 X-0.48S569.7
G1 X-1.26S0
G1 X-0.36S569.7
G1 X-0.6S0
G1 X-0.42S569.7
G1 X-0.06S0
G1 X-0.42S569.7
G1 X-0.66S0
G1 X-0.48S569.7
G1 X-0.12S0
G1 X-0.36S569.7
G1 X-1.56S0
G1 X-0.42S569.7
G1 X-1.321S0
G1 X-5.4S532.3
G1 X-1.667S0
G1 Y0.06S0
G1 X1.667S0
G1 X5.4S532.3
G1 X1.321S0
G1 X0.42S569.7
G1 X1.56S0
G1 X0.36S569.7
G1 X0.06S0
G1 X0.48S569.7
G1 X0.78S0
G1 X0.36S569.7
G1 X0.06S0
G1 X0.42S569.7
G1 X0.6S0
G1 X0.36S569.7
G1 X1.26S0
G1 X0.48S569.7
G1 X0.42S0
G1 X0.42S569.7
G1 X1.62S0
G1 X0.3S569.7
G1 X0.06S0
G1 X0.48S569.7
G1 X0.84S0
G1 X0.36S569.7
G1 X2.221S0
G1 X0.36S569.7
G1 X1.32S0
G1 X0.42S569.7
G1 X1.62S0
G1 X0.42S569.7
G1 X1.5S0
G1 X0.42S569.7
G1 X0.9S0
G1 X0.42S569.7
G1 X1.667S0
G1 Y0.06S0
G1 X-1.667S0
G1 X-0.42S569.7
G1 X-0.9S0
G1 X-0.42S569.7
G1 X-1.5S0
G1 X-0.42S569.7
G1 X-1.62S0
G1 X-0.42S569.7
G1 X-1.32S0
G1 X-0.36S569.7
G1 X-2.221S0
G1 X-0.36S569.7
G1 X-0.84S0
G1 X-0.84S569.7
G1 X-1.62S0
G1 X-0.42S569.7
G1 X-0.48S0
G1 X-0.42S569.7
G1 X-1.26S0
G1 X-0.36S569.7
G1 X-0.6S0
G1 X-0.78S569.7
G1 X-0.9S0
G1 X-0.84S569.7
G1 X-1.56S0
G1 X-0.42S569.7
G1 X-1.321S0
G1 X-5.4S532.3
G1 X-1.667S0
G1 Y0.06S0
G1 X1.667S0
G1 X5.4S532.3
G1 X1.321S0
G1 X0.42S569.7
G1 X1.56S0
G1 X0.84S569.7
G1 X0.96S0
G1 X0.72S569.7
G1 X0.6S0
G1 X0.36S569.7
G1 X1.2S0
G1 X0.48S569.7
G1 X0.48S0
G1 X0.42S569.7
G1 X1.62S0
G1 X0.78S569.7
G1 X0.9S0
G1 X0.36S569.7
G1 X2.221S0
G1 X0.36S569.7
G1 X1.32S0
G1 X0.42S569.7
G1 X1.62S0
G1 X0.42S569.7
G1 X1.5S0
G1 X0.42S569.7
G1 X0.9S0
G1 X0.42S569.7
G1 X1.667S0
G1 Y0.06S0
G1 X-1.667S0
G1 X-0.42S569.7
G1 X-0.9S0
G1 X-0.42S569.7
G1 X-1.5S0
G1 X-0.42S569.7
G1 X-1.62S0
G1 X-0.42S569.7
G1 X-1.32S0
G1 X-0.36S569.7
G1 X-2.221S0
G1 X-0.36S569.7
G1 X-0.96S0
G1 X-0.72S569.7
G1 X-1.62S0
G1 X-0.42S569.7
G1 X-0.48S0
G1 X-0.54S569.7
G1 X-1.14S0
G1 X-0.36S569.7
G1 X-0.6S0
G1 X-0.72S569.7
G1 X-1.02S0
G1 X-0.78S569.7
G1 X-1.56S0
G1 X-0.42S569.7
G1 X-1.321S0
G1 X-5.4S532.3
G1 X-1.667S0
G1 Y0.06S0
G1 X1.667S0
G1 X5.4S532.3
G1 X1.321S0
G1 X0.42S569.7
G1 X1.56S0
G1 X0.72S569.7
G1 X1.14S0
G1 X0.66S569.7
G1 X0.6S0
G1 X0.36S569.7
G1 X1.08S0
G1 X0.54S569.7
G1 X0.54S0
G1 X0.42S569.7
G1 X1.62S0
G1 X0.66S569.7
G1 X1.02S0
G1 X0.36S569.7
G1 X2.221S0
G1 X0.36S569.7
G1 X1.32S0
G1 X0.42S569.7
G1 X1.62S0
G1 X0.42S569.7
G1 X1.5S0
G1 X0.42S569.7
G1 X0.84S0
G1 X0.42S569.7
G1 X1.667S0
G1 Y0.06S0
G1 X-1.667S0
G1 X-0.42S569.7
G1 X-0.84S0
G1 X-0.42S569.7
G1 X-1.5S0
G1 X-0.42S569.7
G1 X-1.62S0
G1 X-0.42S569.7
G1 X-1.32S0
G1 X-0.36S569.7
G1 X-2.221S0
G1 X-0.36S569.7
G1 X-1.08S0
G1 X-0.6S569.7
G1 X-1.62S0
G1 X-0.42S569.7
G1 X-0.6S0
G1 X-0.54S569.7
G1 X-1.02S0
G1 X-0.36S569.7
G1 X-0.6S0
G1 X-0.6S569.7
G1 X-1.2S0
G1 X-0.72S569.7
G1 X-1.56S0
G1 X-0.42S569.7
G1 X-1.321S0
G1 X-5.4S532.3
G1 X-1.667S0
G1 Y0.06S0
G1 X1.667S0
G1 X5.4S532.3
G1 X1.321S0
G1 X0.42S569.7
G1 X1.56S0
G1 X0.66S569.7
G1 X1.32S0
G1 X0.54S569.7
G1 X0.6S0
G1 X0.36S569.7
G1 X0.96S0
G1 X0.6S569.7
G1 X0.6S0
G1 X0.42S569.7
G1 X1.62S0
G1 X0.6S569.7
G1 X1.08S0
G1 X0.36S569.7
G1 X2.221S0
G1 X0.36S569.7
G1 X1.32S0
G1 X0.42S569.7
G1 X1.62S0
G1 X0.42S569.7
G1 X1.5S0
G1 X0.42S569.7
G1 X0.78S0
G1 X0.48S569.7
G1 X1.667S0
G1 X-0.06Y0.06S0
G1 X-1.667S0
G1 X-0.48S569.7
G1 X-0.72S0
G1 X-0.42S569.7
G1 X-1.5S0
G1 X-0.42S569.7
G1 X-1.62S0
G1 X-0.42S569.7
G1 X-1.32S0
G1 X-0.36S569.7
G1 X-2.221S0
G1 X-0.36S569.7
G1 X-1.14S0
G1 X-0.54S569.7
G1 X-1.62S0
G1 X-0.42S569.7
G1 X-0.66S0
G1 X-0.66S569.7
G1 X-0.84S0
G1 X-0.36S569.7
G1 X-0.6S0
G1 X-0.54S569.7
G1 X-1.38S0
G1 X-0.6S569.7
G1 X-1.56S0
G1 X-0.42S569.7
G1 X-1.321S0
G1 X-5.4S532.3
G1 X-1.667S0
G1 Y0.06S0
G1 X1.667S0
G1 X5.4S532.3
G1 X1.321S0
G1 X0.42S569.7
G1 X1.56S0
G1 X0.54S569.7
G1 X1.5S0
G1 X0.48S569.7
G1 X0.6S0
G1 X0.36S569.7
G1 X0.72S0
G1 X0.72S569.7
G1 X0.72S0
G1 X0.42S569.7
G1 X1.56S0
G1 X0.54S569.7
G1 X1.2S0
G1 X0.36S569.7
G1 X2.221S0
G1 X0.36S569.7
G1 X1.32S0
G1 X0.42S569.7
G1 X1.62S0
G1 X0.42S569.7
G1 X1.5S0
G1 X0.42S569.7
G1 X0.6S0
G1 X0.6S569.7
G1 X1.667S0
G1 X-0.06Y0.06S0
G1 X-1.667S0
G1 X-0.84S569.7
G1 X-0.3S0
G1 X-0.42S569.7
G1 X-0.54S0
G1 X-1.38S569.7
G1 X-0.66S0
G1 X-1.38S569.7
G1 X-1.32S0
G1 X-0.36S569.7
G1 X-2.221S0
G1 X-0.36S569.7
G1 X-1.26S0
G1 X-0.48S569.7
G1 X-0.6S0
G1 X-1.38S569.7
G1 X-0.78S0
G1 X-1.02S569.7
G1 X-0.36S0
G1 X-0.36S569.7
G1 X-0.6S0
G1 X-0.42S569.7
G1 X-1.56S0
G1 X-0.54S569.7
G1 X-0.6S0
G1 X-1.38S569.7
G1 X-1.321S0
G1 X-5.4S532.3
G1 X-1.667S0
G1 Y0.06S0
G1 X1.667S0
G1 X5.4S532.3
G1 X1.321S0
G1 X1.44S569.7
G1 X0.54S0
G1 X0.48S569.7
G1 X1.68S0
G1 X0.36S569.7
G1 X0.6S0
G1 X1.62S569.7
G1 X0.9S0
G1 X1.44S569.7
G1 X0.48S0
G1 X0.48S569.7
G1 X1.32S0
G1 X0.36S569.7
G1 X2.221S0
G1 X0.36S569.7
G1 X1.32S0
G1 X1.38S569.7
G1 X0.66S0
G1 X1.38S569.7
G1 X0.54S0
G1 X1.5S569.7
G1 X1.667S0
G1 X-0.06Y0.06S0
G1 X-1.667S0
G1 X-1.44S569.7
G1 X-0.48S0
G1 X-1.44S569.7
G1 X-0.6S0
G1 X-1.44S569.7
G1 X-1.32S0
G1 X-0.36S569.7
G1 X-2.221S0
G1 X-0.36S569.7
G1 X-1.32S0
G1 X-0.54S569.7
G1 X-0.42S0
G1 X-1.44S569.7
G1 X-0.96S0
G1 X-1.56S569.7
G1 X-0.6S0
G1 X-0.3S569.7
G1 X-1.8S0
G1 X-0.48S569.7
G1 X-0.48S0
G1 X-1.44S569.7
G1 X-1.321S0
G1 X-5.4S532.3
G1 X-1.667S0
G1 Y0.06S0
G1 X1.667S0
G1 X5.4S532.3
G1 X1.321S0
G1 X1.44S569.7
G1 X0.42S0
G1 X0.54S569.7
G1 X1.8S0
G1 X0.3S569.7
G1 X0.6S0
G1 X1.44S569.7
G1 X1.08S0
G1 X1.44S569.7
G1 X0.36S0
G1 X0.54S569.7
G1 X1.38S0
G1 X0.36S569.7
G1 X2.221S0
G1 X0.36S569.7
G1 X1.32S0
G1 X1.44S569.7
G1 X0.6S0
G1 X1.44S569.7
G1 X0.48S0
G1 X1.32S569.7
G1 X1.667S0
G1 X-0.12Y0.06S0
G1 X-1.667S0
G1 X-1.08S569.7
G1 X-0.54S0
G1 X-1.5S569.7
G1 X-0.54S0
G1 X-1.5S569.7
G1 X-1.32S0
G1 X-0.36S569.7
G1 X-2.221S0
G1 X-0.36S569.7
G1 X-1.44S0
G1 X-0.54S569.7
G1 X-0.24S0
G1 X-1.5S569.7
G1 X-1.26S0
G1 X-1.2S569.7
G1 X-0.66S0
G1 X-0.24S569.7
G1 X-1.92S0
G1 X-0.48S569.7
G1 X-0.36S0
G1 X-1.5S569.7
G1 X-1.321S0
G1 X-5.4S532.3
G1 X-1.667S0
G1 X2.701Y0.06S0
G1 X1.666S0
G1 X2.7S532.3
G1 X6.961S0
G1 X0.42S569.7
G1 X14.041S0
G1 X0.36S569.7
G1 X1.667S0
G1 X-21.782Y0.06S0
G1 X-1.667S0
G1 X-2.7S532.3
G1 X-1.666S0
G1 Y0.06S0
G1 X1.666S0
G1 X2.7S532.3
G1 X1.667S0
G1 Y0.06S0
G1 X-1.667S0
G1 X-2.7S532.3
G1 X-1.666S0
G1 Y0.06S0
G1 X1.666S0
G1 X2.7S532.3
G1 X1.667S0
G1 Y0.06S0
G1 X-1.667S0
G1 X-2.7S532.3
G1 X-1.666S0
G1 X-3.061Y0.06S0
G1 X1.667S0
G1 X2.7S566.9
G1 X0.36S0
G1 X2.7S532.3
G1 X1.667S0
G1 Y0.06S0
G1 X-1.667S0
G1 X-2.7S532.3
G1 X-0.36S0
G1 X-2.7S566.9
G1 X-1.667S0
G1 Y0.06S0
G1 X1.667S0
G1 X2.7S566.9
G1 X0.36S0
G1 X2.7S532.3
G1 X1.667S0
G1 Y0.06S0
G1 X-1.667S0
G1 X-2.7S532.3
G1 X-0.36S0
G1 X-2.7S566.9
G1 X-1.667S0
G1 Y0.06S0
G1 X1.667S0
G1 X2.7S566.9
G1 X0.36S0
G1 X2.7S532.3
G1 X4.501S0
G1 X0.3S569.7
G1 X2.28S0
G1 X0.24S569.7
G1 X4.08S0
G1 X0.24S569.7
G1 X2.041S0
G1 X0.24S569.7
G1 X4.38S0
G1 X0.3S569.7
G1 X1.667S0
G1 X4.26Y0.06S0
G1 X-1.667S0
G1 X-1.02S569.7
G1 X-0.72S0
G1 X-1.02S569.7
G1 X-1.26S0
G1 X-0.72S569.7
G1 X-1.32S0
G1 X-0.3S569.7
G1 X-0.96S0
G1 X-0.3S569.7
G1 X-1.02S0
G1 X-0.781S569.7
G1 X-1.56S0
G1 X-0.78S569.7
G1 X-0.9S0
G1 X-0.3S569.7
G1 X-0.96S0
G1 X-0.36S569.7
G1 X-0.96S0
G1 X-0.84S569.7
G1 X-1.74S0
G1 X-0.78S569.7
G1 X-1.32S0
G1 X-0.3S569.7
G1 X-0.96S0
G1 X-0.36S569.7
G1 X-1.321S0
G1 X-2.7S532.3
G1 X-0.36S0
G1 X-2.7S566.9
G1 X-1.667S0
G1 Y0.06S0
G1 X1.667S0
G1 X2.7S566.9
G1 X0.36S0
G1 X2.7S532.3
G1 X1.321S0
G1 X0.36S569.7
G1 X0.96S0
G1 X0.3S569.7
G1 X1.2S0
G1 X1.02S569.7
G1 X1.5S0
G1 X1.08S569.7
G1 X0.84S0
G1 X0.36S569.7
G1 X0.96S0
G1 X0.3S569.7
G1 X0.84S0
G1 X0.9S569.7
G1 X1.32S0
G1 X1.081S569.7
G1 X0.9S0
G1 X0.3S569.7
G1 X0.96S0
G1 X0.3S569.7
G1 X1.2S0
G1 X0.9S569.7
G1 X1.2S0
G1 X1.02S569.7
G1 X0.72S0
G1 X1.08S569.7
G1 X1.667S0
G1 Y0.06S0
G1 X-1.667S0
G1 X-1.08S569.7
G1 X-0.66S0
G1 X-1.08S569.7
G1 X-1.08S0
G1 X-1.14S569.7
G1 X-1.08S0
G1 X-0.3S569.7
G1 X-0.96S0
G1 X-0.3S569.7
G1 X-0.78S0
G1 X-1.261S569.7
G1 X-1.2S0
G1 X-0.96S569.7
G1 X-0.84S0
G1 X-0.3S569.7
G1 X-0.96S0
G1 X-0.36S569.7
G1 X-0.78S0
G1 X-1.2S569.7
G1 X-1.38S0
G1 X-1.2S569.7
G1 X-1.08S0
G1 X-0.3S569.7
G1 X-0.96S0
G1 X-0.36S569.7
G1 X-1.321S0
G1 X-2.7S532.3
G1 X-0.36S0
G1 X-2.7S566.9
G1 X-1.667S0
G1 Y0.06S0
G1 X1.667S0
G1 X2.7S566.9
G1 X0.36S0
G1 X2.7S532.3
G1 X1.321S0
G1 X0.36S569.7
G1 X0.96S0
G1 X0.3S569.7
G1 X1.02S0
G1 X1.38S569.7
G1 X1.14S0
G1 X1.32S569.7
G1 X0.78S0
G1 X0.36S569.7
G1 X0.96S0
G1 X0.3S569.7
G1 X0.84S0
G1 X1.02S569.7
G1 X1.02S0
G1 X1.381S569.7
G1 X0.78S0
G1 X0.3S569.7
G1 X0.96S0
G1 X0.3S569.7
G1 X1.08S0
G1 X0.54S569.7
G1 X0.12S0
G1 X0.54S569.7
G1 X1.02S0
G1 X1.08S569.7
G1 X0.66S0
G1 X1.14S569.7
G1 X1.667S0
G1 X-0.84Y0.06S0
G1 X-1.667S0
G1 X-0.3S569.7
G1 X-1.44S0
G1 X-0.3S569.7
G1 X-1.02S0
G1 X-0.36S569.7
G1 X-0.48S0
G1 X-0.42S569.7
G1 X-1.02S0
G1 X-0.3S569.7
G1 X-0.96S0
G1 X-0.3S569.7
G1 X-0.78S0
G1 X-0.36S569.7
G1 X-0.54S0
G1 X-0.541S569.7
G1 X-0.9S0
G1 X-0.42S569.7
G1 X-0.48S0
G1 X-0.24S569.7
G1 X-0.78S0
G1 X-0.3S569.7
G1 X-0.96S0
G1 X-0.36S569.7
G1 X-0.78S0
G1 X-0.3S569.7
G1 X-0.54S0
G1 X-0.54S569.7
G1 X-1.02S0
G1 X-0.48S569.7
G1 X-0.54S0
G1 X-0.48S569.7
G1 X-0.96S0
G1 X-0.3S569.7
G1 X-0.96S0
G1 X-0.36S569.7
G1 X-1.321S0
G1 X-2.7S532.3
G1 X-0.36S0
G1 X-2.7S566.9
G1 X-1.667S0
G1 Y0.06S0
G1 X1.667S0
G1 X2.7S566.9
G1 X0.36S0
G1 X2.7S532.3
G1 X1.321S0
G1 X0.36S569.7
G1 X0.96S0
G1 X0.3S569.7
G1 X0.9S0
G1 X0.42S569.7
G1 X0.78S0
G1 X0.42S569.7
G1 X0.9S0
G1 X0.48S569.7
G1 X0.78S0
G1 X0.18S569.7
G1 X0.78S0
G1 X0.36S569.7
G1 X0.96S0
G1 X0.3S569.7
G1 X0.78S0
G1 X0.12S569.7
G1 X0.72S0
G1 X0.3S569.7
G1 X0.84S0
G1 X0.48S569.7
G1 X0.781S0
G1 X0.24S569.7
G1 X0.78S0
G1 X0.3S569.7
G1 X0.96S0
G1 X0.3S569.7
G1 X0.96S0
G1 X0.36S569.7
G1 X0.72S0
G1 X0.3S569.7
G1 X0.96S0
G1 X0.3S569.7
G1 X1.44S0
G1 X0.3S569.7
G1 X1.667S0
G1 Y0.06S0
G1 X-1.667S0
G1 X-0.3S569.7
G1 X-1.44S0
G1 X-0.3S569.7
G1 X-0.96S0
G1 X-0.3S569.7
G1 X-0.72S0
G1 X-0.36S569.7
G1 X-0.96S0
G1 X-0.3S569.7
G1 X-0.96S0
G1 X-0.3S569.7
G1 X-0.78S0
G1 X-0.12S569.7
G1 X-0.961S0
G1 X-0.42S569.7
G1 X-0.78S0
G1 X-0.36S569.7
G1 X-0.78S0
G1 X-0.06S569.7
G1 X-0.78S0
G1 X-0.3S569.7
G1 X-0.96S0
G1 X-0.36S569.7
G1 X-0.78S0
G1 X-0.06S569.7
G1 X-0.96S0
G1 X-0.42S569.7
G1 X-0.9S0
G1 X-0.36S569.7
G1 X-0.9S0
G1 X-0.36S569.7
G1 X-0.9S0
G1 X-0.3S569.7
G1 X-0.96S0
G1 X-0.36S569.7
G1 X-1.321S0
G1 X-2.7S532.3
G1 X-0.36S0
G1 X-2.7S566.9
G1 X-1.667S0
G1 Y0.06S0
G1 X1.667S0
G1 X2.7S566.9
G1 X0.36S0
G1 X2.7S532.3
G1 X1.321S0
G1 X0.36S569.7
G1 X0.96S0
G1 X0.3S569.7
G1 X0.84S0
G1 X0.36S569.7
G1 X1.02S0
G1 X0.36S569.7
G1 X0.78S0
G1 X0.42S569.7
G1 X1.86S0
G1 X0.36S569.7
G1 X0.96S0
G1 X0.3S569.7
G1 X1.68S0
G1 X0.3S569.7
G1 X0.72S0
G1 X0.42S569.7
G1 X1.921S0
G1 X0.3S569.7
G1 X0.96S0
G1 X0.3S569.7
G1 X0.9S0
G1 X0.36S569.7
G1 X0.84S0
G1 X0.3S569.7
G1 X0.9S0
G1 X0.3S569.7
G1 X1.44S0
G1 X0.3S569.7
G1 X1.667S0
G1 Y0.06S0
G1 X-1.667S0
G1 X-0.3S569.7
G1 X-1.44S0
G1 X-0.3S569.7
G1 X-0.9S0
G1 X-0.24S569.7
G1 X-0.96S0
G1 X-0.3S569.7
G1 X-0.9S0
G1 X-0.3S569.7
G1 X-0.96S0
G1 X-0.3S569.7
G1 X-1.981S0
G1 X-0.36S569.7
G1 X-0.72S0
G1 X-0.3S569.7
G1 X-1.68S0
G1 X-0.3S569.7
G1 X-0.96S0
G1 X-0.36S569.7
G1 X-1.92S0
G1 X-0.42S569.7
G1 X-0.72S0
G1 X-0.3S569.7
G1 X-1.14S0
G1 X-0.3S569.7
G1 X-0.84S0
G1 X-0.3S569.7
G1 X-0.96S0
G1 X-0.36S569.7
G1 X-1.321S0
G1 X-2.7S532.3
G1 X-0.36S0
G1 X-2.7S566.9
G1 X-1.667S0
G1 Y0.06S0
G1 X1.667S0
G1 X2.7S566.9
G1 X0.36S0
G1 X2.7S532.3
G1 X1.321S0
G1 X0.36S569.7
G1 X0.96S0
G1 X0.3S569.7
G1 X0.78S0
G1 X0.36S569.7
G1 X1.14S0
G1 X0.36S569.7
G1 X0.66S0
G1 X0.36S569.7
G1 X1.98S0
G1 X0.36S569.7
G1 X0.96S0
G1 X0.3S569.7
G1 X1.68S0
G1 X0.3S569.7
G1 X0.66S0
G1 X0.36S569.7
G1 X2.041S0
G1 X0.3S569.7
G1 X0.96S0
G1 X0.3S569.7
G1 X0.9S0
G1 X0.3S569.7
G1 X0.96S0
G1 X0.24S569.7
G1 X0.9S0
G1 X0.3S569.7
G1 X1.44S0
G1 X0.3S569.7
G1 X1.667S0
G1 Y0.06S0
G1 X-1.667S0
G1 X-0.3S569.7
G1 X-1.44S0
G1 X-0.3S569.7
G1 X-0.9S0
G1 X-0.24S569.7
G1 X-0.96S0
G1 X-0.3S569.7
G1 X-0.9S0
G1 X-0.3S569.7
G1 X-0.96S0
G1 X-0.3S569.7
G1 X-2.041S0
G1 X-0.36S569.7
G1 X-0.66S0
G1 X-0.36S569.7
G1 X-1.62S0
G1 X-0.3S569.7
G1 X-0.96S0
G1 X-0.36S569.7
G1 X-1.98S0
G1 X-0.36S569.7
G1 X-0.66S0
G1 X-0.3S569.7
G1 X-1.26S0
G1 X-0.3S569.7
G1 X-0.78S0
G1 X-0.3S569.7
G1 X-0.96S0
G1 X-0.36S569.7
G1 X-1.321S0
G1 X-2.7S532.3
G1 X-0.36S0
G1 X-2.7S566.9
G1 X-1.667S0
G1 Y0.06S0
G1 X1.667S0
G1 X2.7S566.9
G1 X0.36S0
G1 X2.7S532.3
G1 X1.321S0
G1 X0.36S569.7
G1 X0.96S0
G1 X0.3S569.7
G1 X0.72S0
G1 X0.36S569.7
G1 X1.26S0
G1 X0.3S569.7
G1 X0.6S0
G1 X0.36S569.7
G1 X2.04S0
G1 X0.36S569.7
G1 X0.96S0
G1 X0.3S569.7
G1 X1.56S0
G1 X0.42S569.7
G1 X0.6S0
G1 X0.36S569.7
G1 X2.101S0
G1 X0.3S569.7
G1 X0.96S0
G1 X0.3S569.7
G1 X0.9S0
G1 X0.3S569.7
G1 X0.96S0
G1 X0.3S569.7
G1 X0.84S0
G1 X0.3S569.7
G1 X1.44S0
G1 X0.3S569.7
G1 X1.667S0
G1 Y0.06S0
G1 X-1.667S0
G1 X-0.3S569.7
G1 X-1.44S0
G1 X-0.3S569.7
G1 X-0.84S0
G1 X-0.3S569.7
G1 X-0.96S0
G1 X-0.3S569.7
G1 X-0.9S0
G1 X-0.3S569.7
G1 X-0.96S0
G1 X-0.3S569.7
G1 X-2.101S0
G1 X-0.36S569.7
G1 X-0.66S0
G1 X-0.42S569.7
G1 X-1.5S0
G1 X-0.3S569.7
G1 X-0.96S0
G1 X-0.36S569.7
G1 X-2.04S0
G1 X-0.36S569.7
G1 X-0.54S0
G1 X-0.36S569.7
G1 X-1.26S0
G1 X-0.36S569.7
G1 X-0.72S0
G1 X-0.3S569.7
G1 X-0.96S0
G1 X-0.36S569.7
G1 X-1.321S0
G1 X-2.7S532.3
G1 X-0.36S0
G1 X-2.7S566.9
G1 X-1.667S0
G1 Y0.06S0
G1 X1.667S0
G1 X2.7S566.9
G1 X0.36S0
G1 X2.7S532.3
G1 X1.321S0
G1 X0.36S569.7
G1 X0.96S0
G1 X0.3S569.7
G1 X0.72S0
G1 X0.3S569.7
G1 X1.32S0
G1 X0.36S569.7
G1 X0.54S0
G1 X0.36S569.7
G1 X2.04S0
G1 X0.36S569.7
G1 X0.96S0
G1 X0.3S569.7
G1 X1.44S0
G1 X0.48S569.7
G1 X0.66S0
G1 X0.36S569.7
G1 X2.101S0
G1 X0.3S569.7
G1 X0.96S0
G1 X0.3S569.7
G1 X0.9S0
G1 X0.3S569.7
G1 X0.96S0
G1 X0.3S569.7
G1 X0.84S0
G1 X0.3S569.7
G1 X1.44S0
G1 X0.3S569.7
G1 X1.667S0
G1 Y0.06S0
G1 X-1.667S0
G1 X-0.3S569.7
G1 X-1.44S0
G1 X-0.3S569.7
G1 X-0.84S0
G1 X-0.3S569.7
G1 X-0.96S0
G1 X-0.3S569.7
G1 X-0.9S0
G1 X-0.3S569.7
G1 X-0.96S0
G1 X-0.3S569.7
G1 X-2.161S0
G1 X-0.3S569.7
G1 X-0.72S0
G1 X-0.54S569.7
G1 X-1.32S0
G1 X-0.3S569.7
G1 X-0.96S0
G1 X-0.36S569.7
G1 X-2.1S0
G1 X-0.3S569.7
G1 X-0.54S0
G1 X-0.3S569.7
G1 X-1.38S0
G1 X-0.3S569.7
G1 X-0.72S0
G1 X-0.3S569.7
G1 X-0.96S0
G1 X-0.36S569.7
G1 X-1.321S0
G1 X-2.7S532.3
G1 X-0.36S0
G1 X-2.7S566.9
G1 X-1.667S0
G1 Y0.06S0
G1 X1.667S0
G1 X2.7S566.9
G1 X0.36S0
G1 X2.7S532.3
G1 X1.321S0
G1 X0.36S569.7
G1 X0.96S0
G1 X0.3S569.7
G1 X0.72S0
G1 X0.3S569.7
G1 X1.38S0
G1 X0.3S569.7
G1 X0.54S0
G1 X0.3S569.7
G1 X2.1S0
G1 X0.36S569.7
G1 X0.96S0
G1 X0.3S569.7
G1 X1.2S0
G1 X0.6S569.7
G1 X0.78S0
G1 X0.3S569.7
G1 X2.161S0
G1 X0.3S569.7
G1 X0.96S0
G1 X0.3S569.7
G1 X0.9S0
G1 X0.3S569.7
G1 X0.96S0
G1 X0.3S569.7
G1 X0.84S0
G1 X0.3S569.7
G1 X1.44S0
G1 X0.84S569.7
G1 X1.667S0
G1 X0.06Y0.06S0
G1 X-1.667S0
G1 X-0.9S569.7
G1 X-1.44S0
G1 X-0.3S569.7
G1 X-0.84S0
G1 X-0.3S569.7
G1 X-0.96S0
G1 X-0.3S569.7
G1 X-0.9S0
G1 X-1.56S569.7
G1 X-2.161S0
G1 X-0.3S569.7
G1 X-0.9S0
G1 X-0.54S569.7
G1 X-1.14S0
G1 X-1.62S569.7
G1 X-2.1S0
G1 X-0.3S569.7
G1 X-0.54S0
G1 X-0.3S569.7
G1 X-1.38S0
G1 X-0.3S569.7
G1 X-0.72S0
G1 X-1.62S569.7
G1 X-1.321S0
G1 X-2.7S532.3
G1 X-0.36S0
G1 X-2.7S566.9
G1 X-1.667S0
G1 Y0.06S0
G1 X1.667S0
G1 X2.7S566.9
G1 X0.36S0
G1 X2.7S532.3
G1 X1.321S0
G1 X1.62S569.7
G1 X0.72S0
G1 X0.3S569.7
G1 X1.38S0
G1 X0.3S569.7
G1 X0.54S0
G1 X0.3S569.7
G1 X2.1S0
G1 X1.62S569.7
G1 X1.08S0
G1 X0.54S569.7
G1 X0.96S0
G1 X0.3S569.7
G1 X2.161S0
G1 X1.56S569.7
G1 X0.9S0
G1 X0.3S569.7
G1 X0.96S0
G1 X0.3S569.7
G1 X0.84S0
G1 X0.3S569.7
G1 X1.44S0
G1 X0.9S569.7
G1 X1.667S0
G1 Y0.06S0
G1 X-1.667S0
G1 X-0.9S569.7
G1 X-1.44S0
G1 X-0.3S569.7
G1 X-0.84S0
G1 X-0.3S569.7
G1 X-0.96S0
G1 X-0.3S569.7
G1 X-0.9S0
G1 X-1.56S569.7
G1 X-2.161S0
G1 X-0.3S569.7
G1 X-1.08S0
G1 X-0.54S569.7
G1 X-0.96S0
G1 X-1.62S569.7
G1 X-2.1S0
G1 X-0.3S569.7
G1 X-0.54S0
G1 X-0.3S569.7
G1 X-1.38S0
G1 X-0.3S569.7
G1 X-0.72S0
G1 X-1.62S569.7
G1 X-1.321S0
G1 X-2.7S532.3
G1 X-0.36S0
G1 X-2.7S566.9
G1 X-1.667S0
G1 Y0.06S0
G1 X1.667S0
G1 X2.7S566.9
G1 X0.36S0
G1 X2.7S532.3
G1 X1.321S0
G1 X1.62S569.7
G1 X0.72S0
G1 X0.3S569.7
G1 X1.38S0
G1 X0.3S569.7
G1 X0.54S0
G1 X0.3S569.7
G1 X2.1S0
G1 X1.62S569.7
G1 X0.96S0
G1 X0.48S569.7
G1 X1.14S0
G1 X0.3S569.7
G1 X2.161S0
G1 X1.56S569.7
G1 X0.9S0
G1 X0.3S569.7
G1 X0.96S0
G1 X0.3S569.7
G1 X0.84S0
G1 X0.3S569.7
G1 X1.44S0
G1 X0.3S569.7
G1 X1.667S0
G1 Y0.06S0
G1 X-1.667S0
G1 X-0.3S569.7
G1 X-1.44S0
G1 X-0.3S569.7
G1 X-0.84S0
G1 X-0.3S569.7
G1 X-0.96S0
G1 X-0.3S569.7
G1 X-0.9S0
G1 X-0.3S569.7
G1 X-0.96S0
G1 X-0.3S569.7
G1 X-2.101S0
G1 X-0.36S569.7
G1 X-1.26S0
G1 X-0.42S569.7
G1 X-0.9S0
G1 X-0.3S569.7
G1 X-0.96S0
G1 X-0.36S569.7
G1 X-2.1S0
G1 X-0.3S569.7
G1 X-0.54S0
G1 X-0.36S569.7
G1 X-1.32S0
G1 X-0.3S569.7
G1 X-0.72S0
G1 X-0.3S569.7
G1 X-0.96S0
G1 X-0.36S569.7
G1 X-1.321S0
G1 X-2.7S532.3
G1 X-0.36S0
G1 X-2.7S566.9
G1 X-1.667S0
G1 Y0.06S0
G1 X1.667S0
G1 X2.7S566.9
G1 X0.36S0
G1 X2.7S532.3
G1 X1.321S0
G1 X0.36S569.7
G1 X0.96S0
G1 X0.3S569.7
G1 X0.72S0
G1 X0.36S569.7
G1 X1.26S0
G1 X0.36S569.7
G1 X0.54S0
G1 X0.36S569.7
G1 X2.04S0
G1 X0.36S569.7
G1 X0.96S0
G1 X0.3S569.7
G1 X0.84S0
G1 X0.42S569.7
G1 X1.32S0
G1 X0.36S569.7
G1 X2.101S0
G1 X0.3S569.7
G1 X0.96S0
G1 X0.3S569.7
G1 X0.9S0
G1 X0.3S569.7
G1 X0.96S0
G1 X0.3S569.7
G1 X0.84S0
G1 X0.3S569.7
G1 X1.44S0
G1 X0.3S569.7
G1 X1.667S0
G1 Y0.06S0
G1 X-1.667S0
G1 X-0.3S569.7
G1 X-1.44S0
G1 X-0.3S569.7
G1 X-0.84S0
G1 X-0.3S569.7
G1 X-0.96S0
G1 X-0.3S569.7
G1 X-0.9S0
G1 X-0.3S569.7
G1 X-0.96S0
G1 X-0.3S569.7
G1 X-2.101S0
G1 X-0.3S569.7
G1 X-1.44S0
G1 X-0.36S569.7
G1 X-0.84S0
G1 X-0.3S569.7
G1 X-0.96S0
G1 X-0.36S569.7
G1 X-2.04S0
G1 X-0.36S569.7
G1 X-0.6S0
G1 X-0.3S569.7
G1 X-1.26S0
G1 X-0.36S569.7
G1 X-0.72S0
G1 X-0.3S569.7
G1 X-0.96S0
G1 X-0.36S569.7
G1 X-1.321S0
G1 X-2.7S532.3
G1 X-0.36S0
G1 X-2.7S566.9
G1 X-1.667S0
G1 Y0.06S0
G1 X1.667S0
G1 X2.7S566.9
G1 X0.36S0
G1 X2.7S532.3
G1 X1.321S0
G1 X0.36S569.7
G1 X0.96S0
G1 X0.3S569.7
G1 X0.78S0
G1 X0.3S569.7
G1 X1.26S0
G1 X0.3S569.7
G1 X0.66S0
G1 X0.3S569.7
G1 X2.04S0
G1 X0.36S569.7
G1 X0.96S0
G1 X0.3S569.7
G1 X0.84S0
G1 X0.3S569.7
G1 X1.5S0
G1 X0.3S569.7
G1 X2.101S0
G1 X0.3S569.7
G1 X0.96S0
G1 X0.3S569.7
G1 X0.9S0
G1 X0.3S569.7
G1 X0.96S0
G1 X0.3S569.7
G1 X0.84S0
G1 X0.3S569.7
G1 X1.44S0
G1 X0.3S569.7
G1 X1.667S0
G1 Y0.06S0
G1 X-1.667S0
G1 X-0.3S569.7
G1 X-1.44S0
G1 X-0.3S569.7
G1 X-0.84S0
G1 X-0.3S569.7
G1 X-0.96S0
G1 X-0.3S569.7
G1 X-0.9S0
G1 X-0.3S569.7
G1 X-0.96S0
G1 X-0.3S569.7
G1 X-2.041S0
G1 X-0.36S569.7
G1 X-1.5S0
G1 X-0.3S569.7
G1 X-0.84S0
G1 X-0.3S569.7
G1 X-0.96S0
G1 X-0.36S569.7
G1 X-1.98S0
G1 X-0.36S569.7
G1 X-0.66S0
G1 X-0.36S569.7
G1 X-1.14S0
G1 X-0.36S569.7
G1 X-0.78S0
G1 X-0.3S569.7
G1 X-0.96S0
G1 X-0.36S569.7
G1 X-1.321S0
G1 X-2.7S532.3
G1 X-0.36S0
G1 X-2.7S566.9
G1 X-1.667S0
G1 Y0.06S0
G1 X1.667S0
G1 X2.7S566.9
G1 X0.36S0
G1 X2.7S532.3
G1 X1.321S0
G1 X0.36S569.7
G1 X0.96S0
G1 X0.3S569.7
G1 X0.84S0
G1 X0.3S569.7
G1 X1.14S0
G1 X0.3S569.7
G1 X0.78S0
G1 X0.36S569.7
G1 X1.92S0
G1 X0.36S569.7
G1 X0.96S0
G1 X0.3S569.7
G1 X0.84S0
G1 X0.3S569.7
G1 X1.56S0
G1 X0.36S569.7
G1 X1.981S0
G1 X0.3S569.7
G1 X0.96S0
G1 X0.3S569.7
G1 X0.9S0
G1 X0.3S569.7
G1 X0.96S0
G1 X0.3S569.7
G1 X0.84S0
G1 X0.3S569.7
G1 X1.44S0
G1 X0.3S569.7
G1 X1.667S0
G1 Y0.06S0
G1 X-1.667S0
G1 X-0.3S569.7
G1 X-1.44S0
G1 X-0.3S569.7
G1 X-0.84S0
G1 X-0.3S569.7
G1 X-0.96S0
G1 X-0.3S569.7
G1 X-0.9S0
G1 X-0.3S569.7
G1 X-0.96S0
G1 X-0.3S569.7
G1 X-1.981S0
G1 X-0.36S569.7
G1 X-1.56S0
G1 X-0.3S569.7
G1 X-0.84S0
G1 X-0.3S569.7
G1 X-0.96S0
G1 X-0.36S569.7
G1 X-1.92S0
G1 X-0.36S569.7
G1 X-0.78S0
G1 X-0.36S569.7
G1 X-1.02S0
G1 X-0.36S569.7
G1 X-0.84S0
G1 X-0.3S569.7
G1 X-0.96S0
G1 X-0.36S569.7
G1 X-1.321S0
G1 X-2.7S532.3
G1 X-0.36S0
G1 X-2.7S566.9
G1 X-1.667S0
G1 Y0.06S0
G1 X1.667S0
G1 X2.7S566.9
G1 X0.36S0
G1 X2.7S532.3
G1 X1.321S0
G1 X0.36S569.7
G1 X0.96S0
G1 X0.3S569.7
G1 X0.9S0
G1 X0.36S569.7
G1 X0.9S0
G1 X0.36S569.7
G1 X0.9S0
G1 X0.36S569.7
G1 X1.02S0
G1 X0.06S569.7
G1 X0.78S0
G1 X0.36S569.7
G1 X0.96S0
G1 X0.3S569.7
G1 X0.84S0
G1 X0.3S569.7
G1 X1.62S0
G1 X0.36S569.7
G1 X1.021S0
G1 X0.12S569.7
G1 X0.78S0
G1 X0.3S569.7
G1 X0.96S0
G1 X0.3S569.7
G1 X0.9S0
G1 X0.3S569.7
G1 X0.96S0
G1 X0.3S569.7
G1 X0.84S0
G1 X0.3S569.7
G1 X1.44S0
G1 X0.3S569.7
G1 X1.667S0
G1 Y0.06S0
G1 X-1.667S0
G1 X-0.3S569.7
G1 X-1.44S0
G1 X-0.3S569.7
G1 X-0.84S0
G1 X-0.3S569.7
G1 X-0.96S0
G1 X-0.3S569.7
G1 X-0.9S0
G1 X-0.3S569.7
G1 X-0.96S0
G1 X-0.3S569.7
G1 X-0.78S0
G1 X-0.18S569.7
G1 X-0.841S0
G1 X-0.42S569.7
G1 X-0.9S0
G1 X-0.06S569.7
G1 X-0.66S0
G1 X-0.3S569.7
G1 X-0.9S0
G1 X-0.3S569.7
G1 X-0.96S0
G1 X-0.36S569.7
G1 X-0.78S0
G1 X-0.18S569.7
G1 X-0.78S0
G1 X-0.42S569.7
G1 X-1.02S0
G1 X-0.36S569.7
G1 X-0.78S0
G1 X-0.42S569.7
G1 X-0.9S0
G1 X-0.3S569.7
G1 X-0.96S0
G1 X-0.36S569.7
G1 X-1.321S0
G1 X-2.7S532.3
G1 X-0.36S0
G1 X-2.7S566.9
G1 X-1.667S0
G1 Y0.06S0
G1 X1.667S0
G1 X2.7S566.9
G1 X0.36S0
G1 X2.7S532.3
G1 X1.321S0
G1 X0.36S569.7
G1 X0.96S0
G1 X0.3S569.7
G1 X0.96S0
G1 X0.48S569.7
G1 X0.54S0
G1 X0.48S569.7
G1 X1.08S0
G1 X0.48S569.7
G1 X0.54S0
G1 X0.3S569.7
G1 X0.78S0
G1 X0.36S569.7
G1 X0.96S0
G1 X0.3S569.7
G1 X0.9S0
G1 X0.42S569.7
G1 X0.42S0
G1 X0.18S569.7
G1 X0.96S0
G1 X0.481S569.7
G1 X0.54S0
G1 X0.36S569.7
G1 X0.78S0
G1 X0.3S569.7
G1 X0.96S0
G1 X0.3S569.7
G1 X0.9S0
G1 X0.3S569.7
G1 X0.96S0
G1 X0.3S569.7
G1 X0.84S0
G1 X0.3S569.7
G1 X1.44S0
G1 X0.3S569.7
G1 X1.667S0
G1 X0.72Y0.06S0
G1 X-1.667S0
G1 X-1.02S569.7
G1 X-1.44S0
G1 X-0.3S569.7
G1 X-0.84S0
G1 X-0.3S569.7
G1 X-0.96S0
G1 X-0.3S569.7
G1 X-0.9S0
G1 X-0.3S569.7
G1 X-0.96S0
G1 X-0.3S569.7
G1 X-0.78S0
G1 X-1.321S569.7
G1 X-1.02S0
G1 X-0.96S569.7
G1 X-0.96S0
G1 X-0.3S569.7
G1 X-0.96S0
G1 X-0.36S569.7
G1 X-0.78S0
G1 X-1.26S569.7
G1 X-1.2S0
G1 X-1.38S569.7
G1 X-1.02S0
G1 X-0.3S569.7
G1 X-0.96S0
G1 X-0.36S569.7
G1 X-1.321S0
G1 X-2.7S532.3
G1 X-0.36S0
G1 X-2.7S566.9
G1 X-1.667S0
G1 Y0.06S0
G1 X1.667S0
G1 X2.7S566.9
G1 X0.36S0
G1 X2.7S532.3
G1 X1.321S0
G1 X0.36S569.7
G1 X0.96S0
G1 X0.3S569.7
G1 X1.14S0
G1 X1.14S569.7
G1 X1.38S0
G1 X1.2S569.7
G1 X0.78S0
G1 X0.36S569.7
G1 X0.96S0
G1 X0.3S569.7
G1 X1.02S0
G1 X0.9S569.7
G1 X1.08S0
G1 X1.261S569.7
G1 X0.78S0
G1 X0.3S569.7
G1 X0.96S0
G1 X0.3S569.7
G1 X0.9S0
G1 X0.3S569.7
G1 X0.96S0
G1 X0.3S569.7
G1 X0.84S0
G1 X0.3S569.7
G1 X1.44S0
G1 X1.02S569.7
G1 X1.667S0
G1 Y0.06S0
G1 X-1.667S0
G1 X-1.02S569.7
G1 X-1.44S0
G1 X-0.3S569.7
G1 X-0.84S0
G1 X-0.3S569.7
G1 X-0.96S0
G1 X-0.3S569.7
G1 X-0.9S0
G1 X-0.3S569.7
G1 X-0.96S0
G1 X-0.3S569.7
G1 X-0.9S0
G1 X-1.021S569.7
G1 X-1.2S0
G1 X-0.84S569.7
G1 X-1.08S0
G1 X-0.3S569.7
G1 X-0.96S0
G1 X-0.36S569.7
G1 X-0.84S0
G1 X-1.02S569.7
G1 X-1.56S0
G1 X-1.02S569.7
G1 X-1.2S0
G1 X-0.3S569.7
G1 X-0.96S0
G1 X-0.36S569.7
G1 X-1.321S0
G1 X-2.7S532.3
G1 X-0.36S0
G1 X-2.7S566.9
G1 X-1.667S0
G1 Y0.06S0
G1 X1.667S0
G1 X2.7S566.9
G1 X0.36S0
G1 X2.7S532.3
G1 X1.321S0
G1 X0.36S569.7
G1 X0.96S0
G1 X0.3S569.7
G1 X1.32S0
G1 X0.78S569.7
G1 X1.8S0
G1 X0.78S569.7
G1 X0.96S0
G1 X0.36S569.7
G1 X0.96S0
G1 X0.3S569.7
G1 X1.2S0
G1 X0.6S569.7
G1 X1.44S0
G1 X0.781S569.7
G1 X1.02S0
G1 X0.3S569.7
G1 X0.96S0
G1 X0.3S569.7
G1 X0.9S0
G1 X0.3S569.7
G1 X0.96S0
G1 X0.3S569.7
G1 X0.84S0
G1 X0.3S569.7
G1 X1.44S0
G1 X1.08S569.7
G1 X1.667S0
G1 X-9.001Y0.06S0
G1 X-1.666S0
G1 X-0.18S569.7
G1 X-6.421S0
G1 X-0.24S569.7
G1 X-2.34S0
G1 X-0.18S569.7
G1 X-7.621S0
G1 X-2.7S566.9
G1 X-1.667S0
G1 Y0.06S0
G1 X1.667S0
G1 X2.7S566.9
G1 X1.667S0
G1 Y0.06S0
G1 X-1.667S0
G1 X-2.7S566.9
G1 X-1.667S0
G1 Y0.06S0
G1 X1.667S0
G1 X2.7S566.9
G1 X1.667S0
G1 Y0.06S0
G1 X-1.667S0
G1 X-2.7S566.9
G1 X-1.667S0
G1 Y0.06S0
G1 X1.667S0
G1 X2.7S566.9
G1 X1.667S0
G0 X-41.69Y-5.76
G1 X1.667S0
G1 X0.36S571.3
G1 X1.666S0
G1 Y0.06S0
G1 X-1.666S0
G1 X-0.36S571.3
G1 X-1.667S0
G1 Y0.06S0
G1 X1.667S0
G1 X0.36S571.3
G1 X1.666S0
G1 X5.581Y0.06S0
G1 X-1.667S0
G1 X-0.06S570.5
G1 X-0.06S572.8
G1 X-0.06S571.7
G1 X-0.06S570.5
G1 X-5.34S0
G1 X-0.36S571.3
G1 X-1.667S0
G1 Y0.06S0
G1 X1.667S0
G1 X0.36S571.3
G1 X5.28S0
G1 X0.06S569.7
G1 X0.12S574
G1 X0.06S573.6
G1 X0.06S574
G1 X0.06S570.9
G1 X1.667S0
G1 X1.14Y0.06S0
G1 X-1.667S0
G1 X-0.06S566.9
G1 X-0.06S568.5
G1 X-0.96S0
G1 X-0.06S568.9
G1 X-0.06S573.6
G1 X-0.24S574
G1 X-0.06S573.6
G1 X-0.06S564.6
G1 X-5.22S0
G1 X-0.36S571.3
G1 X-1.667S0
G1 X-10.141Y0.06S0
G1 X1.667S0
G1 X0.18S543.3
G1 X7.8S543.7
G1 X0.06S543.3
G1 X2.101S0
G1 X0.36S571.3
G1 X5.22S0
G1 X0.06S571.7
G1 X0.06S574.4
G1 X0.06S574
G1 X0.06S574.4
G1 X0.18S574
G1 X0.06S572.8
G1 X0.84S0
G1 X0.06S568.9
G1 X0.06S571.7
G1 X0.06S570.1
G1 X0.06S571.3
G1 X0.06S570.9
G1 X0.06S568.1
G1 X1.667S0
G1 X0.06Y0.06S0
G1 X-1.667S0
G1 X-0.06S572
G1 X-0.06S567.7
G1 X-0.06S564.2
G1 X-0.12S0
G1 X-0.06S565.4
G1 X-0.06S566.9
G1 X-0.06S570.1
G1 X-0.72S0
G1 X-0.06S571.7
G1 X-0.06S574.4
G1 X-0.24S574
G1 X-0.06S574.4
G1 X-0.12S574
G1 X-0.06S570.5
G1 X-5.16S0
G1 X-0.36S571.3
G1 X-2.101S0
G1 X-7.98S543.3
G1 X-1.667S0
G1 X10.081Y0.06S0
G1 X1.667S0
G1 X0.36S571.3
G1 X5.1S0
G1 X0.06S568.5
G1 X0.12S574
G1 X0.12S574.4
G1 X0.36S574
G1 X0.06S571.3
G1 X0.6S0
G1 X0.06S568.5
G1 X0.06S568.1
G1 X0.06S0
G1 X0.06S571.3
G1 X0.06S0
G1 X0.06S569.3
G1 X0.06S568.9
G1 X0.06S0
G1 X0.06S570.5
G1 X0.06S570.1
G1 X1.667S0
G1 Y0.06S0
G1 X-1.667S0
G1 X-0.06S571.3
G1 X-0.06S565.4
G1 X-0.12S0
G1 X-0.06S568.9
G1 X-0.06S0
G1 X-0.06S572
G1 X-0.12S0
G1 X-0.06S570.1
G1 X-0.54S0
G1 X-0.06S568.1
G1 X-0.06S573.6
G1 X-0.06S574.4
G1 X-0.42S574
G1 X-0.06S574.4
G1 X-0.06S574
G1 X-0.06S573.2
G1 X-5.1S0
G1 X-0.36S571.3
G1 X-1.667S0
G1 Y0.06S0
G1 X1.667S0
G1 X0.36S571.3
G1 X5.04S0
G1 X0.06S571.3
G1 X0.18S574
G1 X0.06S574.4
G1 X0.42S574
G1 X0.06S574.4
G1 X0.06S572.8
G1 X0.54S0
G1 X0.06S570.9
G1 X0.12S0
G1 X0.06S572.8
G1 X0.06S570.9
G1 X0.06S571.3
G1 X0.06S563.8
G1 X0.12S0
G1 X0.06S570.1
G1 X1.667S0
G1 Y0.06S0
G1 X-1.667S0
G1 X-0.06S570.5
G1 X-0.06S564.6
G1 X-0.06S0
G1 X-0.06S569.7
G1 X-0.06S567.3
G1 X-0.06S0
G1 X-0.06S572.4
G1 X-0.12S0
G1 X-0.06S570.5
G1 X-0.48S0
G1 X-0.06S572.4
G1 X-0.78S574
G1 X-0.06S573.6
G1 X-0.06S570.1
G1 X-4.98S0
G1 X-0.36S571.3
G1 X-1.667S0
G1 Y0.06S0
G1 X1.667S0
G1 X0.36S571.3
G1 X4.92S0
G1 X0.06S568.5
G1 X0.06S573.6
G1 X0.18S574
G1 X0.06S574.4
G1 X0.48S574
G1 X0.06S574.4
G1 X0.06S574
G1 X0.06S573.6
G1 X0.06S570.9
G1 X0.42S0
G1 X0.06S568.9
G1 X0.06S568.5
G1 X0.06S0
G1 X0.06S572
G1 X0.06S565.4
G1 X0.06S568.9
G1 X0.06S568.5
G1 X0.06S0
G1 X0.06S570.5
G1 X0.06S569.3
G1 X1.667S0
G1 X15.361Y0.06S0
G1 X-1.667S0
G1 X-0.06S568.1
G1 X-0.06S568.9
G1 X-0.12S568.5
G1 X-0.06S568.9
G1 X-2.82S568.5
G1 X-0.12S568.9
G1 X-0.06S567.7
G1 X-0.72S0
G1 X-0.06S569.3
G1 X-0.18S568.5
G1 X-0.12S568.9
G1 X-2.58S568.5
G1 X-0.12S568.9
G1 X-0.06S568.5
G1 X-0.06S568.9
G1 X-0.06S568.5
G1 X-0.06S566.9
G1 X-0.72S0
G1 X-0.06S568.5
G1 X-0.3S568.9
G1 X-2.46S568.5
G1 X-0.42S568.9
G1 X-0.06S568.5
G1 X-0.661S0
G1 X-0.06S566.5
G1 X-0.06S568.9
G1 X-0.06S568.5
G1 X-0.9S568.9
G1 X-0.06S568.1
G1 X-0.06S568.5
G1 X-2.22S0
G1 X-0.06S571.7
G1 X-0.06S569.3
G1 X-0.24S0
G1 X-0.06S565.4
G1 X-0.06S571.7
G1 X-0.42S0
G1 X-0.06S569.3
G1 X-0.06S574
G1 X-0.12S574.4
G1 X-0.12S574
G1 X-0.06S574.4
G1 X-0.12S574
G1 X-0.12S574.4
G1 X-0.12S574
G1 X-0.06S574.4
G1 X-0.24S574
G1 X-0.06S573.2
G1 X-0.06S566.1
G1 X-4.86S0
G1 X-0.36S571.3
G1 X-1.667S0
G1 X-9.061Y0.06S0
G1 X1.667S0
G1 X0.24S543.3
G1 X1.38S0
G1 X0.24S543.3
G1 X0.06S542.9
G1 X0.18S543.3
G1 X0.06S542.9
G1 X2.94S0
G1 X0.06S543.7
G1 X0.18S543.3
G1 X3.721S0
G1 X0.36S571.3
G1 X4.86S0
G1 X0.06S573.2
G1 X0.06S574.4
G1 X0.12S574
G1 X0.06S574.4
G1 X0.06S573.6
G1 X0.06S574.4
G1 X0.12S574
G1 X0.06S572
G1 X0.06S571.7
G1 X0.06S573.2
G1 X0.12S574
G1 X0.06S574.4
G1 X0.06S574
G1 X0.06S574.4
G1 X0.06S574
G1 X0.06S574.4
G1 X0.06S574
G1 X0.06S567.3
G1 X0.36S0
G1 X0.06S565
G1 X0.06S572
G1 X0.06S570.5
G1 X0.06S563.8
G1 X0.06S565.7
G1 X0.06S572
G1 X0.06S570.5
G1 X2.28S0
G1 X0.12S573.6
G1 X0.06S574.4
G1 X0.84S574
G1 X0.12S574.4
G1 X0.06S572.4
G1 X0.661S0
G1 X0.06S573.6
G1 X3.18S574
G1 X0.06S574.4
G1 X0.72S0
G1 X0.06S572.4
G1 X0.06S574
G1 X0.06S574.4
G1 X3.06S574
G1 X0.06S574.8
G1 X0.06S568.9
G1 X0.66S0
G1 X0.06S573.6
G1 X3.18S574
G1 X0.06S573.6
G1 X0.06S570.1
G1 X1.667S0
G1 Y0.06S0
G1 X-1.667S0
G1 X-0.06S569.7
G1 X-3.12S574
G1 X-0.06S574.4
G1 X-0.12S574
G1 X-0.66S0
G1 X-0.06S568.1
G1 X-0.06S574.4
G1 X-3.12S574
G1 X-0.06S574.4
G1 X-0.06S572
G1 X-0.72S0
G1 X-3.18S574
G1 X-0.06S574.4
G1 X-0.06S573.6
G1 X-0.661S0
G1 X-0.06S572
G1 X-1.02S574
G1 X-0.12S573.6
G1 X-2.34S0
G1 X-0.06S566.1
G1 X-0.18S569.7
G1 X-0.42S0
G1 X-0.06S564.6
G1 X-0.06S573.2
G1 X-0.24S574
G1 X-0.06S574.4
G1 X-0.06S573.2
G1 X-0.06S571.7
G1 X-0.3S0
G1 X-0.06S571.3
G1 X-0.06S573.2
G1 X-0.3S574
G1 X-0.06S574.4
G1 X-0.06S572.4
G1 X-4.8S0
G1 X-0.36S571.3
G1 X-3.361S0
G1 X-0.06S543.7
G1 X-0.78S543.3
G1 X-0.06S543.7
G1 X-2.4S0
G1 X-0.06S543.7
G1 X-0.24S543.3
G1 X-0.06S543.7
G1 X-0.18S543.3
G1 X-0.06S543.7
G1 X-0.06S543.3
G1 X-0.06S543.7
G1 X-0.24S543.3
G1 X-0.06S543.7
G1 X-1.14S0
G1 X-0.42S543.3
G1 X-1.667S0
G1 X-0.12Y0.06S0
G1 X1.667S0
G1 X0.54S543.3
G1 X0.96S0
G1 X0.24S543.3
G1 X0.06S543.7
G1 X1.08S543.3
G1 X2.04S0
G1 X0.06S543.7
G1 X0.96S543.3
G1 X0.06S543.7
G1 X0.18S543.3
G1 X3.181S0
G1 X0.36S571.3
G1 X4.74S0
G1 X0.06S569.3
G1 X0.06S574
G1 X0.06S574.4
G1 X0.24S574
G1 X0.06S571.3
G1 X0.54S0
G1 X0.06S571.7
G1 X0.3S574
G1 X0.06S572
G1 X3S0
G1 X0.12S573.6
G1 X1.02S574
G1 X0.06S572
G1 X0.661S0
G1 X0.06S573.6
G1 X0.06S574.4
G1 X3.06S574
G1 X0.12S574.4
G1 X0.72S0
G1 X0.06S572
G1 X0.06S574.4
G1 X3.12S574
G1 X0.06S574.4
G1 X0.06S568.1
G1 X0.66S0
G1 X0.12S574
G1 X0.06S574.4
G1 X3.12S574
G1 X0.06S569.7
G1 X1.667S0
G1 Y0.06S0
G1 X-1.667S0
G1 X-0.06S569.7
G1 X-3.12S574
G1 X-0.06S574.4
G1 X-0.12S574
G1 X-0.66S0
G1 X-0.06S568.1
G1 X-0.06S574.4
G1 X-3.12S574
G1 X-0.06S574.4
G1 X-0.06S572
G1 X-0.72S0
G1 X-0.12S574.4
G1 X-3.06S574
G1 X-0.06S574.4
G1 X-0.06S574
G1 X-0.661S0
G1 X-0.06S572.4
G1 X-1.02S574
G1 X-0.12S573.6
G1 X-2.94S0
G1 X-0.06S571.3
G1 X-0.06S573.6
G1 X-0.12S574
G1 X-0.06S574.4
G1 X-0.06S573.6
G1 X-0.06S570.5
G1 X-0.24S0
G1 X-0.06S569.7
G1 X-0.06S570.5
G1 X-0.06S570.1
G1 X-0.24S0
G1 X-0.06S570.5
G1 X-0.06S573.2
G1 X-0.18S574
G1 X-0.06S574.4
G1 X-0.06S573.6
G1 X-0.06S568.5
G1 X-4.68S0
G1 X-0.36S571.3
G1 X-3.061S0
G1 X-1.38S543.3
G1 X-0.06S543.7
G1 X-0.12S543.3
G1 X-1.74S0
G1 X-0.06S543.7
G1 X-1.5S543.3
G1 X-0.06S543.7
G1 X-0.84S0
G1 X-0.6S543.3
G1 X-1.667S0
G1 X-0.06Y0.06S0
G1 X1.667S0
G1 X0.66S543.3
G1 X0.78S0
G1 X1.8S543.3
G1 X1.56S0
G1 X0.24S543.3
G1 X0.06S543.7
G1 X1.44S543.3
G1 X2.941S0
G1 X0.36S571.3
G1 X4.62S0
G1 X0.06S567.3
G1 X0.06S573.2
G1 X0.18S574
G1 X0.06S574.4
G1 X0.06S572.8
G1 X0.24S0
G1 X0.06S570.1
G1 X0.06S572.8
G1 X0.06S573.6
G1 X0.06S574
G1 X0.06S573.6
G1 X0.06S572.8
G1 X0.06S568.1
G1 X0.18S0
G1 X0.06S565.7
G1 X0.06S573.2
G1 X0.12S574
G1 X0.06S574.4
G1 X0.06S574
G1 X0.06S571.7
G1 X2.88S0
G1 X0.12S573.6
G1 X1.02S574
G1 X0.06S572.4
G1 X0.661S0
G1 X0.06S574
G1 X0.06S574.4
G1 X3.06S574
G1 X0.12S574.4
G1 X0.72S0
G1 X0.06S572
G1 X0.06S574.4
G1 X3.12S574
G1 X0.06S574.4
G1 X0.06S568.1
G1 X0.66S0
G1 X0.12S574
G1 X0.06S574.4
G1 X3.12S574
G1 X0.06S569.7
G1 X1.667S0
G1 Y0.06S0
G1 X-1.667S0
G1 X-0.06S569.7
G1 X-3.12S574
G1 X-0.06S574.4
G1 X-0.12S574
G1 X-0.66S0
G1 X-0.06S568.1
G1 X-0.06S574.4
G1 X-3.12S574
G1 X-0.06S574.4
G1 X-0.06S572
G1 X-0.72S0
G1 X-0.12S574.4
G1 X-3.06S574
G1 X-0.06S574.4
G1 X-0.06S574
G1 X-0.661S0
G1 X-0.06S572.4
G1 X-1.02S574
G1 X-0.12S573.6
G1 X-2.82S0
G1 X-0.06S569.7
G1 X-0.12S574.4
G1 X-0.12S574
G1 X-0.06S573.2
G1 X-0.06S566.9
G1 X-0.18S0
G1 X-0.06S568.5
G1 X-0.12S574
G1 X-0.12S574.4
G1 X-0.06S574
G1 X-0.12S574.4
G1 X-0.06S570.5
G1 X-0.24S0
G1 X-0.06S572.4
G1 X-0.06S574
G1 X-0.06S574.4
G1 X-0.06S574
G1 X-0.12S574.4
G1 X-0.06S564.2
G1 X-4.56S0
G1 X-0.36S571.3
G1 X-2.881S0
G1 X-1.92S543.3
G1 X-1.38S0
G1 X-1.86S543.3
G1 X-0.06S543.7
G1 X-0.06S543.3
G1 X-0.66S0
G1 X-0.78S543.3
G1 X-1.667S0
G1 X-0.06Y0.06S0
G1 X1.667S0
G1 X0.84S543.3
G1 X0.6S0
G1 X0.12S543.3
G1 X0.06S543.7
G1 X1.8S543.3
G1 X0.06S543.7
G1 X0.06S543.3
G1 X1.26S0
G1 X2.1S543.3
G1 X2.761S0
G1 X0.36S571.3
G1 X4.56S0
G1 X0.06S572.8
G1 X0.18S574
G1 X0.06S573.6
G1 X0.06S570.1
G1 X0.18S0
G1 X0.06S568.5
G1 X0.06S572.4
G1 X0.18S574
G1 X0.12S574.4
G1 X0.12S574
G1 X0.06S574.4
G1 X0.06S574
G1 X0.06S571.7
G1 X0.24S0
G1 X0.06S570.9
G1 X0.06S574.4
G1 X0.18S574
G1 X0.06S569.3
G1 X2.76S0
G1 X0.12S573.6
G1 X1.02S574
G1 X0.06S572
G1 X0.661S0
G1 X0.06S574
G1 X0.06S574.4
G1 X3.06S574
G1 X0.12S574.4
G1 X0.72S0
G1 X0.06S572
G1 X0.06S574.4
G1 X3.12S574
G1 X0.06S574.4
G1 X0.06S568.1
G1 X0.66S0
G1 X0.12S574
G1 X0.06S574.4
G1 X3.12S574
G1 X0.06S569.7
G1 X1.667S0
G1 Y0.06S0
G1 X-1.667S0
G1 X-0.06S569.7
G1 X-3.12S574
G1 X-0.06S574.4
G1 X-0.12S574
G1 X-0.66S0
G1 X-0.06S568.1
G1 X-0.06S574.4
G1 X-3.12S574
G1 X-0.06S574.4
G1 X-0.06S572
G1 X-0.72S0
G1 X-0.12S574.4
G1 X-3.06S574
G1 X-0.06S574.4
G1 X-0.06S574
G1 X-0.661S0
G1 X-0.06S572
G1 X-1.02S574
G1 X-0.12S573.6
G1 X-2.7S0
G1 X-0.06S568.5
G1 X-0.06S573.6
G1 X-0.06S574.4
G1 X-0.06S574
G1 X-0.06S573.6
G1 X-0.06S571.3
G1 X-0.18S0
G1 X-0.06S568.9
G1 X-0.06S572.8
G1 X-0.42S574
G1 X-0.06S574.4
G1 X-0.18S574
G1 X-0.06S573.6
G1 X-0.06S568.9
G1 X-0.18S0
G1 X-0.06S569.3
G1 X-0.06S573.2
G1 X-0.06S574
G1 X-0.06S574.4
G1 X-0.06S574
G1 X-0.06S572
G1 X-4.5S0
G1 X-0.36S571.3
G1 X-2.701S0
G1 X-2.22S543.3
G1 X-1.08S0
G1 X-0.12S543.3
G1 X-0.06S543.7
G1 X-2.1S543.3
G1 X-0.54S0
G1 X-0.9S543.3
G1 X-1.667S0
G1 Y0.06S0
G1 X1.667S0
G1 X0.9S543.3
G1 X0.48S0
G1 X0.06S543.3
G1 X0.06S543.7
G1 X2.28S543.3
G1 X0.9S0
G1 X2.4S543.3
G1 X2.641S0
G1 X0.36S571.3
G1 X4.44S0
G1 X0.06S572
G1 X0.06S573.6
G1 X0.06S574.4
G1 X0.06S574
G1 X0.06S573.2
G1 X0.06S568.1
G1 X0.18S0
G1 X0.06S571.3
G1 X0.06S573.6
G1 X0.06S574.4
G1 X0.48S574
G1 X0.12S574.4
G1 X0.12S574
G1 X0.06S573.2
G1 X0.06S570.5
G1 X0.18S0
G1 X0.06S569.7
G1 X0.06S573.2
G1 X0.06S574
G1 X0.06S574.4
G1 X0.06S572.8
G1 X0.06S566.9
G1 X2.64S0
G1 X0.12S573.6
G1 X1.02S574
G1 X0.06S572
G1 X0.661S0
G1 X0.06S574
G1 X0.06S574.4
G1 X3.06S574
G1 X0.12S574.4
G1 X0.72S0
G1 X0.06S572
G1 X0.06S574.4
G1 X3.12S574
G1 X0.06S574.4
G1 X0.06S568.1
G1 X0.66S0
G1 X0.12S574
G1 X0.06S574.4
G1 X3.12S574
G1 X0.06S569.7
G1 X1.667S0
G1 Y0.06S0
G1 X-1.667S0
G1 X-0.06S569.7
G1 X-3.12S574
G1 X-0.06S574.4
G1 X-0.12S574
G1 X-0.66S0
G1 X-0.06S568.1
G1 X-0.06S574.4
G1 X-3.12S574
G1 X-0.06S574.4
G1 X-0.06S572
G1 X-0.72S0
G1 X-0.12S574.4
G1 X-3.06S574
G1 X-0.06S574.4
G1 X-0.06S574
G1 X-0.661S0
G1 X-0.06S572
G1 X-1.02S574
G1 X-0.12S573.6
G1 X-2.58S0
G1 X-0.06S566.9
G1 X-0.12S573.6
G1 X-0.06S574
G1 X-0.06S573.6
G1 X-0.06S567.3
G1 X-0.18S0
G1 X-0.06S572
G1 X-0.06S574.4
G1 X-0.66S574
G1 X-0.06S574.4
G1 X-0.06S574
G1 X-0.12S574.4
G1 X-0.06S574
G1 X-0.06S572.4
G1 X-0.24S0
G1 X-0.06S573.2
G1 X-0.06S574.4
G1 X-0.12S574
G1 X-0.06S571.3
G1 X-4.38S0
G1 X-0.36S571.3
G1 X-2.581S0
G1 X-0.12S543.3
G1 X-0.06S543.7
G1 X-2.34S543.3
G1 X-0.78S0
G1 X-0.18S543.7
G1 X-2.34S543.3
G1 X-0.42S0
G1 X-0.96S543.3
G1 X-1.667S0
G1 X-0.06Y0.06S0
G1 X1.667S0
G1 X1.02S543.3
G1 X0.36S0
G1 X2.58S543.3
G1 X0.78S0
G1 X2.58S543.3
G1 X2.521S0
G1 X0.36S571.3
G1 X4.32S0
G1 X0.06S571.3
G1 X0.06S574.4
G1 X0.12S574
G1 X0.06S572.4
G1 X0.18S0
G1 X0.06S566.9
G1 X0.06S572.4
G1 X0.06S574.4
G1 X0.06S574
G1 X0.06S574.4
G1 X0.06S574
G1 X0.06S574.4
G1 X0.72S574
G1 X0.12S574.4
G1 X0.06S572.8
G1 X0.18S0
G1 X0.06S566.9
G1 X0.06S572.8
G1 X0.06S574
G1 X0.06S574.4
G1 X0.06S572.8
G1 X0.06S567.3
G1 X2.52S0
G1 X0.12S573.6
G1 X1.02S574
G1 X0.06S572
G1 X0.661S0
G1 X0.06S574
G1 X0.06S574.4
G1 X3.06S574
G1 X0.12S574.4
G1 X0.72S0
G1 X0.06S572
G1 X0.06S574.4
G1 X3.12S574
G1 X0.06S574.4
G1 X0.06S568.1
G1 X0.66S0
G1 X0.12S574
G1 X0.06S574.4
G1 X3.12S574
G1 X0.06S569.7
G1 X1.667S0
G1 Y0.06S0
G1 X-1.667S0
G1 X-0.06S569.7
G1 X-0.12S574
G1 X-1.92S574.4
G1 X-0.18S574
G1 X-0.06S574.4
G1 X-0.84S574
G1 X-0.06S574.4
G1 X-0.12S574
G1 X-0.66S0
G1 X-0.06S568.1
G1 X-0.06S574.4
G1 X-0.06S574
G1 X-1.92S574.4
G1 X-1.14S574
G1 X-0.06S574.4
G1 X-0.06S572
G1 X-0.72S0
G1 X-2.04S574.4
G1 X-0.06S574
G1 X-0.06S574.4
G1 X-0.06S574
G1 X-0.06S574.4
G1 X-0.9S574
G1 X-0.06S574.4
G1 X-0.06S574
G1 X-0.661S0
G1 X-0.06S572
G1 X-1.02S574
G1 X-0.12S573.6
G1 X-2.46S0
G1 X-0.06S566.9
G1 X-0.06S573.6
G1 X-0.12S574
G1 X-0.06S572.8
G1 X-0.18S0
G1 X-0.06S568.5
G1 X-0.06S573.2
G1 X-0.06S574.4
G1 X-0.42S574
G1 X-0.18S574.4
G1 X-0.36S574
G1 X-0.06S574.4
G1 X-0.18S574
G1 X-0.06S572.8
G1 X-0.06S569.3
G1 X-0.18S0
G1 X-0.06S572
G1 X-0.18S574
G1 X-0.06S571.7
G1 X-4.26S0
G1 X-0.36S571.3
G1 X-2.461S0
G1 X-2.7S543.3
G1 X-0.66S0
G1 X-2.7S543.3
G1 X-0.3S0
G1 X-1.08S543.3
G1 X-1.667S0
G1 Y0.06S0
G1 X1.667S0
G1 X1.08S543.3
G1 X0.24S0
G1 X2.76S543.3
G1 X0.06S543.7
G1 X0.54S0
G1 X2.64S543.3
G1 X0.06S543.7
G1 X0.12S543.3
G1 X2.401S0
G1 X0.36S571.3
G1 X4.2S0
G1 X0.06S571.3
G1 X0.18S573.6
G1 X0.06S571.3
G1 X0.18S0
G1 X0.06S570.5
G1 X0.06S572.8
G1 X0.24S574
G1 X0.06S574.4
G1 X0.18S574
G1 X0.06S572.4
G1 X0.06S572
G1 X0.06S571.7
G1 X0.18S572
G1 X0.06S573.2
G1 X0.48S574
G1 X0.06S572.8
G1 X0.06S569.7
G1 X0.18S0
G1 X0.06S572.4
G1 X0.06S573.6
G1 X0.06S574.4
G1 X0.06S572.8
G1 X0.06S568.1
G1 X2.4S0
G1 X0.12S573.6
G1 X1.02S574
G1 X0.06S572
G1 X0.661S0
G1 X0.06S574
G1 X0.06S574.4
G1 X0.9S574
G1 X0.12S574.4
G1 X0.06S574
G1 X0.06S574.4
G1 X0.06S574
G1 X1.86S573.6
G1 X0.06S574
G1 X0.06S573.6
G1 X0.72S0
G1 X0.06S572
G1 X0.06S574.4
G1 X1.14S574
G1 X1.98S573.6
G1 X0.06S574.4
G1 X0.06S568.1
G1 X0.66S0
G1 X0.12S574
G1 X0.06S574.4
G1 X1.08S574
G1 X1.92S573.6
G1 X0.06S574
G1 X0.06S573.6
G1 X0.06S569.3
G1 X1.667S0
G1 X-2.1Y0.06S0
G1 X-1.667S0
G1 X-0.06S561.4
G1 X-0.06S573.2
G1 X-0.06S574
G1 X-0.06S574.4
G1 X-0.84S574
G1 X-0.06S574.4
G1 X-0.12S574
G1 X-2.76S0
G1 X-0.06S562.2
G1 X-0.06S572.4
G1 X-1.02S574
G1 X-0.06S574.4
G1 X-0.06S572
G1 X-2.76S0
G1 X-0.06S563.8
G1 X-0.06S571.7
G1 X-1.02S574
G1 X-0.06S574.4
G1 X-0.06S574
G1 X-0.661S0
G1 X-0.06S572
G1 X-1.02S574
G1 X-0.12S573.6
G1 X-2.34S0
G1 X-0.06S568.1
G1 X-0.06S572.8
G1 X-0.06S574.4
G1 X-0.06S574
G1 X-0.06S571.3
G1 X-0.18S0
G1 X-0.06S570.1
G1 X-0.06S573.6
G1 X-0.06S574
G1 X-0.06S574.4
G1 X-0.06S574
G1 X-0.12S574.4
G1 X-0.18S574
G1 X-0.06S573.6
G1 X-0.06S568.9
G1 X-0.36S0
G1 X-0.06S571.7
G1 X-0.12S574.4
G1 X-0.12S574
G1 X-0.18S574.4
G1 X-0.06S574
G1 X-0.06S573.2
G1 X-0.06S569.7
G1 X-0.18S0
G1 X-0.06S570.9
G1 X-0.18S574
G1 X-0.06S570.9
G1 X-4.14S0
G1 X-0.36S571.3
G1 X-2.401S0
G1 X-0.06S543.3
G1 X-0.06S543.7
G1 X-2.64S543.3
G1 X-0.06S543.7
G1 X-0.06S542.9
G1 X-0.42S0
G1 X-0.18S543.3
G1 X-0.06S543.7
G1 X-2.64S543.3
G1 X-0.24S0
G1 X-1.14S543.3
G1 X-1.667S0
G1 X-0.06Y0.06S0
G1 X1.667S0
G1 X0.06S543.7
G1 X1.14S543.3
G1 X0.18S0
G1 X2.94S543.3
G1 X0.42S0
G1 X2.94S543.3
G1 X2.341S0
G1 X0.36S571.3
G1 X4.08S0
G1 X0.06S570.5
G1 X0.06S574
G1 X0.12S574.4
G1 X0.06S570.5
G1 X0.18S0
G1 X0.06S570.5
G1 X0.54S574
G1 X0.06S574.4
G1 X0.06S572
G1 X0.36S0
G1 X0.06S569.7
G1 X0.06S573.6
G1 X0.3S574
G1 X0.06S574.4
G1 X0.06S574
G1 X0.06S574.4
G1 X0.12S574
G1 X0.06S570.1
G1 X0.18S0
G1 X0.06S572.4
G1 X0.12S574
G1 X0.06S572.4
G1 X0.06S565.7
G1 X2.28S0
G1 X0.12S573.6
G1 X1.02S574
G1 X0.06S572.4
G1 X0.661S0
G1 X0.06S574
G1 X0.06S574.4
G1 X0.9S574
G1 X0.06S574.4
G1 X0.06S574
G1 X0.06S572
G1 X2.82S0
G1 X0.06S572
G1 X0.06S574.4
G1 X1.02S574
G1 X0.06S573.2
G1 X2.82S0
G1 X0.12S574
G1 X0.06S574.4
G1 X0.84S574
G1 X0.12S574.4
G1 X0.06S572
G1 X1.667S0
G1 Y0.06S0
G1 X-1.667S0
G1 X-0.06S572
G1 X-0.06S574
G1 X-0.06S574.4
G1 X-0.84S574
G1 X-0.06S574.4
G1 X-0.12S574
G1 X-2.82S0
G1 X-0.06S572.4
G1 X-1.02S574
G1 X-0.06S574.4
G1 X-0.06S572
G1 X-2.82S0
G1 X-0.06S571.7
G1 X-0.06S574.4
G1 X-0.96S574
G1 X-0.06S574.4
G1 X-0.06S574
G1 X-0.661S0
G1 X-0.06S572.4
G1 X-1.02S574
G1 X-0.12S573.6
G1 X-2.22S0
G1 X-0.06S564.2
G1 X-0.06S573.2
G1 X-0.12S574
G1 X-0.06S571.7
G1 X-0.18S0
G1 X-0.06S571.3
G1 X-0.06S573.6
G1 X-0.06S574.4
G1 X-0.12S574
G1 X-0.06S574.4
G1 X-0.3S574
G1 X-0.06S574.4
G1 X-0.06S573.6
G1 X-0.06S570.5
G1 X-0.36S0
G1 X-0.06S572.8
G1 X-0.54S574
G1 X-0.06S574.4
G1 X-0.06S574
G1 X-0.06S570.5
G1 X-0.18S0
G1 X-0.06S570.1
G1 X-0.18S574
G1 X-0.06S571.3
G1 X-4.02S0
G1 X-0.36S571.3
G1 X-2.341S0
G1 X-3S543.3
G1 X-0.3S0
G1 X-3.06S543.3
G1 X-0.12S0
G1 X-1.2S543.3
G1 X-1.667S0
G1 X-0.06Y0.06S0
G1 X1.667S0
G1 X1.26S543.3
G1 X0.12S0
G1 X3.06S543.3
G1 X0.3S0
G1 X1.5S543.3
G1 X0.06S0
G1 X1.5S543.3
G1 X2.281S0
G1 X0.36S571.3
G1 X3.96S0
G1 X0.06S571.7
G1 X0.12S574
G1 X0.06S573.2
G1 X0.06S570.5
G1 X0.18S0
G1 X0.06S570.9
G1 X0.06S573.6
G1 X0.6S574
G1 X0.06S574.4
G1 X0.06S573.6
G1 X0.36S0
G1 X0.06S571.3
G1 X0.48S574
G1 X0.06S574.4
G1 X0.18S574
G1 X0.06S573.6
G1 X0.06S570.5
G1 X0.18S0
G1 X0.06S571.7
G1 X0.12S574
G1 X0.06S573.2
G1 X0.06S568.9
G1 X2.16S0
G1 X0.12S573.6
G1 X1.02S574
G1 X0.06S572.4
G1 X0.661S0
G1 X0.06S574
G1 X0.06S574.4
G1 X0.9S574
G1 X0.06S574.4
G1 X0.06S574
G1 X0.06S571.7
G1 X2.82S0
G1 X0.06S572
G1 X0.06S574.4
G1 X1.02S574
G1 X0.06S572.4
G1 X2.82S0
G1 X0.12S574
G1 X0.06S574.4
G1 X0.84S574
G1 X0.06S574.4
G1 X0.06S574
G1 X0.06S572
G1 X1.667S0
G1 Y0.06S0
G1 X-1.667S0
G1 X-0.06S572
G1 X-0.96S574
G1 X-0.06S574.4
G1 X-0.12S574
G1 X-2.82S0
G1 X-0.06S572.4
G1 X-1.02S574
G1 X-0.06S574.4
G1 X-0.06S572
G1 X-2.82S0
G1 X-0.06S571.7
G1 X-1.02S574
G1 X-0.06S574.4
G1 X-0.06S574
G1 X-0.661S0
G1 X-0.06S572.4
G1 X-1.02S574
G1 X-0.12S573.6
G1 X-2.1S0
G1 X-0.06S569.7
G1 X-0.06S573.6
G1 X-0.06S574
G1 X-0.06S573.6
G1 X-0.06S571.3
G1 X-0.18S0
G1 X-0.06S570.9
G1 X-0.06S573.6
G1 X-0.78S574
G1 X-0.06S570.5
G1 X-0.36S0
G1 X-0.06S574
G1 X-0.06S573.6
G1 X-0.06S574
G1 X-0.06S574.4
G1 X-0.36S574
G1 X-0.06S574.4
G1 X-0.18S574
G1 X-0.06S571.7
G1 X-0.18S0
G1 X-0.06S570.1
G1 X-0.06S573.2
G1 X-0.06S574
G1 X-0.06S573.6
G1 X-0.06S571.3
G1 X-3.9S0
G1 X-0.36S571.3
G1 X-2.281S0
G1 X-1.32S543.3
G1 X-0.42S0
G1 X-1.38S543.3
G1 X-0.18S0
G1 X-3.12S543.3
G1 X-0.06S543.7
G1 X-0.06S0
G1 X-1.26S543.3
G1 X-1.667S0
G1 Y0.06S0
G1 X1.667S0
G1 X1.26S543.3
G1 X0.06S0
G1 X3.18S543.3
G1 X0.18S0
G1 X1.2S543.3
G1 X0.06S543.7
G1 X0.6S0
G1 X1.32S543.3
G1 X2.221S0
G1 X0.36S571.3
G1 X3.84S0
G1 X0.06S571.3
G1 X0.06S574
G1 X0.06S574.4
G1 X0.06S574
G1 X0.06S569.3
G1 X0.18S0
G1 X0.06S572.4
G1 X0.18S574
G1 X0.06S574.4
G1 X0.42S574
G1 X0.06S574.4
G1 X0.12S574
G1 X0.06S574.4
G1 X0.36S0
G1 X0.06S569.7
G1 X0.06S574
G1 X0.06S574.4
G1 X0.78S574
G1 X0.06S570.5
G1 X0.18S0
G1 X0.06S571.7
G1 X0.12S574.4
G1 X0.06S573.6
G1 X0.06S568.1
G1 X2.04S0
G1 X0.12S573.6
G1 X1.02S574
G1 X0.06S572.4
G1 X0.661S0
G1 X0.06S574
G1 X0.06S574.4
G1 X1.02S574
G1 X0.06S571.7
G1 X2.82S0
G1 X0.06S572
G1 X0.06S574.4
G1 X1.02S574
G1 X0.06S572.4
G1 X2.82S0
G1 X0.12S574
G1 X0.06S574.4
G1 X0.96S574
G1 X0.06S572
G1 X1.667S0
G1 Y0.06S0
G1 X-1.667S0
G1 X-0.06S572
G1 X-0.96S574
G1 X-0.06S574.4
G1 X-0.12S574
G1 X-2.82S0
G1 X-0.06S572.4
G1 X-1.02S574
G1 X-0.06S574.4
G1 X-0.06S572
G1 X-2.82S0
G1 X-0.06S571.7
G1 X-1.02S574
G1 X-0.06S574.4
G1 X-0.06S574
G1 X-0.661S0
G1 X-0.06S572.4
G1 X-1.02S574
G1 X-0.12S573.6
G1 X-1.98S0
G1 X-0.06S566.5
G1 X-0.18S574
G1 X-0.06S572.8
G1 X-0.18S0
G1 X-0.06S572
G1 X-0.9S574
G1 X-0.06S574.4
G1 X-0.06S570.1
G1 X-0.36S0
G1 X-0.18S574.4
G1 X-0.72S574
G1 X-0.06S574.4
G1 X-0.06S572
G1 X-0.18S0
G1 X-0.06S568.1
G1 X-0.18S574
G1 X-0.06S572.8
G1 X-3.78S0
G1 X-0.36S571.3
G1 X-2.221S0
G1 X-1.14S543.3
G1 X-0.06S543.7
G1 X-0.06S543.3
G1 X-0.72S0
G1 X-1.14S543.3
G1 X-0.12S543.7
G1 X-0.12S0
G1 X-4.44S543.3
G1 X-0.06S543.7
G1 X-1.667S0
G1 Y0.06S0
G1 X1.667S0
G1 X4.56S543.3
G1 X0.06S0
G1 X1.2S543.3
G1 X0.84S0
G1 X1.2S543.3
G1 X2.221S0
G1 X0.36S571.3
G1 X3.72S0
G1 X0.06S572.8
G1 X0.12S574
G1 X0.06S573.2
G1 X0.06S570.9
G1 X0.18S0
G1 X0.06S571.3
G1 X0.84S574
G1 X0.06S574.4
G1 X0.12S574
G1 X0.36S0
G1 X0.06S570.5
G1 X1.02S574
G1 X0.06S570.5
G1 X0.18S0
G1 X0.06S572
G1 X0.06S574.4
G1 X0.06S573.6
G1 X0.06S574
G1 X0.06S569.3
G1 X1.92S0
G1 X0.12S573.6
G1 X1.02S574
G1 X0.06S572.4
G1 X0.661S0
G1 X0.06S574
G1 X0.06S574.4
G1 X1.02S574
G1 X0.06S571.7
G1 X2.82S0
G1 X0.06S572
G1 X0.06S574.4
G1 X1.02S574
G1 X0.06S572.4
G1 X2.82S0
G1 X0.12S574
G1 X0.06S574.4
G1 X0.96S574
G1 X0.06S572
G1 X1.667S0
G1 Y0.06S0
G1 X-1.667S0
G1 X-0.06S572
G1 X-0.96S574
G1 X-0.06S574.4
G1 X-0.12S574
G1 X-2.82S0
G1 X-0.06S572.4
G1 X-1.02S574
G1 X-0.06S574.4
G1 X-0.06S572
G1 X-2.82S0
G1 X-0.06S571.7
G1 X-1.02S574
G1 X-0.06S574.4
G1 X-0.06S574
G1 X-0.661S0
G1 X-0.06S572.4
G1 X-1.02S574
G1 X-0.12S573.6
G1 X-1.86S0
G1 X-0.06S570.5
G1 X-0.06S573.6
G1 X-0.12S574
G1 X-0.06S572
G1 X-0.18S0
G1 X-0.06S570.5
G1 X-0.06S573.6
G1 X-0.06S574.4
G1 X-0.96S574
G1 X-0.06S571.3
G1 X-0.36S0
G1 X-0.06S573.6
G1 X-1.02S574
G1 X-0.06S572
G1 X-0.18S0
G1 X-0.06S570.5
G1 X-0.06S573.6
G1 X-0.12S574
G1 X-0.06S572.8
G1 X-0.06S568.9
G1 X-3.6S0
G1 X-0.36S571.3
G1 X-2.161S0
G1 X-1.2S543.3
G1 X-0.9S0
G1 X-1.2S543.3
G1 X-0.06S0
G1 X-1.44S543.3
G1 X-0.48S0
G1 X-1.26S543.3
G1 X-0.06S543.7
G1 X-1.32S543.3
G1 X-1.667S0
G1 Y0.06S0
G1 X1.667S0
G1 X2.58S543.3
G1 X0.6S0
G1 X2.64S543.3
G1 X0.9S0
G1 X1.2S543.3
G1 X2.161S0
G1 X0.36S571.3
G1 X3.54S0
G1 X0.06S569.7
G1 X0.06S573.2
G1 X0.18S574
G1 X0.06S570.9
G1 X0.18S0
G1 X0.06S570.5
G1 X0.18S574
G1 X0.06S574.4
G1 X0.9S574
G1 X0.36S0
G1 X0.06S571.7
G1 X1.08S574
G1 X0.06S573.6
G1 X0.06S569.7
G1 X0.18S0
G1 X0.06S572.8
G1 X0.18S574
G1 X0.06S571.3
G1 X1.8S0
G1 X0.12S573.6
G1 X1.02S574
G1 X0.06S572.4
G1 X0.661S0
G1 X0.06S574
G1 X0.06S574.4
G1 X1.02S574
G1 X0.06S571.7
G1 X2.82S0
G1 X0.06S572
G1 X0.06S574.4
G1 X1.02S574
G1 X0.06S572.4
G1 X2.82S0
G1 X0.12S574
G1 X0.06S574.4
G1 X0.96S574
G1 X0.06S572
G1 X1.667S0
G1 Y0.06S0
G1 X-1.667S0
G1 X-0.06S572
G1 X-0.96S574
G1 X-0.06S574.4
G1 X-0.12S574
G1 X-2.82S0
G1 X-0.06S572.4
G1 X-1.02S574
G1 X-0.06S574.4
G1 X-0.06S572
G1 X-2.82S0
G1 X-0.06S571.7
G1 X-1.02S574
G1 X-0.06S574.4
G1 X-0.06S574
G1 X-0.661S0
G1 X-0.06S572
G1 X-1.02S574
G1 X-0.12S573.6
G1 X-1.74S0
G1 X-0.06S572.4
G1 X-0.18S574
G1 X-0.06S574.4
G1 X-0.18S0
G1 X-0.06S570.9
G1 X-1.08S574
G1 X-0.06S574.4
G1 X-0.06S574
G1 X-0.06S571.7
G1 X-0.36S0
G1 X-1.08S574
G1 X-0.06S574.4
G1 X-0.06S574
G1 X-0.06S571.3
G1 X-0.18S0
G1 X-0.06S570.9
G1 X-0.18S574.4
G1 X-0.06S574
G1 X-0.06S570.1
G1 X-3.48S0
G1 X-0.36S571.3
G1 X-2.161S0
G1 X-1.08S543.3
G1 X-0.06S543.7
G1 X-1.02S0
G1 X-0.12S543.3
G1 X-0.9S542.9
G1 X-0.12S543.3
G1 X-0.06S543.7
G1 X-1.14S543.3
G1 X-0.06S543.7
G1 X-0.12S543.3
G1 X-0.72S0
G1 X-0.06S543.3
G1 X-0.06S543.7
G1 X-2.4S543.3
G1 X-1.667S0
G1 Y0.06S0
G1 X1.667S0
G1 X0.06S543.7
G1 X1.2S543.3
G1 X0.06S543.7
G1 X1.02S543.3
G1 X0.12S543.7
G1 X0.84S0
G1 X0.18S543.3
G1 X0.9S543.7
G1 X0.24S543.3
G1 X2.16S0
G1 X0.06S543.3
G1 X0.06S543.7
G1 X1.02S543.3
G1 X2.161S0
G1 X0.36S571.3
G1 X3.42S0
G1 X0.06S571.7
G1 X0.06S574.4
G1 X0.06S574
G1 X0.06S574.4
G1 X0.06S574
G1 X0.06S572
G1 X0.18S0
G1 X0.06S569.7
G1 X0.06S574
G1 X0.06S574.4
G1 X1.08S574
G1 X0.06S573.6
G1 X0.36S0
G1 X0.06S572
G1 X0.06S574
G1 X0.06S574.4
G1 X1.08S574
G1 X0.06S574.4
G1 X0.06S570.5
G1 X0.12S0
G1 X0.06S568.5
G1 X0.06S573.6
G1 X0.06S574.4
G1 X0.12S574
G1 X0.06S572.8
G1 X0.06S565
G1 X1.62S0
G1 X0.12S573.6
G1 X1.02S574
G1 X0.06S572
G1 X0.661S0
G1 X0.06S574
G1 X0.06S574.4
G1 X1.02S574
G1 X0.06S571.7
G1 X2.82S0
G1 X0.06S572
G1 X0.06S574.4
G1 X1.02S574
G1 X0.06S572.4
G1 X2.82S0
G1 X0.12S574
G1 X0.06S574.4
G1 X0.96S574
G1 X0.06S572
G1 X1.667S0
G1 Y0.06S0
G1 X-1.667S0
G1 X-0.06S572
G1 X-0.06S574
G1 X-0.06S574.4
G1 X-0.84S574
G1 X-0.06S574.4
G1 X-0.12S574
G1 X-2.82S0
G1 X-0.06S572.8
G1 X-1.02S574
G1 X-0.06S574.4
G1 X-0.06S572
G1 X-2.82S0
G1 X-0.06S571.7
G1 X-1.02S574
G1 X-0.06S574.4
G1 X-0.06S574
G1 X-0.661S0
G1 X-0.06S572
G1 X-1.02S574
G1 X-0.12S573.6
G1 X-1.56S0
G1 X-0.06S568.9
G1 X-0.06S573.2
G1 X-0.24S574
G1 X-0.06S569.3
G1 X-0.12S0
G1 X-0.06S569.3
G1 X-0.06S573.6
G1 X-1.26S574
G1 X-0.06S571.7
G1 X-0.36S0
G1 X-0.06S573.6
G1 X-1.2S574
G1 X-0.06S573.6
G1 X-0.06S570.1
G1 X-0.18S0
G1 X-0.06S572
G1 X-0.12S574.4
G1 X-0.12S574
G1 X-0.06S571.7
G1 X-3.36S0
G1 X-0.36S571.3
G1 X-2.161S0
G1 X-2.22S543.3
G1 X-0.96S543.7
G1 X-0.06S543.3
G1 X-0.06S543.7
G1 X-0.06S543.3
G1 X-1.62S0
G1 X-0.18S543.3
G1 X-0.3S0
G1 X-0.06S543.3
G1 X-0.06S543.7
G1 X-2.34S543.3
G1 X-1.667S0
G1 Y0.06S0
G1 X1.667S0
G1 X2.4S543.3
G1 X0.36S0
G1 X0.3S543.3
G1 X1.5S0
G1 X2.22S543.3
G1 X0.06S543.7
G1 X1.14S543.3
G1 X2.101S0
G1 X0.36S571.3
G1 X3.24S0
G1 X0.06S565.7
G1 X0.06S571.7
G1 X0.12S574
G1 X0.12S574.4
G1 X0.06S573.2
G1 X0.18S0
G1 X0.06S569.3
G1 X0.06S573.2
G1 X1.14S574
G1 X0.12S574.4
G1 X0.06S573.6
G1 X0.36S0
G1 X0.06S571.7
G1 X0.06S574.4
G1 X1.02S574
G1 X0.12S574.4
G1 X0.12S574
G1 X0.06S572.8
G1 X0.18S0
G1 X0.06S571.3
G1 X0.24S574
G1 X0.06S573.6
G1 X0.06S569.3
G1 X1.5S0
G1 X0.12S573.6
G1 X1.02S574
G1 X0.06S572
G1 X0.661S0
G1 X0.06S574
G1 X0.06S574.4
G1 X1.02S574
G1 X0.06S572
G1 X2.82S0
G1 X0.06S572
G1 X0.06S574.4
G1 X1.02S574
G1 X0.06S572.4
G1 X2.82S0
G1 X0.12S574
G1 X0.06S574.4
G1 X0.96S574
G1 X0.06S572
G1 X1.667S0
G1 Y0.06S0
G1 X-1.667S0
G1 X-0.06S572
G1 X-0.96S574
G1 X-0.06S574.4
G1 X-0.12S574
G1 X-2.82S0
G1 X-0.06S573.2
G1 X-1.02S574
G1 X-0.06S574.4
G1 X-0.06S572
G1 X-2.82S0
G1 X-0.06S571.7
G1 X-0.06S574.4
G1 X-0.96S574
G1 X-0.06S574.4
G1 X-0.06S574
G1 X-0.661S0
G1 X-0.06S572
G1 X-1.02S574
G1 X-0.12S573.6
G1 X-1.44S0
G1 X-0.06S571.7
G1 X-0.24S574
G1 X-0.06S573.6
G1 X-0.06S570.9
G1 X-0.18S0
G1 X-0.06S572
G1 X-0.12S574
G1 X-0.18S574.4
G1 X-0.66S574
G1 X-0.06S574.4
G1 X-0.3S574
G1 X-0.06S574.4
G1 X-0.06S572.4
G1 X-0.36S0
G1 X-0.06S573.6
G1 X-0.12S574.4
G1 X-0.12S574
G1 X-0.12S574.4
G1 X-0.78S574
G1 X-0.06S574.4
G1 X-0.12S574
G1 X-0.06S573.2
G1 X-0.06S567.7
G1 X-0.12S0
G1 X-0.06S568.9
G1 X-0.06S573.6
G1 X-0.06S574
G1 X-0.06S574.4
G1 X-0.12S574
G1 X-0.06S572.4
G1 X-0.06S569.7
G1 X-3.18S0
G1 X-0.36S571.3
G1 X-2.101S0
G1 X-0.12S543.3
G1 X-0.06S543.7
G1 X-3.24S543.3
G1 X-1.38S0
G1 X-0.06S543.7
G1 X-0.42S543.3
G1 X-0.3S0
G1 X-2.28S543.3
G1 X-0.06S543.7
G1 X-0.06S543.3
G1 X-1.667S0
G1 Y0.06S0
G1 X1.667S0
G1 X0.06S543.3
G1 X0.06S543.7
G1 X2.22S543.3
G1 X0.3S0
G1 X0.66S543.3
G1 X1.26S0
G1 X3.42S543.3
G1 X2.101S0
G1 X0.36S571.3
G1 X3.12S0
G1 X0.06S571.3
G1 X0.06S574.4
G1 X0.06S573.6
G1 X0.12S574
G1 X0.06S574.8
G1 X0.06S574
G1 X0.06S570.5
G1 X0.18S0
G1 X0.06S573.2
G1 X0.06S574
G1 X0.06S574.4
G1 X0.54S574
G1 X0.24S574.4
G1 X0.36S574
G1 X0.12S574.4
G1 X0.06S573.6
G1 X0.06S568.5
G1 X0.06S562.2
G1 X0.12S563.4
G1 X0.06S561.4
G1 X0.06S567.7
G1 X0.06S573.6
G1 X0.24S574
G1 X0.06S574.4
G1 X0.12S574
G1 X0.06S574.4
G1 X0.78S574
G1 X0.06S574.4
G1 X0.12S574
G1 X0.06S572.4
G1 X0.18S0
G1 X0.06S572.8
G1 X0.06S574.4
G1 X0.06S574
G1 X0.06S574.4
G1 X0.18S574
G1 X0.06S564.2
G1 X1.32S0
G1 X0.12S573.6
G1 X1.02S574
G1 X0.06S572
G1 X0.661S0
G1 X0.06S574
G1 X0.06S574.4
G1 X0.96S574
G1 X0.06S574.4
G1 X0.06S571.7
G1 X2.82S0
G1 X0.06S572
G1 X0.06S574.4
G1 X1.02S574
G1 X0.06S572.4
G1 X2.82S0
G1 X0.12S574
G1 X0.06S574.4
G1 X0.9S574
G1 X0.06S574.4
G1 X0.06S571.7
G1 X1.667S0
G1 X1.98Y0.06S0
G1 X-1.667S0
G1 X-0.06S565.7
G1 X-0.48S570.9
G1 X-0.06S570.5
G1 X-0.36S570.9
G1 X-0.06S570.5
G1 X-0.48S570.9
G1 X-0.24S570.5
G1 X-0.06S570.9
G1 X-0.12S570.5
G1 X-0.06S570.9
G1 X-0.06S573.6
G1 X-0.06S574
G1 X-0.06S574.4
G1 X-0.84S574
G1 X-0.06S574.4
G1 X-0.12S574
G1 X-0.84S0
G1 X-0.06S562.2
G1 X-0.06S570.1
G1 X-0.3S570.9
G1 X-0.18S570.5
G1 X-0.78S570.9
G1 X-0.6S570.5
G1 X-0.06S573.2
G1 X-1.02S574
G1 X-0.06S574.4
G1 X-0.06S572
G1 X-0.9S0
G1 X-0.06S569.7
G1 X-0.6S570.9
G1 X-0.66S570.5
G1 X-0.3S570.9
G1 X-0.24S570.5
G1 X-0.06S571.3
G1 X-0.06S573.2
G1 X-0.06S574.4
G1 X-0.96S574
G1 X-0.06S574.4
G1 X-0.06S574
G1 X-0.661S0
G1 X-0.06S572
G1 X-1.02S574
G1 X-0.12S573.6
G1 X-1.26S0
G1 X-0.06S568.9
G1 X-0.06S573.6
G1 X-0.18S574
G1 X-0.06S574.4
G1 X-0.06S574
G1 X-0.06S573.2
G1 X-0.06S566.9
G1 X-0.12S0
G1 X-0.06S570.1
G1 X-0.18S574
G1 X-0.06S574.4
G1 X-0.66S574
G1 X-0.06S574.4
G1 X-0.18S574
G1 X-0.06S573.6
G1 X-0.06S572.8
G1 X-0.06S571.7
G1 X-0.06S570.9
G1 X-0.06S569.7
G1 X-0.06S567.7
G1 X-0.06S566.9
G1 X-0.06S567.7
G1 X-0.3S0
G1 X-0.06S567.7
G1 X-0.06S566.9
G1 X-0.06S568.1
G1 X-0.06S570.1
G1 X-0.06S570.9
G1 X-0.06S572.4
G1 X-0.06S572.8
G1 X-0.06S573.6
G1 X-0.12S574
G1 X-0.06S574.4
G1 X-0.72S574
G1 X-0.06S574.4
G1 X-0.06S574
G1 X-0.06S572.8
G1 X-0.18S0
G1 X-0.06S571.7
G1 X-0.12S574
G1 X-0.12S574.4
G1 X-0.06S574
G1 X-0.06S574.4
G1 X-0.06S572
G1 X-3.06S0
G1 X-0.36S571.3
G1 X-2.101S0
G1 X-3.42S543.3
G1 X-1.2S0
G1 X-0.72S543.3
G1 X-0.3S0
G1 X-2.22S543.3
G1 X-0.06S543.7
G1 X-0.06S543.3
G1 X-1.667S0
G1 Y0.06S0
G1 X1.667S0
G1 X0.06S543.3
G1 X0.06S543.7
G1 X2.22S543.3
G1 X0.24S0
G1 X0.9S543.3
G1 X1.08S0
G1 X3.42S543.3
G1 X2.101S0
G1 X0.36S571.3
G1 X2.94S0
G1 X0.06S566.5
G1 X0.06S572.4
G1 X0.06S574
G1 X0.06S574.4
G1 X0.06S574
G1 X0.12S574.4
G1 X0.06S574
G1 X0.06S572.8
G1 X0.18S0
G1 X0.06S571.7
G1 X0.06S574.4
G1 X0.42S574
G1 X0.06S574.4
G1 X0.06S574
G1 X0.06S574.4
G1 X0.18S574
G1 X0.06S573.2
G1 X0.06S572.8
G1 X0.06S572.4
G1 X0.06S570.1
G1 X0.06S567.7
G1 X1.2S0
G1 X0.06S568.9
G1 X0.06S571.7
G1 X0.06S572.4
G1 X0.06S573.2
G1 X0.24S574
G1 X0.06S574.4
G1 X0.06S574
G1 X0.06S574.4
G1 X0.24S574
G1 X0.06S574.4
G1 X0.18S574
G1 X0.06S573.6
G1 X0.06S569.3
G1 X0.12S0
G1 X0.06S568.1
G1 X0.06S573.6
G1 X0.06S574
G1 X0.12S574.4
G1 X0.06S574
G1 X0.06S574.4
G1 X0.06S574
G1 X0.06S570.5
G1 X1.2S0
G1 X0.12S573.6
G1 X1.02S574
G1 X0.06S572
G1 X0.661S0
G1 X0.06S574
G1 X0.06S574.4
G1 X0.9S574
G1 X0.06S574.4
G1 X1.98S574
G1 X0.06S573.2
G1 X0.06S570.1
G1 X0.84S0
G1 X0.06S572
G1 X0.06S574.4
G1 X2.94S574
G1 X0.06S573.6
G1 X0.06S565.7
G1 X0.84S0
G1 X0.12S574
G1 X0.06S574.4
G1 X0.9S574
G1 X0.06S574.4
G1 X1.92S574
G1 X0.06S574.4
G1 X0.06S569.3
G1 X1.667S0
G1 Y0.06S0
G1 X-1.667S0
G1 X-0.06S569.3
G1 X-0.12S574.4
G1 X-2.82S574
G1 X-0.06S574.4
G1 X-0.12S574
G1 X-0.84S0
G1 X-0.06S566.1
G1 X-0.06S573.6
G1 X-2.94S574
G1 X-0.06S574.4
G1 X-0.06S572
G1 X-0.84S0
G1 X-0.06S569.7
G1 X-0.06S573.2
G1 X-2.94S574
G1 X-0.06S574.4
G1 X-0.06S574
G1 X-0.661S0
G1 X-0.06S572
G1 X-1.02S574
G1 X-0.12S573.6
G1 X-1.08S0
G1 X-0.06S568.9
G1 X-0.06S571.7
G1 X-0.18S574
G1 X-0.24S574.4
G1 X-0.06S571.3
G1 X-0.12S0
G1 X-0.06S568.1
G1 X-0.06S573.2
G1 X-0.12S574.4
G1 X-0.54S574
G1 X-0.12S574.4
G1 X-0.06S574
G1 X-0.06S572
G1 X-0.06S569.7
G1 X-0.6S0
G1 X-0.12S568.9
G1 X-0.24S568.1
G1 X-0.72S0
G1 X-0.06S569.7
G1 X-0.06S570.1
G1 X-0.06S572.4
G1 X-0.72S574
G1 X-0.06S573.6
G1 X-0.06S569.7
G1 X-0.12S0
G1 X-0.06S567.7
G1 X-0.06S573.2
G1 X-0.18S574
G1 X-0.12S574.4
G1 X-0.06S574
G1 X-0.06S573.2
G1 X-0.06S570.1
G1 X-2.88S0
G1 X-0.36S571.3
G1 X-2.101S0
G1 X-3.42S543.3
G1 X-0.96S0
G1 X-0.9S543.3
G1 X-0.06S543.7
G1 X-0.06S543.3
G1 X-0.24S0
G1 X-2.22S543.3
G1 X-0.06S543.7
G1 X-0.06S543.3
G1 X-1.667S0
G1 Y0.06S0
G1 X1.667S0
G1 X0.06S543.3
G1 X0.06S543.7
G1 X2.28S543.3
G1 X0.18S0
G1 X1.02S543.3
G1 X0.06S543.7
G1 X0.06S543.3
G1 X0.84S0
G1 X1.2S543.3
G1 X4.321S0
G1 X0.36S571.3
G1 X2.76S0
G1 X0.06S565.7
G1 X0.06S572.4
G1 X0.06S574
G1 X0.06S574.4
G1 X0.18S574
G1 X0.06S574.4
G1 X0.06S574
G1 X0.06S573.6
G1 X0.06S569.3
G1 X0.12S0
G1 X0.06S565.7
G1 X0.06S573.6
G1 X0.06S574.4
G1 X0.06S574
G1 X0.06S574.4
G1 X0.36S574
G1 X0.06S574.4
G1 X0.06S574
G1 X0.06S574.4
G1 X0.06S569.7
G1 X0.54S0
G1 X0.06S569.7
G1 X0.06S572
G1 X0.12S573.2
G1 X0.06S573.6
G1 X0.06S569.3
G1 X0.24S0
G1 X0.06S568.5
G1 X0.06S573.2
G1 X0.18S573.6
G1 X0.06S572.4
G1 X0.06S570.5
G1 X0.06S567.3
G1 X0.36S0
G1 X0.06S568.9
G1 X0.06S573.6
G1 X0.06S574
G1 X0.06S574.4
G1 X0.66S574
G1 X0.06S572
G1 X0.18S0
G1 X0.06S572.4
G1 X0.18S574.4
G1 X0.24S574
G1 X0.06S573.6
G1 X0.06S569.7
G1 X1.02S0
G1 X0.12S573.6
G1 X1.02S574
G1 X0.06S572
G1 X0.661S0
G1 X0.06S573.6
G1 X0.06S574.4
G1 X2.94S574
G1 X0.06S573.2
G1 X0.06S569.7
G1 X0.84S0
G1 X0.06S572
G1 X0.06S574.4
G1 X2.94S574
G1 X0.06S573.6
G1 X0.06S566.1
G1 X0.84S0
G1 X0.12S574
G1 X0.06S574.4
G1 X2.82S574
G1 X0.12S574.4
G1 X0.06S569.3
G1 X1.667S0
G1 Y0.06S0
G1 X-1.667S0
G1 X-0.06S569.3
G1 X-0.12S574.4
G1 X-2.82S574
G1 X-0.06S574.4
G1 X-0.12S574
G1 X-0.84S0
G1 X-0.06S566.1
G1 X-0.06S573.6
G1 X-2.94S574
G1 X-0.06S574.4
G1 X-0.06S572
G1 X-0.84S0
G1 X-0.06S569.7
G1 X-0.06S573.2
G1 X-2.94S574
G1 X-0.06S574.4
G1 X-0.06S574
G1 X-0.661S0
G1 X-0.06S572
G1 X-1.02S574
G1 X-0.12S573.6
G1 X-0.9S0
G1 X-0.06S566.1
G1 X-0.06S571.7
G1 X-0.12S574
G1 X-0.06S574.4
G1 X-0.12S574
G1 X-0.06S574.4
G1 X-0.06S574
G1 X-0.06S574.4
G1 X-0.06S574
G1 X-0.06S567.7
G1 X-0.12S0
G1 X-0.06S569.3
G1 X-0.78S574
G1 X-0.06S572.8
G1 X-0.06S567.7
G1 X-0.24S0
G1 X-0.06S567.7
G1 X-0.06S571.3
G1 X-0.06S573.2
G1 X-0.06S574
G1 X-0.06S574.4
G1 X-0.24S574
G1 X-0.06S573.6
G1 X-0.06S568.5
G1 X-0.24S0
G1 X-0.06S571.3
G1 X-0.06S573.2
G1 X-0.3S574
G1 X-0.06S572.4
G1 X-0.06S569.3
G1 X-0.48S0
G1 X-0.06S572
G1 X-0.54S574
G1 X-0.12S574.4
G1 X-0.06S573.2
G1 X-0.18S0
G1 X-0.06S572.4
G1 X-0.18S574
G1 X-0.06S574.4
G1 X-0.24S574
G1 X-0.06S573.6
G1 X-0.06S568.1
G1 X-2.7S0
G1 X-0.36S571.3
G1 X-4.321S0
G1 X-0.06S543.7
G1 X-0.06S543.3
G1 X-0.06S543.7
G1 X-1.02S543.3
G1 X-0.72S0
G1 X-1.08S543.3
G1 X-0.06S543.7
G1 X-0.3S0
G1 X-2.28S543.3
G1 X-0.06S543.7
G1 X-0.06S543.3
G1 X-1.667S0
G1 Y0.06S0
G1 X1.667S0
G1 X0.06S543.3
G1 X0.06S543.7
G1 X1.14S543.3
G1 X0.06S543.7
G1 X1.14S543.3
G1 X0.3S0
G1 X0.06S543.7
G1 X1.08S543.3
G1 X0.66S0
G1 X1.2S543.3
G1 X0.96S0
G1 X1.2S543.3
G1 X2.161S0
G1 X0.36S571.3
G1 X2.64S0
G1 X0.06S570.9
G1 X0.18S574
G1 X0.06S574.4
G1 X0.18S574
G1 X0.06S574.4
G1 X0.06S574.8
G1 X0.06S573.6
G1 X0.06S568.1
G1 X0.12S0
G1 X0.06S569.7
G1 X0.12S574
G1 X0.18S574.4
G1 X0.24S574
G1 X0.06S574.4
G1 X0.06S574
G1 X0.06S571.7
G1 X0.42S0
G1 X0.06S568.9
G1 X0.06S573.6
G1 X0.3S574
G1 X0.06S574.4
G1 X0.06S574
G1 X0.06S573.6
G1 X0.06S570.9
G1 X0.24S0
G1 X0.06S569.3
G1 X0.24S574
G1 X0.12S574.4
G1 X0.06S574
G1 X0.06S574.4
G1 X0.12S574
G1 X0.06S572.8
G1 X0.06S564.6
G1 X0.18S0
G1 X0.06S568.1
G1 X0.06S574
G1 X0.18S574.4
G1 X0.42S574
G1 X0.18S574.4
G1 X0.06S566.9
G1 X0.12S0
G1 X0.06S571.7
G1 X0.12S574
G1 X0.06S574.4
G1 X0.06S574
G1 X0.06S574.4
G1 X0.06S574
G1 X0.06S574.4
G1 X0.12S574
G1 X0.06S573.6
G1 X0.06S569.7
G1 X0.84S0
G1 X0.12S573.6
G1 X1.02S574
G1 X0.06S572
G1 X0.661S0
G1 X0.06S574
G1 X0.06S574.4
G1 X2.94S574
G1 X0.06S573.2
G1 X0.06S569.7
G1 X0.84S0
G1 X0.06S572
G1 X0.06S574.4
G1 X2.94S574
G1 X0.06S573.6
G1 X0.06S566.1
G1 X0.84S0
G1 X0.12S574
G1 X0.06S574.4
G1 X2.82S574
G1 X0.12S574.4
G1 X0.06S569.3
G1 X1.667S0
G1 Y0.06S0
G1 X-1.667S0
G1 X-0.06S569.3
G1 X-0.12S574.4
G1 X-2.82S574
G1 X-0.06S574.4
G1 X-0.12S574
G1 X-0.84S0
G1 X-0.06S566.1
G1 X-0.06S573.6
G1 X-2.94S574
G1 X-0.06S574.4
G1 X-0.06S572
G1 X-0.84S0
G1 X-0.06S569.7
G1 X-0.06S573.2
G1 X-2.94S574
G1 X-0.06S574.4
G1 X-0.06S574
G1 X-0.661S0
G1 X-0.06S572
G1 X-1.02S574
G1 X-0.12S573.6
G1 X-0.78S0
G1 X-0.06S569.3
G1 X-0.06S574.4
G1 X-0.06S574
G1 X-0.12S574.4
G1 X-0.06S574
G1 X-0.06S574.4
G1 X-0.3S574
G1 X-0.06S570.9
G1 X-0.12S0
G1 X-0.06S571.3
G1 X-0.78S574
G1 X-0.06S572
G1 X-0.18S0
G1 X-0.06S566.5
G1 X-0.06S573.2
G1 X-0.06S574.4
G1 X-0.18S574
G1 X-0.06S574.4
G1 X-0.24S574
G1 X-0.06S574.4
G1 X-0.06S574
G1 X-0.06S570.5
G1 X-0.24S0
G1 X-0.06S570.9
G1 X-0.06S573.6
G1 X-0.06S574.4
G1 X-0.06S574
G1 X-0.06S574.4
G1 X-0.06S574
G1 X-0.06S574.4
G1 X-0.24S574
G1 X-0.06S567.7
G1 X-0.42S0
G1 X-0.06S572.8
G1 X-0.06S574
G1 X-0.06S574.4
G1 X-0.48S574
G1 X-0.06S573.6
G1 X-0.18S0
G1 X-0.06S572.4
G1 X-0.12S574.4
G1 X-0.24S574
G1 X-0.12S574.4
G1 X-0.06S574
G1 X-0.06S573.6
G1 X-0.06S571.7
G1 X-2.58S0
G1 X-0.36S571.3
G1 X-2.161S0
G1 X-0.12S543.3
G1 X-0.96S543.7
G1 X-0.12S543.3
G1 X-0.96S0
G1 X-1.14S543.3
G1 X-0.6S0
G1 X-1.2S543.3
G1 X-0.3S0
G1 X-2.4S543.3
G1 X-0.06S543.7
G1 X-0.06S543.3
G1 X-1.667S0
G1 Y0.06S0
G1 X1.667S0
G1 X0.06S543.3
G1 X0.06S543.7
G1 X2.46S543.3
G1 X0.36S0
G1 X1.2S543.3
G1 X0.48S0
G1 X1.2S543.3
G1 X0.84S0
G1 X1.26S543.3
G1 X2.161S0
G1 X0.36S571.3
G1 X2.52S0
G1 X0.06S567.7
G1 X0.12S574
G1 X0.12S574.4
G1 X0.3S574
G1 X0.12S574.4
G1 X0.06S572
G1 X0.12S0
G1 X0.06S566.5
G1 X0.06S574.4
G1 X0.6S574
G1 X0.06S570.5
G1 X0.42S0
G1 X0.06S570.1
G1 X0.06S574
G1 X0.06S574.4
G1 X0.36S574
G1 X0.06S574.4
G1 X0.06S573.6
G1 X0.06S570.9
G1 X0.24S0
G1 X0.06S570.9
G1 X0.42S574
G1 X0.06S574.4
G1 X0.06S574
G1 X0.12S574.4
G1 X0.06S574
G1 X0.06S572.4
G1 X0.18S0
G1 X0.06S569.7
G1 X0.78S574
G1 X0.06S571.7
G1 X0.12S0
G1 X0.06S569.7
G1 X0.06S574
G1 X0.06S574.4
G1 X0.54S574
G1 X0.06S573.2
G1 X0.78S0
G1 X0.12S573.6
G1 X1.02S574
G1 X0.06S572
G1 X0.661S0
G1 X0.06S574
G1 X0.06S574.4
G1 X2.94S574
G1 X0.06S573.2
G1 X0.06S569.7
G1 X0.84S0
G1 X0.06S572
G1 X0.06S574.4
G1 X2.94S574
G1 X0.06S573.6
G1 X0.06S566.1
G1 X0.84S0
G1 X0.12S574
G1 X0.06S574.4
G1 X2.82S574
G1 X0.12S574.4
G1 X0.06S569.3
G1 X1.667S0
G1 Y0.06S0
G1 X-1.667S0
G1 X-0.06S569.3
G1 X-0.12S574.4
G1 X-2.82S574
G1 X-0.06S574.4
G1 X-0.12S574
G1 X-0.84S0
G1 X-0.06S566.1
G1 X-0.06S573.6
G1 X-2.94S574
G1 X-0.06S574.4
G1 X-0.06S572
G1 X-0.84S0
G1 X-0.06S569.7
G1 X-0.06S573.2
G1 X-2.94S574
G1 X-0.06S574.4
G1 X-0.06S574
G1 X-0.661S0
G1 X-0.06S572
G1 X-1.02S574
G1 X-0.12S573.6
G1 X-0.78S0
G1 X-0.06S572
G1 X-0.54S574
G1 X-0.06S574.4
G1 X-0.06S574
G1 X-0.06S570.9
G1 X-0.12S0
G1 X-0.06S572
G1 X-0.78S574
G1 X-0.06S572
G1 X-0.18S0
G1 X-0.06S572.8
G1 X-0.06S574.4
G1 X-0.12S574
G1 X-0.06S574.4
G1 X-0.06S574
G1 X-0.06S574.4
G1 X-0.24S574
G1 X-0.12S574.4
G1 X-0.06S570.5
G1 X-0.24S0
G1 X-0.06S571.7
G1 X-0.06S573.6
G1 X-0.06S574.4
G1 X-0.18S574
G1 X-0.12S574.4
G1 X-0.12S574
G1 X-0.06S573.6
G1 X-0.06S566.1
G1 X-0.42S0
G1 X-0.06S570.1
G1 X-0.48S574
G1 X-0.18S574.4
G1 X-0.06S565.7
G1 X-0.12S0
G1 X-0.06S572
G1 X-0.06S574.4
G1 X-0.06S574.8
G1 X-0.3S574
G1 X-0.06S574.4
G1 X-0.12S574
G1 X-0.06S573.6
G1 X-0.06S568.1
G1 X-2.52S0
G1 X-0.36S571.3
G1 X-2.221S0
G1 X-1.2S543.3
G1 X-0.78S0
G1 X-1.26S543.3
G1 X-0.36S0
G1 X-1.2S543.3
G1 X-0.06S543.7
G1 X-0.06S543.3
G1 X-0.18S0
G1 X-0.06S543.3
G1 X-0.06S543.7
G1 X-2.52S543.3
G1 X-0.06S543.7
G1 X-0.06S543.3
G1 X-1.667S0
G1 Y0.06S0
G1 X1.667S0
G1 X0.06S543.3
G1 X0.06S543.7
G1 X1.14S543.3
G1 X0.06S0
G1 X2.82S543.3
G1 X0.06S543.7
G1 X0.12S543.3
G1 X0.36S0
G1 X1.26S543.3
G1 X0.66S0
G1 X0.06S543.7
G1 X1.14S543.3
G1 X0.06S543.7
G1 X2.221S0
G1 X0.36S571.3
G1 X2.58S0
G1 X0.06S573.2
G1 X0.12S574
G1 X0.06S574.4
G1 X0.06S574
G1 X0.06S574.4
G1 X0.18S574
G1 X0.12S574.4
G1 X0.06S572.4
G1 X0.18S0
G1 X0.12S574
G1 X0.06S574.4
G1 X0.48S574
G1 X0.06S571.3
G1 X0.48S0
G1 X0.06S568.1
G1 X0.12S574
G1 X0.12S574.4
G1 X0.06S574
G1 X0.06S574.4
G1 X0.06S574
G1 X0.06S574.4
G1 X0.06S574
G1 X0.06S570.9
G1 X0.24S0
G1 X0.06S570.1
G1 X0.06S574.4
G1 X0.18S574
G1 X0.06S574.4
G1 X0.18S574
G1 X0.12S574.4
G1 X0.12S574
G1 X0.06S562.6
G1 X0.18S0
G1 X0.06S573.2
G1 X0.6S574
G1 X0.06S574.4
G1 X0.06S574
G1 X0.06S574.4
G1 X0.06S568.9
G1 X0.12S0
G1 X0.06S571.7
G1 X0.06S574
G1 X0.06S574.4
G1 X0.48S574
G1 X0.06S574.4
G1 X0.06S567.7
G1 X0.78S0
G1 X0.12S573.6
G1 X1.02S574
G1 X0.06S572
G1 X0.661S0
G1 X0.06S574
G1 X0.06S574.4
G1 X2.94S574
G1 X0.06S573.2
G1 X0.06S569.7
G1 X0.84S0
G1 X0.06S572
G1 X0.06S574.4
G1 X2.94S574
G1 X0.06S573.6
G1 X0.06S566.1
G1 X0.84S0
G1 X0.12S574
G1 X0.06S574.4
G1 X2.82S574
G1 X0.12S574.4
G1 X0.06S569.3
G1 X1.667S0
G1 Y0.06S0
G1 X-1.667S0
G1 X-0.06S569.3
G1 X-0.12S574.4
G1 X-2.82S574
G1 X-0.06S574.4
G1 X-0.12S574
G1 X-0.84S0
G1 X-0.06S566.1
G1 X-0.06S573.6
G1 X-2.94S574
G1 X-0.06S574.4
G1 X-0.06S572
G1 X-0.84S0
G1 X-0.06S569.7
G1 X-0.06S573.2
G1 X-2.94S574
G1 X-0.06S574.4
G1 X-0.06S574
G1 X-0.661S0
G1 X-0.06S572
G1 X-1.02S574
G1 X-0.12S573.6
G1 X-0.84S0
G1 X-0.06S569.3
G1 X-0.06S572.8
G1 X-0.06S573.6
G1 X-0.06S574
G1 X-0.06S574.4
G1 X-0.24S574
G1 X-0.06S574.4
G1 X-0.06S574
G1 X-0.06S572.8
G1 X-0.18S0
G1 X-0.06S572.8
G1 X-0.06S574
G1 X-0.12S574.4
G1 X-0.6S574
G1 X-0.06S572.4
G1 X-0.24S0
G1 X-0.06S572
G1 X-0.06S572.8
G1 X-0.12S573.2
G1 X-0.06S572.4
G1 X-0.06S573.6
G1 X-0.12S574.4
G1 X-0.06S574
G1 X-0.12S574.4
G1 X-0.06S570.5
G1 X-0.24S0
G1 X-0.06S570.9
G1 X-0.12S574
G1 X-0.12S574.4
G1 X-0.06S574
G1 X-0.06S573.6
G1 X-0.06S572.8
G1 X-0.06S572.4
G1 X-0.06S566.9
G1 X-0.48S0
G1 X-0.06S569.3
G1 X-0.12S574
G1 X-0.06S574.4
G1 X-0.42S574
G1 X-0.06S573.6
G1 X-0.06S570.5
G1 X-0.12S0
G1 X-0.06S569.3
G1 X-0.06S573.6
G1 X-0.12S574
G1 X-0.06S574.4
G1 X-0.06S574
G1 X-0.06S574.4
G1 X-0.06S574
G1 X-0.12S574.4
G1 X-0.06S573.6
G1 X-0.06S572.8
G1 X-0.06S566.5
G1 X-2.58S0
G1 X-0.36S571.3
G1 X-2.221S0
G1 X-1.2S543.3
G1 X-0.06S543.7
G1 X-0.06S543.3
G1 X-0.54S0
G1 X-0.06S542.9
G1 X-1.26S543.3
G1 X-0.24S0
G1 X-0.12S543.3
G1 X-0.06S543.7
G1 X-1.56S543.3
G1 X-0.06S543.7
G1 X-1.2S543.3
G1 X-0.06S543.7
G1 X-0.06S543.3
G1 X-0.06S0
G1 X-1.14S543.3
G1 X-0.06S543.7
G1 X-0.06S543.3
G1 X-1.667S0
G1 Y0.06S0
G1 X1.667S0
G1 X0.06S543.3
G1 X0.06S543.7
G1 X1.14S543.3
G1 X0.12S0
G1 X3.06S543.3
G1 X0.24S0
G1 X1.2S543.3
G1 X0.06S543.7
G1 X0.12S543.3
G1 X0.36S0
G1 X1.38S543.3
G1 X2.281S0
G1 X0.36S571.3
G1 X2.7S0
G1 X0.06S570.1
G1 X0.06S573.6
G1 X0.48S574
G1 X0.06S572.4
G1 X0.18S0
G1 X0.06S572
G1 X0.48S574
G1 X0.06S574.4
G1 X0.06S574
G1 X0.06S573.2
G1 X0.06S566.9
G1 X0.6S0
G1 X0.06S569.3
G1 X0.06S570.5
G1 X0.06S573.2
G1 X0.06S574
G1 X0.06S574.4
G1 X0.06S574
G1 X0.06S570.9
G1 X0.24S0
G1 X0.06S571.3
G1 X0.12S574.4
G1 X0.18S574
