G00 G17 G40 G21 G54
M4
; LightBurn 1.2.01
; GRBL device profile, current position
; Bounds: X0 Y0 to X80 Y50
G91
; Cut @ 3000 mm/min, 10% power
G0 X80Y0
; Layer Frame
G1 X-80S0F3000
G1 Y50
G1 X80
G1 Y-50
; Scan @ 4000.002 mm/min, 70% power
G0 X-68.88Y7.525
; Layer General
G1 X1.666F4000S0
G1 X0.377S700
G1 X1.8S0
G1 X0.352S700
G1 X3.094S0
G1 X0.281S700
G1 X1.136S0
G1 X0.352S700
G1 X3.816S0
G1 X0.352S700
G1 X1.038S0
G1 X0.352S700
G1 X2.401S0
G1 X0.281S700
G1 X1.136S0
G1 X0.351S700
G1 X1.667S0
G1 X0.136Y0.05S0
G1 X-1.667S0
G1 X-0.608S700
G1 X-0.586S0
G1 X-0.203S700
G1 X-0.117S0
G1 X-0.508S700
G1 X-0.599S0
G1 X-0.25S700
G1 X-0.539S0
G1 X-0.22S700
G1 X-0.54S0
G1 X-0.607S700
G1 X-0.783S0
G1 X-0.607S700
G1 X-0.581S0
G1 X-0.22S700
G1 X-1.164S0
G1 X-0.219S700
G1 X-0.615S0
G1 X-0.22S700
G1 X-0.542S0
G1 X-0.607S700
G1 X-0.586S0
G1 X-0.204S700
G1 X-0.117S0
G1 X-0.507S700
G1 X-0.543S0
G1 X-0.218S700
G1 X-0.549S0
G1 X-0.219S700
G1 X-0.551S0
G1 X-0.22S700
G1 X-0.542S0
G1 X-0.607S700
G1 X-1.536S0
G1 X-0.65S700
G1 X-0.471S0
G1 X-0.22S700
G1 X-0.617S0
G1 X-0.22S700
G1 X-0.382S0
G1 X-0.25S700
G1 X-0.5S0
G1 X-0.254S700
G1 X-0.495S0
G1 X-0.255S700
G1 X-0.801S0
G1 X-0.253S700
G1 X-0.496S0
G1 X-0.255S700
G1 X-0.801S0
G1 X-0.254S700
G1 X-0.495S0
G1 X-0.255S700
G1 X-1.667S0
G1 X-0.015Y0.05S0
G1 X1.667S0
G1 X0.283S700
G1 X0.468S0
G1 X0.283S700
G1 X0.771S0
G1 X0.283S700
G1 X0.469S0
G1 X0.283S700
G1 X0.77S0
G1 X0.283S700
G1 X0.469S0
G1 X0.283S700
G1 X0.484S0
G1 X0.25S700
G1 X0.382S0
G1 X0.22S700
G1 X0.617S0
G1 X0.221S700
G1 X0.403S0
G1 X0.773S700
G1 X1.402S0
G1 X0.763S700
G1 X0.464S0
G1 X0.22S700
G1 X0.551S0
G1 X0.219S700
G1 X0.55S0
G1 X0.217S700
G1 X0.48S0
G1 X0.622S700
G1 X0.065S0
G1 X0.204S700
G1 X0.508S0
G1 X0.762S700
G1 X0.465S0
G1 X0.22S700
G1 X0.616S0
G1 X0.218S700
G1 X1.164S0
G1 X0.22S700
G1 X0.503S0
G1 X0.762S700
G1 X0.628S0
G1 X0.762S700
G1 X0.463S0
G1 X0.22S700
G1 X0.539S0
G1 X0.25S700
G1 X0.537S0
G1 X0.622S700
G1 X0.065S0
G1 X0.203S700
G1 X0.509S0
G1 X0.762S700
G1 X1.667S0
G1 X0.052Y0.05S0
G1 X-1.666S0
G1 X-0.882S700
G1 X-0.442S0
G1 X-0.203S700
G1 X-0.019S0
G1 X-0.721S700
G1 X-0.484S0
G1 X-0.25S700
G1 X-0.539S0
G1 X-0.22S700
G1 X-0.41S0
G1 X-0.882S700
G1 X-0.508S0
G1 X-0.882S700
G1 X-0.436S0
G1 X-0.22S700
G1 X-1.163S0
G1 X-0.218S700
G1 X-0.617S0
G1 X-0.22S700
G1 X-0.412S0
G1 X-0.882S700
G1 X-0.441S0
G1 X-0.204S700
G1 X-0.019S0
G1 X-0.72S700
G1 X-0.428S0
G1 X-0.216S700
G1 X-0.551S0
G1 X-0.219S700
G1 X-0.551S0
G1 X-0.22S700
G1 X-0.412S0
G1 X-0.882S700
G1 X-1.278S0
G1 X-0.422S700
G1 X-0.464
G1 X-0.345S0
G1 X-0.223S700
G1 X-0.617S0
G1 X-0.22S700
G1 X-0.382S0
G1 X-0.25S700
G1 X-0.469S0
G1 X-0.311S700
G1 X-0.443S0
G1 X-0.311S700
G1 X-0.74S0
G1 X-0.311S700
G1 X-0.443S0
G1 X-0.311S700
G1 X-0.74S0
G1 X-0.313S700
G1 X-0.441S0
G1 X-0.312S700
G1 X-1.666S0
G1 X-0.015Y0.05S0
G1 X1.666S0
G1 X0.34S700
G1 X0.414S0
G1 X0.343S700
G1 X0.708S0
G1 X0.34S700
G1 X0.417S0
G1 X0.34S700
G1 X0.709S0
G1 X0.339S700
G1 X0.417S0
G1 X0.34S700
G1 X0.453S0
G1 X0.25S700
G1 X0.382S0
G1 X0.22S700
G1 X0.617S0
G1 X0.224S700
G1 X0.313S0
G1 X0.308S700
G1 X0.372S0
G1 X0.263S700
G1 X1.222S0
G1 X0.315S700
G1 X0.321S0
G1 X0.317S700
G1 X0.371S0
G1 X0.22S700
G1 X0.551S0
G1 X0.219S700
G1 X0.552S0
G1 X0.215S700
G1 X0.384S0
G1 X0.313S700
G1 X0.27S0
G1 X0.404S700
G1 X0.411S0
G1 X0.315S700
G1 X0.32S0
G1 X0.318S700
G1 X0.371S0
G1 X0.22S700
G1 X0.618S0
G1 X0.217S700
G1 X1.163S0
G1 X0.22S700
G1 X0.406S0
G1 X0.315S700
G1 X0.32S0
G1 X0.318S700
G1 X0.437S0
G1 X0.316S700
G1 X0.32S0
G1 X0.317S700
G1 X0.369S0
G1 X0.22S700
G1 X0.539S0
G1 X0.25S700
G1 X0.44S0
G1 X0.294S700
G1 X0.289S0
G1 X0.404S700
G1 X0.412S0
G1 X0.315S700
G1 X0.32S0
G1 X0.318S700
G1 X1.666S0
G1 X0.038Y0.05S0
G1 X-1.667S0
G1 X-0.286S700
G1 X-0.467S0
G1 X-0.265S700
G1 X-0.384S0
G1 X-0.338S700
G1 X-0.415S0
G1 X-0.265S700
G1 X-0.409S0
G1 X-0.25S700
G1 X-0.539S0
G1 X-0.22S700
G1 X-0.331S0
G1 X-0.287S700
G1 X-0.466S0
G1 X-0.266S700
G1 X-0.372S0
G1 X-0.286S700
G1 X-0.466S0
G1 X-0.266S700
G1 X-0.378S0
G1 X-0.22S700
G1 X-1.162S0
G1 X-0.217S700
G1 X-0.619S0
G1 X-0.22S700
G1 X-0.334S0
G1 X-0.286S700
G1 X-0.466S0
G1 X-0.266S700
G1 X-0.383S0
G1 X-0.338S700
G1 X-0.416S0
G1 X-0.264S700
G1 X-0.353S0
G1 X-0.214S700
G1 X-0.553S0
G1 X-0.219S700
G1 X-0.551S0
G1 X-0.22S700
G1 X-0.333S0
G1 X-0.287S700
G1 X-0.466S0
G1 X-0.266S700
G1 X-1.172S0
G1 X-0.231S700
G1 X-0.495S0
G1 X-0.27S700
G1 X-0.281S0
G1 X-0.225S700
G1 X-0.617S0
G1 X-0.22S700
G1 X-0.382S0
G1 X-0.25S700
G1 X-0.437S0
G1 X-0.37S700
G1 X-0.389S0
G1 X-0.369S700
G1 X-0.678S0
G1 X-0.369S700
G1 X-0.389S0
G1 X-0.369S700
G1 X-0.678S0
G1 X-0.371S700
G1 X-0.388S0
G1 X-0.368S700
G1 X-1.667S0
G1 X-0.015Y0.05S0
G1 X1.667S0
G1 X0.197S700
G1 X0.012S0
G1 X0.188S700
G1 X0.36S0
G1 X0.401S700
G1 X0.647S0
G1 X0.197S700
G1 X0.013S0
G1 X0.187S700
G1 X0.363S0
G1 X0.398S700
G1 X0.647S0
G1 X0.197S700
G1 X0.012S0
G1 X0.188S700
G1 X0.363S0
G1 X0.398S700
G1 X1.054S0
G1 X0.22S700
G1 X0.617S0
G1 X0.226S700
G1 X0.264S0
G1 X0.239S700
G1 X0.572S0
G1 X0.223S700
G1 X1.122S0
G1 X0.244S700
G1 X0.571S0
G1 X0.251S700
G1 X0.314S0
G1 X0.22S700
G1 X0.551S0
G1 X0.219S700
G1 X0.554S0
G1 X0.213S700
G1 X0.321S0
G1 X0.254S700
G1 X0.489S0
G1 X0.307S700
G1 X0.355S0
G1 X0.244S700
G1 X0.571S0
G1 X0.251S700
G1 X0.314S0
G1 X0.22S700
G1 X0.62S0
G1 X0.216S700
G1 X1.162S0
G1 X0.22S700
G1 X0.35S0
G1 X0.244S700
G1 X0.571S0
G1 X0.251S700
G1 X0.324S0
G1 X0.244S700
G1 X0.571S0
G1 X0.252S700
G1 X0.311S0
G1 X0.22S700
G1 X1.167S0
G1 X0.249S700
G1 X0.493S0
G1 X0.307S700
G1 X0.356S0
G1 X0.244S700
G1 X0.57S0
G1 X0.252S700
G1 X1.667S0
G1 X0.02Y0.05S0
G1 X-1.667S0
G1 X-0.245S700
G1 X-0.628S0
G1 X-0.242S700
G1 X-0.327S0
G1 X-0.276S700
G1 X-0.557S0
G1 X-0.239S700
G1 X-1.144S0
G1 X-0.22S700
G1 X-0.291S0
G1 X-0.245S700
G1 X-0.629S0
G1 X-0.241S700
G1 X-0.276S0
G1 X-0.245S700
G1 X-0.628S0
G1 X-0.241S700
G1 X-0.322S0
G1 X-0.22S700
G1 X-1.162S0
G1 X-0.215S700
G1 X-0.621S0
G1 X-0.22S700
G1 X-0.294S0
G1 X-0.245S700
G1 X-0.628S0
G1 X-0.241S700
G1 X-0.327S0
G1 X-0.276S700
G1 X-0.562S0
G1 X-0.234S700
G1 X-0.299S0
G1 X-0.213S700
G1 X-0.554S0
G1 X-0.219S700
G1 X-0.551S0
G1 X-0.22S700
G1 X-0.294S0
G1 X-0.245S700
G1 X-0.628S0
G1 X-0.241S700
G1 X-1.087S0
G1 X-0.218S700
G1 X-0.607S0
G1 X-0.229S700
G1 X-0.25S0
G1 X-0.227S700
G1 X-0.617S0
G1 X-0.22S700
G1 X-1.038S0
G1 X-0.198S700
G1 X-0.027S0
G1 X-0.202S700
G1 X-0.337S0
G1 X-0.188S700
G1 X-0.039S0
G1 X-0.198S700
G1 X-0.616S0
G1 X-0.198S700
G1 X-0.027S0
G1 X-0.202S700
G1 X-0.337S0
G1 X-0.188S700
G1 X-0.039S0
G1 X-0.199S700
G1 X-0.615S0
G1 X-0.198S700
G1 X-0.027S0
G1 X-0.206S700
G1 X-0.333S0
G1 X-0.188S700
G1 X-0.039S0
G1 X-0.199S700
G1 X-1.666S0
G1 X-0.016Y0.05S0
G1 X1.667S0
G1 X0.2S700
G1 X0.066S0
G1 X0.188S700
G1 X0.306S0
G1 X0.207S700
G1 X0.054S0
G1 X0.199S700
G1 X0.585S0
G1 X0.2S700
G1 X0.066S0
G1 X0.188S700
G1 X0.311S0
G1 X0.202S700
G1 X0.054S0
G1 X0.199S700
G1 X0.585S0
G1 X0.2S700
G1 X0.066S0
G1 X0.188S700
G1 X0.311S0
G1 X0.202S700
G1 X0.055S0
G1 X0.199S700
G1 X1.022S0
G1 X0.22S700
G1 X0.617S0
G1 X0.228S700
G1 X0.28S0
G1 X0.183S700
G1 X0.612S0
G1 X0.227S700
G1 X1.072S0
G1 X0.229S700
G1 X0.681S0
G1 X0.203S700
G1 X0.311S0
G1 X0.22S700
G1 X0.551S0
G1 X0.219S700
G1 X0.555S0
G1 X0.212S700
G1 X0.283S0
G1 X0.228S700
G1 X0.614S0
G1 X0.246S700
G1 X0.311S0
G1 X0.229S700
G1 X0.681S0
G1 X0.203S700
G1 X0.311S0
G1 X0.22S700
G1 X0.622S0
G1 X0.215S700
G1 X1.161S0
G1 X0.22S700
G1 X0.306S0
G1 X0.229S700
G1 X0.681S0
G1 X0.203S700
G1 X0.278S0
G1 X0.228S700
G1 X0.681S0
G1 X0.203S700
G1 X0.309S0
G1 X0.22S700
G1 X1.128S0
G1 X0.226S700
G1 X0.617S0
G1 X0.245S700
G1 X0.312S0
G1 X0.229S700
G1 X0.68S0
G1 X0.203S700
G1 X1.667S0
G1 X-0.9Y0.05S0
G1 X-1.667S0
G1 X-0.223S700
G1 X-0.301S0
G1 X-0.23S700
G1 X-0.647S0
G1 X-0.227S700
G1 X-1.112S0
G1 X-0.22S700
G1 X-1.21S0
G1 X-0.223S700
G1 X-1.167S0
G1 X-0.223S700
G1 X-0.295S0
G1 X-0.22S700
G1 X-1.161S0
G1 X-0.214S700
G1 X-0.623S0
G1 X-0.22S700
G1 X-1.212S0
G1 X-0.223S700
G1 X-0.3S0
G1 X-0.231S700
G1 X-0.648S0
G1 X-0.225S700
G1 X-0.267S0
G1 X-0.211S700
G1 X-0.556S0
G1 X-0.219S700
G1 X-0.551S0
G1 X-0.22S700
G1 X-1.212S0
G1 X-0.223S700
G1 X-1.061S0
G1 X-0.255S700
G1 X-1.046S0
G1 X-0.229S700
G1 X-0.617S0
G1 X-0.22S700
G1 X-1.007S0
G1 X-0.2S700
G1 X-0.082S0
G1 X-0.203S700
G1 X-0.284S0
G1 X-0.188S700
G1 X-0.093S0
G1 X-0.201S700
G1 X-0.554S0
G1 X-0.2S700
G1 X-0.082S0
G1 X-0.203S700
G1 X-0.284S0
G1 X-0.188S700
G1 X-0.093S0
G1 X-0.201S700
G1 X-0.554S0
G1 X-0.2S700
G1 X-0.082S0
G1 X-0.208S700
G1 X-0.279S0
G1 X-0.188S700
G1 X-0.093S0
G1 X-0.201S700
G1 X-1.667S0
G1 X-0.015Y0.05S0
G1 X1.666S0
G1 X0.203S700
G1 X0.12S0
G1 X0.188S700
G1 X0.252S0
G1 X0.209S700
G1 X0.11S0
G1 X0.201S700
G1 X0.523S0
G1 X0.203S700
G1 X0.119S0
G1 X0.188S700
G1 X0.258S0
G1 X0.203S700
G1 X0.11S0
G1 X0.201S700
G1 X0.523S0
G1 X0.203S700
G1 X0.119S0
G1 X0.188S700
G1 X0.258S0
G1 X0.204S700
G1 X0.109S0
G1 X0.201S700
G1 X0.991S0
G1 X0.22S700
G1 X0.617S0
G1 X0.23S700
G1 X0.99S0
G1 X0.303S700
G1 X1.057S0
G1 X0.22S700
G1 X1.226S0
G1 X0.22S700
G1 X0.551S0
G1 X0.219S700
G1 X0.556S0
G1 X0.211S700
G1 X0.255S0
G1 X0.219S700
G1 X0.678S0
G1 X0.219S700
G1 X0.289S0
G1 X0.219S700
G1 X1.227S0
G1 X0.22S700
G1 X0.621S0
G1 X0.216S700
G1 X1.161S0
G1 X0.22S700
G1 X0.284S0
G1 X0.219S700
G1 X1.171S0
G1 X0.22S700
G1 X1.224S0
G1 X0.22S700
G1 X1.101S0
G1 X0.223S700
G1 X0.674S0
G1 X0.218S700
G1 X0.289S0
G1 X0.22S700
G1 X1.667S0
G1 Y0.05S0
G1 X-1.672S0
G1 X-0.226S700
G1 X-0.278S0
G1 X-0.207S700
G1 X-0.691S0
G1 X-0.22S700
G1 X-1.098S0
G1 X-0.22S700
G1 X-1.229S0
G1 X-0.226S700
G1 X-1.164S0
G1 X-0.227S700
G1 X-0.272S0
G1 X-0.22S700
G1 X-0.238S0
G1 X-0.675S700
G1 X-0.249S0
G1 X-0.216S700
G1 X-0.62S0
G1 X-0.22S700
G1 X-1.231S0
G1 X-0.227S700
G1 X-0.277S0
G1 X-0.208S700
G1 X-0.69S0
G1 X-0.221S700
G1 X-0.252S0
G1 X-0.213S700
G1 X-0.554S0
G1 X-0.219S700
G1 X-0.551S0
G1 X-0.22S700
G1 X-1.231S0
G1 X-0.227S700
G1 X-0.175S0
G1 X-0.675S700
G1 X-0.229S0
G1 X-0.441S700
G1 X-0.82S0
G1 X-0.228S700
G1 X-0.617S0
G1 X-0.22S700
G1 X-0.976S0
G1 X-0.201S700
G1 X-0.137S0
G1 X-0.204S700
G1 X-0.231S0
G1 X-0.189S700
G1 X-0.146S0
G1 X-0.204S700
G1 X-0.493S0
G1 X-0.201S700
G1 X-0.138S0
G1 X-0.203S700
G1 X-0.232S0
G1 X-0.188S700
G1 X-0.146S0
G1 X-0.205S700
G1 X-0.492S0
G1 X-0.201S700
G1 X-0.138S0
G1 X-0.208S700
G1 X-0.227S0
G1 X-0.189S700
G1 X-0.145S0
G1 X-0.205S700
G1 X-1.667S0
G1 X-0.015Y0.05S0
G1 X1.667S0
G1 X0.206S700
G1 X0.172S0
G1 X0.189S700
G1 X0.203S0
G1 X0.206S700
G1 X0.166S0
G1 X0.202S700
G1 X0.461S0
G1 X0.206S700
G1 X0.172S0
G1 X0.19S700
G1 X0.204S0
G1 X0.204S700
G1 X0.166S0
G1 X0.202S700
G1 X0.461S0
G1 X0.206S700
G1 X0.172S0
G1 X0.19S700
G1 X0.204S0
G1 X0.205S700
G1 X0.165S0
G1 X0.202S700
G1 X0.96S0
G1 X0.22S700
G1 X0.617S0
G1 X0.226S700
G1 X0.646S0
G1 X0.581S700
G1 X0.265S0
G1 X0.675S700
G1 X0.167S0
G1 X1.197S700
G1 X0.269S0
G1 X0.22S700
G1 X0.551S0
G1 X0.219S700
G1 X0.553S0
G1 X0.214S700
G1 X0.249S0
G1 X0.224S700
G1 X0.702S0
G1 X0.196S700
G1 X0.268S0
G1 X1.198S700
G1 X0.269S0
G1 X0.22S700
G1 X0.618S0
G1 X0.218S700
G1 X0.249S0
G1 X0.675S700
G1 X0.238S0
G1 X0.22S700
G1 X0.263S0
G1 X1.198S700
G1 X0.193S0
G1 X1.197S700
G1 X0.267S0
G1 X0.22S700
G1 X1.095S0
G1 X0.223S700
G1 X0.703S0
G1 X0.195S700
G1 X0.269S0
G1 X1.197S700
G1 X1.667S0
G1 Y0.05S0
G1 X-1.666S0
G1 X-1.195S700
G1 X-0.272S0
G1 X-0.195S700
G1 X-0.704S0
G1 X-0.225S700
G1 X-1.092S0
G1 X-0.22S700
G1 X-0.267S0
G1 X-1.194S700
G1 X-0.196S0
G1 X-1.194S700
G1 X-0.267S0
G1 X-0.22S700
G1 X-0.238S0
G1 X-0.675S700
G1 X-0.25S0
G1 X-0.219S700
G1 X-0.616S0
G1 X-0.22S700
G1 X-0.269S0
G1 X-1.194S700
G1 X-0.272S0
G1 X-0.196S700
G1 X-0.703S0
G1 X-0.225S700
G1 X-0.247S0
G1 X-0.216S700
G1 X-0.551S0
G1 X-0.219S700
G1 X-0.551S0
G1 X-0.22S700
G1 X-0.269S0
G1 X-1.194S700
G1 X-0.17S0
G1 X-0.675S700
G1 X-0.321S0
G1 X-0.672S700
G1 X-0.501S0
G1 X-0.224S700
G1 X-0.617S0
G1 X-0.22S700
G1 X-0.944S0
G1 X-0.203S700
G1 X-0.193S0
G1 X-0.205S700
G1 X-0.178S0
G1 X-0.19S700
G1 X-0.199S0
G1 X-0.207S700
G1 X-0.43S0
G1 X-0.203S700
G1 X-0.194S0
G1 X-0.204S700
G1 X-0.178S0
G1 X-0.19S700
G1 X-0.199S0
G1 X-0.207S700
G1 X-0.431S0
G1 X-0.202S700
G1 X-0.193S0
G1 X-0.206S700
G1 X-0.177S0
G1 X-0.19S700
G1 X-0.199S0
G1 X-0.207S700
G1 X-1.667S0
G1 X-0.015Y0.05S0
G1 X1.666S0
G1 X0.209S700
G1 X0.226S0
G1 X0.19S700
G1 X0.152S0
G1 X0.205S700
G1 X0.22S0
G1 X0.204S700
G1 X0.399S0
G1 X0.209S700
G1 X0.226S0
G1 X0.19S700
G1 X0.152S0
G1 X0.205S700
G1 X0.22S0
G1 X0.204S700
G1 X0.4S0
G1 X0.208S700
G1 X0.226S0
G1 X0.19S700
G1 X0.152S0
G1 X0.205S700
G1 X0.22S0
G1 X0.204S700
G1 X0.929S0
G1 X0.22S700
G1 X0.617S0
G1 X0.221S700
G1 X0.436S0
G1 X0.665S700
G1 X0.396S0
G1 X0.675S700
G1 X0.173S0
G1 X1.191S700
G1 X0.269S0
G1 X0.221S700
G1 X0.55S0
G1 X0.219S700
G1 X0.55S0
G1 X0.217S700
G1 X0.248S0
G1 X0.223S700
G1 X0.699S0
G1 X0.201S700
G1 X0.275S0
G1 X1.191S700
G1 X0.269S0
G1 X0.22S700
G1 X0.615S0
G1 X0.219S700
G1 X0.251S0
G1 X0.675S700
G1 X0.238S0
G1 X0.22S700
G1 X0.27S0
G1 X1.191S700
G1 X0.199S0
G1 X1.192S700
G1 X0.266S0
G1 X0.219S700
G1 X1.095S0
G1 X0.223S700
G1 X0.699S0
G1 X0.2S700
G1 X0.276S0
G1 X1.191S700
G1 X1.667S0
G1 Y0.05S0
G1 X-1.666S0
G1 X-1.189S700
G1 X-0.279S0
G1 X-0.205S700
G1 X-0.695S0
G1 X-0.221S700
G1 X-1.097S0
G1 X-0.218S700
G1 X-0.266S0
G1 X-1.189S700
G1 X-0.201S0
G1 X-1.189S700
G1 X-0.273S0
G1 X-0.22S700
G1 X-0.238S0
G1 X-0.675S700
G1 X-0.252S0
G1 X-0.22S700
G1 X-0.611S0
G1 X-0.222S700
G1 X-0.268S0
G1 X-1.189S700
G1 X-0.278S0
G1 X-0.206S700
G1 X-0.695S0
G1 X-0.22S700
G1 X-0.25S0
G1 X-0.219S700
G1 X-0.548S0
G1 X-0.219S700
G1 X-0.547S0
G1 X-0.224S700
G1 X-0.268S0
G1 X-1.189S700
G1 X-0.176S0
G1 X-0.675S700
G1 X-0.532S0
G1 X-0.592S700
G1 X-0.375S0
G1 X-0.219S700
G1 X-0.618S0
G1 X-0.219S700
G1 X-0.913S0
G1 X-0.205S700
G1 X-0.248S0
G1 X-0.205S700
G1 X-0.126S0
G1 X-0.19S700
G1 X-0.252S0
G1 X-0.211S700
G1 X-0.368S0
G1 X-0.205S700
G1 X-0.248S0
G1 X-0.205S700
G1 X-0.126S0
G1 X-0.19S700
G1 X-0.252S0
G1 X-0.211S700
G1 X-0.368S0
G1 X-0.205S700
G1 X-0.248S0
G1 X-0.204S700
G1 X-0.127S0
G1 X-0.19S700
G1 X-0.252S0
G1 X-0.211S700
G1 X-1.667S0
G1 X-0.015Y0.05S0
G1 X1.667S0
G1 X0.212S700
G1 X0.279S0
G1 X0.19S700
G1 X0.102S0
G1 X0.203S700
G1 X0.276S0
G1 X0.205S700
G1 X0.338S0
G1 X0.212S700
G1 X0.279S0
G1 X0.19S700
G1 X0.1S0
G1 X0.205S700
G1 X0.276S0
G1 X0.206S700
G1 X0.337S0
G1 X0.212S700
G1 X0.279S0
G1 X0.19S700
G1 X0.1S0
G1 X0.205S700
G1 X0.276S0
G1 X0.206S700
G1 X0.897S0
G1 X0.218S700
G1 X0.619S0
G1 X0.217S700
G1 X0.327S0
G1 X0.451S700
G1 X1.577S0
G1 X0.233S700
G1 X0.717S0
G1 X0.236S700
G1 X0.268S0
G1 X0.227S700
G1 X0.544S0
G1 X0.221S700
G1 X0.545S0
G1 X0.22S700
G1 X0.251S0
G1 X0.222S700
G1 X0.687S0
G1 X0.211S700
G1 X0.281S0
G1 X0.233S700
G1 X0.717S0
G1 X0.236S700
G1 X0.268S0
G1 X0.224S700
G1 X0.607S0
G1 X0.222S700
G1 X1.165S0
G1 X0.22S700
G1 X0.276S0
G1 X0.233S700
G1 X0.717S0
G1 X0.236S700
G1 X0.204S0
G1 X0.233S700
G1 X0.717S0
G1 X0.236S700
G1 X0.266S0
G1 X0.219S700
G1 X1.098S0
G1 X0.222S700
G1 X0.687S0
G1 X0.21S700
G1 X0.282S0
G1 X0.233S700
G1 X0.716S0
G1 X0.237S700
G1 X1.667S0
G1 X-0.014Y0.05S0
G1 X-1.667S0
G1 X-0.232S700
G1 X-0.7S0
G1 X-0.23S700
G1 X-0.292S0
G1 X-0.223S700
G1 X-0.66S0
G1 X-0.224S700
G1 X-1.1S0
G1 X-0.229S700
G1 X-0.279S0
G1 X-0.233S700
G1 X-0.7S0
G1 X-0.229S700
G1 X-0.229S0
G1 X-0.232S700
G1 X-0.698S0
G1 X-0.231S700
G1 X-0.287S0
G1 X-0.22S700
G1 X-1.166S0
G1 X-0.223S700
G1 X-0.598S0
G1 X-0.231S700
G1 X-0.282S0
G1 X-0.232S700
G1 X-0.698S0
G1 X-0.231S700
G1 X-0.292S0
G1 X-0.224S700
G1 X-0.66S0
G1 X-0.224S700
G1 X-0.263S0
G1 X-0.222S700
G1 X-0.541S0
G1 X-0.223S700
G1 X-0.539S0
G1 X-0.232S700
G1 X-0.282S0
G1 X-0.232S700
G1 X-0.7S0
G1 X-0.229S700
G1 X-1.751S0
G1 X-0.307S700
G1 X-0.311S0
G1 X-0.216S700
G1 X-0.617S0
G1 X-0.218S700
G1 X-0.882S0
G1 X-0.206S700
G1 X-0.304S0
G1 X-0.203S700
G1 X-0.075S0
G1 X-0.19S700
G1 X-0.307S0
G1 X-0.213S700
G1 X-0.307S0
G1 X-0.206S700
G1 X-0.304S0
G1 X-0.203S700
G1 X-0.076S0
G1 X-0.189S700
G1 X-0.307S0
G1 X-0.213S700
G1 X-0.307S0
G1 X-0.206S700
G1 X-0.304S0
G1 X-0.202S700
G1 X-0.077S0
G1 X-0.19S700
G1 X-0.306S0
G1 X-0.214S700
G1 X-1.666S0
G1 X-0.016Y0.05S0
G1 X1.667S0
G1 X0.215S700
G1 X0.334S0
G1 X0.189S700
G1 X0.052S0
G1 X0.201S700
G1 X0.332S0
G1 X0.207S700
G1 X0.275S0
G1 X0.215S700
G1 X0.334S0
G1 X0.19S700
G1 X0.05S0
G1 X0.202S700
G1 X0.332S0
G1 X0.207S700
G1 X0.275S0
G1 X0.215S700
G1 X0.334S0
G1 X0.19S700
G1 X0.05S0
G1 X0.202S700
G1 X0.332S0
G1 X0.207S700
G1 X0.866S0
G1 X0.236S700
G1 X0.595S0
G1 X0.218S700
G1 X0.298S0
G1 X0.242S700
G1 X1.849S0
G1 X0.228S700
G1 X0.673S0
G1 X0.226S700
G1 X0.298S0
G1 X0.242S700
G1 X0.523S0
G1 X0.231S700
G1 X0.538S0
G1 X0.223S700
G1 X0.275S0
G1 X0.226S700
G1 X0.624S0
G1 X0.246S700
G1 X0.31S0
G1 X0.221S700
G1 X0.68S0
G1 X0.226S700
G1 X0.298S0
G1 X0.243S700
G1 X0.585S0
G1 X0.223S700
G1 X1.167S0
G1 X0.22S700
G1 X0.305S0
G1 X0.221S700
G1 X0.68S0
G1 X0.226S700
G1 X0.263S0
G1 X0.228S700
G1 X0.673S0
G1 X0.226S700
G1 X0.296S0
G1 X0.242S700
G1 X1.099S0
G1 X0.226S700
G1 X0.623S0
G1 X0.246S700
G1 X0.311S0
G1 X0.227S700
G1 X0.674S0
G1 X0.226S700
G1 X1.667S0
G1 X-0.017Y0.05S0
G1 X-1.666S0
G1 X-0.229S700
G1 X-0.636S0
G1 X-0.228S700
G1 X-0.329S0
G1 X-0.268S700
G1 X-0.576S0
G1 X-0.238S700
G1 X-1.09S0
G1 X-0.264S700
G1 X-0.312S0
G1 X-0.229S700
G1 X-0.635S0
G1 X-0.228S700
G1 X-0.298S0
G1 X-0.23S700
G1 X-0.634S0
G1 X-0.228S700
G1 X-0.324S0
G1 X-0.22S700
G1 X-1.17S0
G1 X-0.23S700
G1 X-0.564S0
G1 X-0.254S700
G1 X-0.314S0
G1 X-0.23S700
G1 X-0.634S0
G1 X-0.228S700
G1 X-0.329S0
G1 X-0.269S700
G1 X-0.576S0
G1 X-0.238S700
G1 X-0.29S0
G1 X-0.225S700
G1 X-0.509S0
G1 X-0.261S700
G1 X-0.507S0
G1 X-0.253S700
G1 X-0.314S0
G1 X-0.229S700
G1 X-0.635S0
G1 X-0.228S700
G1 X-1.261S0
G1 X-0.084S700
G1 X-0.545S0
G1 X-0.224S700
G1 X-0.296S0
G1 X-0.226S700
G1 X-0.566S0
G1 X-0.255S700
G1 X-0.851S0
G1 X-0.207S700
G1 X-0.36S0
G1 X-0.2S700
G1 X-0.026S0
G1 X-0.189S700
G1 X-0.362S0
G1 X-0.216S700
G1 X-0.245S0
G1 X-0.207S700
G1 X-0.36S0
G1 X-0.2S700
G1 X-0.026S0
G1 X-0.189S700
G1 X-0.362S0
G1 X-0.216S700
G1 X-0.245S0
G1 X-0.208S700
G1 X-0.359S0
G1 X-0.2S700
G1 X-0.026S0
G1 X-0.189S700
G1 X-0.362S0
G1 X-0.216S700
G1 X-1.667S0
G1 X-0.015Y0.05S0
G1 X1.667S0
G1 X0.218S700
G1 X0.389S0
G1 X0.188S700
G1 X0.2
G1 X0.387S0
G1 X0.209S700
G1 X0.214S0
G1 X0.218S700
G1 X0.389S0
G1 X0.188S700
G1 X0.2
G1 X0.387S0
G1 X0.209S700
G1 X0.214S0
G1 X0.218S700
G1 X0.389S0
G1 X0.188S700
G1 X0.2
G1 X0.387S0
G1 X0.209S700
G1 X0.835S0
G1 X0.288S700
G1 X0.517S0
G1 X0.239S700
G1 X0.299S0
G1 X0.213S700
G1 X0.54S0
G1 X0.228S700
G1 X1.151S0
G1 X0.24S700
G1 X0.579S0
G1 X0.239S700
G1 X0.33S0
G1 X0.285S700
G1 X0.464S0
G1 X0.298S700
G1 X0.472S0
G1 X0.235S700
G1 X0.315S0
G1 X0.246S700
G1 X0.521S0
G1 X0.292S700
G1 X0.347S0
G1 X0.238S700
G1 X0.577S0
G1 X0.243S700
G1 X0.33S0
G1 X0.289S700
G1 X0.516S0
G1 X0.236S700
G1 X1.177S0
G1 X0.22S700
G1 X0.342S0
G1 X0.238S700
G1 X0.577S0
G1 X0.243S700
G1 X0.332S0
G1 X0.24S700
G1 X0.579S0
G1 X0.239S700
G1 X0.328S0
G1 X0.292S700
G1 X1.086S0
G1 X0.246S700
G1 X0.521S0
G1 X0.291S700
G1 X0.348S0
G1 X0.239S700
G1 X0.58S0
G1 X0.238S700
G1 X1.667S0
G1 X-0.036Y0.05S0
G1 X-1.666S0
G1 X-0.246S700
G1 X-0.494S0
G1 X-0.264S700
G1 X-0.366S0
G1 X-0.329S700
G1 X-0.441S0
G1 X-0.264S700
G1 X-1.073S0
G1 X-0.329S700
G1 X-0.364S0
G1 X-0.246S700
G1 X-0.493S0
G1 X-0.264S700
G1 X-0.387S0
G1 X-0.247S700
G1 X-0.489S0
G1 X-0.267S700
G1 X-0.361S0
G1 X-0.22S700
G1 X-1.185S0
G1 X-0.264S700
G1 X-0.444S0
G1 X-0.325S700
G1 X-0.366S0
G1 X-0.247S700
G1 X-0.489S0
G1 X-0.267S700
G1 X-0.366S0
G1 X-0.33S700
G1 X-0.441S0
G1 X-0.263S700
G1 X-0.345S0
G1 X-0.257S700
G1 X-0.4S0
G1 X-0.363S700
G1 X-0.41S0
G1 X-0.319S700
G1 X-0.366S0
G1 X-0.246S700
G1 X-0.493S0
G1 X-0.264S700
G1 X-1.181S0
G1 X-0.249S700
G1 X-0.49S0
G1 X-0.218S700
G1 X-0.326S0
G1 X-0.258S700
G1 X-0.44S0
G1 X-0.332S700
G1 X-0.819S0
G1 X-0.21S700
G1 X-0.415S0
G1 X-0.361S700
G1 X-0.417S0
G1 X-0.219S700
G1 X-0.183S0
G1 X-0.21S700
G1 X-0.415S0
G1 X-0.361S700
G1 X-0.417S0
G1 X-0.22S700
G1 X-0.182S0
G1 X-0.21S700
G1 X-0.415S0
G1 X-0.361S700
G1 X-0.417S0
G1 X-0.22S700
G1 X-1.666S0
G1 X-0.016Y0.05S0
G1 X1.667S0
G1 X0.221S700
G1 X0.445S0
G1 X0.334S700
G1 X0.443S0
G1 X0.21S700
G1 X0.152S0
G1 X0.221S700
G1 X0.445S0
G1 X0.334S700
G1 X0.443S0
G1 X0.21S700
G1 X0.152S0
G1 X0.221S700
G1 X0.445S0
G1 X0.334S700
G1 X0.443S0
G1 X0.21S700
G1 X0.804S0
G1 X0.41S700
G1 X0.307S0
G1 X0.3S700
G1 X0.354S0
G1 X0.246S700
G1 X0.395S0
G1 X0.281S700
G1 X1.245S0
G1 X0.29S700
G1 X0.362S0
G1 X0.27S700
G1 X0.403S0
G1 X0.393S700
G1 X0.291S0
G1 X0.473S700
G1 X0.286S0
G1 X0.283S700
G1 X0.397S0
G1 X0.292S700
G1 X0.328S0
G1 X0.385S700
G1 X0.41S0
G1 X0.284S700
G1 X0.367S0
G1 X0.271S700
G1 X0.403S0
G1 X0.402S700
G1 X0.312S0
G1 X0.3S700
G1 X1.204S0
G1 X0.22S700
G1 X0.405S0
G1 X0.284S700
G1 X0.367S0
G1 X0.271S700
G1 X0.468S0
G1 X0.29S700
G1 X0.362S0
G1 X0.271S700
G1 X0.4S0
G1 X0.446S700
G1 X0.069S0
G1 X0.129S700
G1 X0.788S0
G1 X0.291S700
G1 X0.329S0
G1 X0.384S700
G1 X0.41S0
G1 X0.291S700
G1 X0.361S0
G1 X0.271S700
G1 X1.667S0
G1 X-0.037Y0.05S0
G1 X-1.666S0
G1 X-0.408S700
G1 X-0.016S0
G1 X-0.418S700
G1 X-0.455S0
G1 X-0.965S700
G1 X-0.808S0
G1 X-0.439S700
G1 X-0.026S0
G1 X-0.198S700
G1 X-0.437S0
G1 X-0.407S700
G1 X-0.016S0
G1 X-0.418S700
G1 X-0.549S0
G1 X-0.842S700
G1 X-0.449S0
G1 X-0.22S700
G1 X-1.232S0
G1 X-0.759S700
G1 X-0.029S0
G1 X-0.198S700
G1 X-0.439S0
G1 X-0.842S700
G1 X-0.454S0
G1 X-0.966S700
G1 X-0.458S0
G1 X-0.71S700
G1 X-0.062S0
G1 X-0.711S700
G1 X-0.024S0
G1 X-0.197S700
G1 X-0.439S0
G1 X-0.407S700
G1 X-0.017S0
G1 X-0.417S700
G1 X-1.318S0
G1 X-0.37S700
G1 X-0.137S0
G1 X-0.355S700
G1 X-0.415S0
G1 X-0.988S700
G1 X-0.788S0
G1 X-0.211S700
G1 X-0.471S0
G1 X-0.307S700
G1 X-0.473S0
G1 X-0.222S700
G1 X-0.121S0
G1 X-0.211S700
G1 X-0.471S0
G1 X-0.307S700
G1 X-0.473S0
G1 X-0.222S700
G1 X-0.121S0
G1 X-0.211S700
G1 X-0.471S0
G1 X-0.308S700
G1 X-0.472S0
G1 X-0.222S700
G1 X-1.667S0
G1 X-0.015Y0.05S0
G1 X1.666S0
G1 X0.224S700
G1 X0.5S0
G1 X0.281S700
G1 X0.499S0
G1 X0.211S700
G1 X0.091S0
G1 X0.224S700
G1 X0.499S0
G1 X0.281S700
G1 X0.499S0
G1 X0.212S700
G1 X0.09S0
G1 X0.223S700
G1 X0.5S0
G1 X0.281S700
G1 X0.499S0
G1 X0.212S700
G1 X0.772S0
G1 X0.22S700
G1 X0.052S0
G1 X0.682S700
G1 X0.493S0
G1 X0.774S700
G1 X1.406S0
G1 X0.738S700
G1 X0.498S0
G1 X0.197S700
G1 X0.065S0
G1 X0.643S700
G1 X0.131S0
G1 X0.63S700
G1 X0.535S0
G1 X0.666S700
G1 X0.042S0
G1 X0.219S700
G1 X0.499S0
G1 X0.738S700
G1 X0.498S0
G1 X0.198S700
G1 X0.075S0
G1 X0.678S700
G1 X1.267S0
G1 X0.22S700
G1 X0.494S0
G1 X0.738S700
G1 X0.652S0
G1 X0.738S700
G1 X0.496S0
G1 X0.198S700
G1 X0.057S0
G1 X0.426S700
G1 X0.828S0
G1 X0.667S700
G1 X0.042S0
G1 X0.218S700
G1 X0.5S0
G1 X0.737S700
G1 X1.667S0
G1 X-0.07Y0.05S0
G1 X-1.667S0
G1 X-0.584S700
G1 X-0.583S0
G1 X-0.218S700
G1 X-0.111S0
G1 X-0.52S700
G1 X-0.887S0
G1 X-0.399S700
G1 X-0.103S0
G1 X-0.198S700
G1 X-0.567S0
G1 X-0.583S700
G1 X-0.807S0
G1 X-0.584S700
G1 X-0.577S0
G1 X-0.22S700
G1 X-1.328S0
G1 X-0.555S700
G1 X-0.137S0
G1 X-0.198S700
G1 X-0.569S0
G1 X-0.584S700
G1 X-0.582S0
G1 X-0.219S700
G1 X-0.111S0
G1 X-0.52S700
G1 X-0.667S0
G1 X-0.509S700
G1 X-0.266S0
G1 X-0.51S700
G1 X-0.129S0
G1 X-0.197S700
G1 X-0.569S0
G1 X-0.583S700
G1 X-1.552S0
G1 X-0.636S700
G1 X-0.629S0
G1 X-0.566S700
G1 X-0.108S0
G1 X-0.22S700
G1 X-0.757S0
G1 X-0.213S700
G1 X-0.526S0
G1 X-0.254S700
G1 X-0.527S0
G1 X-0.226S700
G1 X-0.059S0
G1 X-0.212S700
G1 X-0.527S0
G1 X-0.254S700
G1 X-0.527S0
G1 X-0.226S700
G1 X-0.059S0
G1 X-0.213S700
G1 X-0.526S0
G1 X-0.254S700
G1 X-0.527S0
G1 X-0.226S700
G1 X-1.667S0
G1 X-0.015Y0.05S0
G1 X1.667S0
G1 X0.227S700
G1 X0.555S0
G1 X0.227S700
G1 X0.554S0
G1 X0.214S700
G1 X0.028S0
G1 X0.227S700
G1 X0.555S0
G1 X0.227S700
G1 X0.554S0
G1 X0.214S700
G1 X0.028S0
G1 X0.227S700
G1 X0.555S0
G1 X0.227S700
G1 X0.554S0
G1 X0.214S700
G1 X0.741S0
G1 X0.22S700
G1 X0.214S0
G1 X0.361S700
G1 X0.835S0
G1 X0.411S700
G1 X1.765S0
G1 X0.382S700
G1 X0.675S0
G1 X0.197S700
G1 X0.232S0
G1 X0.313S700
G1 X0.455S0
G1 X0.319S700
G1 X0.853S0
G1 X0.335S700
G1 X0.205S0
G1 X0.219S700
G1 X0.678S0
G1 X0.382S700
G1 X0.675S0
G1 X0.198S700
G1 X0.225S0
G1 X0.365S700
G1 X1.43S0
G1 X0.22S700
G1 X0.673S0
G1 X0.382S700
G1 X1.008S0
G1 X0.382S700
G1 X0.673S0
G1 X0.198S700
G1 X0.17S0
G1 X0.269S700
G1 X1.04S0
G1 X0.336S700
G1 X0.205S0
G1 X0.218S700
G1 X0.679S0
G1 X0.382S700
G1 X1.666S0
G1 X-1.06Y0.05S0
G1 X-1.667S0
G1 X-0.218S700
G1 X-5.336S0
G1 X-0.22S700
G1 X-3.953S0
G1 X-0.219S700
G1 X-7.552S0
G1 X-0.22S700
G1 X-1.666S0
G1 Y0.05S0
G1 X1.666S0
G1 X0.22S700
G1 X7.552S0
G1 X0.219S700
G1 X3.953S0
G1 X0.22S700
G1 X5.336S0
G1 X0.218S700
G1 X1.667S0
G1 Y0.05S0
G1 X-1.667S0
G1 X-0.218S700
G1 X-5.336S0
G1 X-0.22S700
G1 X-3.953S0
G1 X-0.219S700
G1 X-7.552S0
G1 X-0.22S700
G1 X-1.666S0
G1 Y0.05S0
G1 X1.666S0
G1 X0.22S700
G1 X7.552S0
G1 X0.219S700
G1 X3.953S0
G1 X0.22S700
G1 X5.336S0
G1 X0.218S700
G1 X1.667S0
G1 Y0.05S0
G1 X-1.667S0
G1 X-0.218S700
G1 X-5.336S0
G1 X-0.22S700
G1 X-3.953S0
G1 X-0.219S700
G1 X-7.552S0
G1 X-0.22S700
G1 X-1.666S0
G1 Y0.05S0
G1 X1.666S0
G1 X0.22S700
G1 X7.552S0
G1 X0.219S700
G1 X3.953S0
G1 X0.22S700
G1 X5.336S0
G1 X0.218S700
G1 X1.667S0
G1 Y0.05S0
G1 X-1.667S0
G1 X-0.218S700
G1 X-5.336S0
G1 X-0.22S700
G1 X-3.953S0
G1 X-0.219S700
G1 X-7.552S0
G1 X-0.22S700
G1 X-1.666S0
G1 Y0.05S0
G1 X1.666S0
G1 X0.22S700
G1 X7.552S0
G1 X0.219S700
G1 X3.953S0
G1 X0.22S700
G1 X5.336S0
G1 X0.218S700
G1 X1.667S0
G1 Y0.05S0
G1 X-1.667S0
G1 X-0.218S700
G1 X-5.336S0
G1 X-0.22S700
G1 X-3.953S0
G1 X-0.219S700
G1 X-7.552S0
G1 X-0.22S700
G1 X-1.666S0
G1 X36.823Y5S0
G1 X1.666S0
G1 X0.1S700
G1 X4.033S0
G1 X0.137S700
G1 X5.694S0
G1 X0.097S700
G1 X1.326S0
G1 X0.151S700
G1 X1.666S0
G1 X1.829Y0.05S0
G1 X-1.666S0
G1 X-0.22S700
G1 X-0.615S0
G1 X-0.219S700
G1 X-0.571S0
G1 X-0.536S700
G1 X-0.629S0
G1 X-0.204S700
G1 X-0.156S0
G1 X-0.432S700
G1 X-0.578S0
G1 X-0.219S700
G1 X-0.548S0
G1 X-0.22S700
G1 X-0.55S0
G1 X-0.22S700
G1 X-0.299S0
G1 X-1.335S700
G1 X-1.323S0
G1 X-0.542S700
G1 X-0.55S0
G1 X-1.179S700
G1 X-0.872S0
G1 X-0.225S700
G1 X-0.824S0
G1 X-0.477S700
G1 X-0.593S0
G1 X-1.18S700
G1 X-1.666S0
G1 X0.006Y0.05S0
G1 X1.667S0
G1 X1.173S700
G1 X0.518S0
G1 X0.646S700
G1 X0.736S0
G1 X0.225S700
G1 X0.873S0
G1 X1.172S700
G1 X0.457S0
G1 X0.721S700
G1 X1.237S0
G1 X1.335S700
G1 X0.299S0
G1 X0.22S700
G1 X0.55S0
G1 X0.22S700
G1 X0.549S0
G1 X0.218S700
G1 X0.499S0
G1 X0.586S700
G1 X0.081S0
G1 X0.204S700
G1 X0.533S0
G1 X0.71S700
G1 X0.493S0
G1 X0.219S700
G1 X0.616S0
G1 X0.219S700
G1 X1.667S0
G1 Y0.05S0
G1 X-1.667S0
G1 X-0.218S700
G1 X-0.617S0
G1 X-0.219S700
G1 X-0.428S0
G1 X-0.841S700
G1 X-0.467S0
G1 X-0.204S700
G1 X-0.035S0
G1 X-0.684S700
G1 X-0.447S0
G1 X-0.217S700
G1 X-0.55S0
G1 X-0.22S700
G1 X-0.55S0
G1 X-0.22S700
G1 X-0.299S0
G1 X-1.335S700
G1 X-1.179S0
G1 X-0.831S700
G1 X-0.405S0
G1 X-1.163S700
G1 X-0.876S0
G1 X-0.224S700
G1 X-0.692S0
G1 X-0.772S700
G1 X-0.443S0
G1 X-1.164S700
G1 X-1.666S0
G1 X0.016Y0.05S0
G1 X1.667S0
G1 X1.147S700
G1 X0.406S0
G1 X0.318S700
G1 X0.229S0
G1 X0.314S700
G1 X0.647S0
G1 X0.223S700
G1 X0.887S0
G1 X1.146S700
G1 X0.355S0
G1 X0.328S700
G1 X0.243S0
G1 X0.359S700
G1 X1.13S0
G1 X1.335S700
G1 X0.299S0
G1 X0.22S700
G1 X0.55S0
G1 X0.22S700
G1 X0.551S0
G1 X0.216S700
G1 X0.395S0
G1 X0.316S700
G1 X0.217S0
G1 X0.442S700
G1 X0.422S0
G1 X0.347S700
G1 X0.228S0
G1 X0.353S700
G1 X0.386S0
G1 X0.219S700
G1 X0.618S0
G1 X0.218S700
G1 X1.666S0
G1 Y0.05S0
G1 X-1.666S0
G1 X-0.217S700
G1 X-0.619S0
G1 X-0.219S700
G1 X-0.345S0
G1 X-0.295S700
G1 X-0.428S0
G1 X-0.274S700
G1 X-0.394S0
G1 X-0.349S700
G1 X-0.381S0
G1 X-0.276S700
G1 X-0.364S0
G1 X-0.215S700
G1 X-0.552S0
G1 X-0.22S700
G1 X-0.55S0
G1 X-0.22S700
G1 X-1.397S0
G1 X-0.237S700
G1 X-1.095S0
G1 X-0.293S700
G1 X-0.425S0
G1 X-0.279S700
G1 X-1.19S0
G1 X-0.26S700
G1 X-0.9S0
G1 X-0.223S700
G1 X-0.616S0
G1 X-0.267S700
G1 X-0.395S0
G1 X-0.272S700
G1 X-1.238S0
G1 X-0.26S700
G1 X-1.666S0
G1 X0.027Y0.05S0
G1 X1.667S0
G1 X0.268S700
G1 X1.165S0
G1 X0.263S700
G1 X0.495S0
G1 X0.241S700
G1 X0.595S0
G1 X0.224S700
G1 X0.92S0
G1 X0.268S700
G1 X1.126S0
G1 X0.258S700
G1 X0.524S0
G1 X0.27S700
G1 X1.068S0
G1 X0.237S700
G1 X1.397S0
G1 X0.22S700
G1 X0.55S0
G1 X0.22S700
G1 X0.553S0
G1 X0.214S700
G1 X0.333S0
G1 X0.25S700
G1 X0.469S0
G1 X0.318S700
G1 X0.366S0
G1 X0.252S700
G1 X0.532S0
G1 X0.265S700
G1 X0.321S0
G1 X0.219S700
G1 X0.62S0
G1 X0.217S700
G1 X1.666S0
G1 Y0.05S0
G1 X-1.666S0
G1 X-0.216S700
G1 X-0.621S0
G1 X-0.219S700
G1 X-0.301S0
G1 X-0.247S700
G1 X-0.608S0
G1 X-0.242S700
G1 X-0.338S0
G1 X-0.287S700
G1 X-0.533S0
G1 X-0.246S700
G1 X-0.304S0
G1 X-0.213S700
G1 X-0.554S0
G1 X-0.22S700
G1 X-0.55S0
G1 X-0.22S700
G1 X-1.397S0
G1 X-0.237S700
G1 X-1.042S0
G1 X-0.252S700
G1 X-0.602S0
G1 X-0.25S700
G1 X-1.048S0
G1 X-0.287S700
G1 X-0.942S0
G1 X-0.229S700
G1 X-0.573S0
G1 X-0.234S700
G1 X-0.575S0
G1 X-0.238S700
G1 X-1.092S0
G1 X-0.288S700
G1 X-1.667S0
G1 X0.042Y0.05S0
G1 X1.666S0
G1 X0.299S700
G1 X1.027S0
G1 X0.229S700
G1 X0.622S0
G1 X0.228S700
G1 X0.564S0
G1 X0.231S700
G1 X0.971S0
G1 X0.299S700
G1 X0.984S0
G1 X0.239S700
G1 X0.644S0
G1 X0.244S700
G1 X1.03S0
G1 X0.237S700
G1 X1.397S0
G1 X0.22S700
G1 X0.55S0
G1 X0.22S700
G1 X0.555S0
G1 X0.212S700
G1 X0.288S0
G1 X0.228S700
G1 X0.598S0
G1 X0.256S700
G1 X0.316S0
G1 X0.233S700
G1 X0.664S0
G1 X0.242S700
G1 X0.281S0
G1 X0.219S700
G1 X0.622S0
G1 X0.215S700
G1 X1.667S0
G1 Y0.05S0
G1 X-1.666S0
G1 X-0.215S700
G1 X-0.623S0
G1 X-0.219S700
G1 X-1.206S0
G1 X-0.225S700
G1 X-0.305S0
G1 X-0.234S700
G1 X-0.637S0
G1 X-0.227S700
G1 X-0.272S0
G1 X-0.211S700
G1 X-0.556S0
G1 X-0.22S700
G1 X-0.55S0
G1 X-0.22S700
G1 X-1.397S0
G1 X-0.237S700
G1 X-1.018S0
G1 X-0.236S700
G1 X-0.68S0
G1 X-0.233S700
G1 X-0.922S0
G1 X-0.305S700
G1 X-1.006S0
G1 X-0.229S700
G1 X-0.565S0
G1 X-0.228S700
G1 X-0.654S0
G1 X-0.222S700
G1 X-0.962S0
G1 X-0.304S700
G1 X-1.667S0
G1 X0.048Y0.05S0
G1 X1.667S0
G1 X0.308S700
G1 X0.897S0
G1 X0.215S700
G1 X0.687S0
G1 X0.226S700
G1 X0.568S0
G1 X0.227S700
G1 X1.042S0
G1 X0.309S700
G1 X0.884S0
G1 X0.203S700
G1 X0.706S0
G1 X0.234S700
G1 X1.01S0
G1 X0.237S700
G1 X1.397S0
G1 X0.22S700
G1 X0.55S0
G1 X0.22S700
G1 X0.556S0
G1 X0.211S700
G1 X0.257S0
G1 X0.226S700
G1 X0.665S0
G1 X0.222S700
G1 X0.294S0
G1 X0.219S700
G1 X1.223S0
G1 X0.219S700
G1 X0.623S0
G1 X0.215S700
G1 X1.667S0
G1 Y0.05S0
G1 X-1.668S0
G1 X-0.216S700
G1 X-0.621S0
G1 X-0.219S700
G1 X-1.23S0
G1 X-0.224S700
G1 X-0.282S0
G1 X-0.211S700
G1 X-0.686S0
G1 X-0.22S700
G1 X-0.253S0
G1 X-0.213S700
G1 X-0.554S0
G1 X-0.22S700
G1 X-0.55S0
G1 X-0.22S700
G1 X-1.397S0
G1 X-0.237S700
G1 X-1.012S0
G1 X-0.232S700
G1 X-1.741S0
G1 X-0.311S700
G1 X-1.077S0
G1 X-0.229S700
G1 X-0.57S0
G1 X-0.233S700
G1 X-0.694S0
G1 X-0.225S700
G1 X-0.831S0
G1 X-0.312S700
G1 X-1.666S0
G1 X0.057Y0.05S0
G1 X1.667S0
G1 X0.309S700
G1 X0.762S0
G1 X0.237S700
G1 X0.7S0
G1 X0.226S700
G1 X0.587S0
G1 X0.233S700
G1 X1.117S0
G1 X0.308S700
G1 X1.685S0
G1 X0.231S700
G1 X1.014S0
G1 X0.237S700
G1 X1.397S0
G1 X0.22S700
G1 X0.55S0
G1 X0.22S700
G1 X0.553S0
G1 X0.214S700
G1 X0.25S0
G1 X0.222S700
G1 X0.698S0
G1 X0.2S700
G1 X0.271S0
G1 X0.23S700
G1 X1.235S0
G1 X0.219S700
G1 X0.62S0
G1 X0.216S700
G1 X1.667S0
G1 Y0.05S0
G1 X-1.667S0
G1 X-0.218S700
G1 X-0.618S0
G1 X-0.219S700
G1 X-0.269S0
G1 X-1.196S700
G1 X-0.271S0
G1 X-0.193S700
G1 X-0.706S0
G1 X-0.224S700
G1 X-0.247S0
G1 X-0.215S700
G1 X-0.552S0
G1 X-0.22S700
G1 X-0.55S0
G1 X-0.22S700
G1 X-1.397S0
G1 X-0.237S700
G1 X-1.021S0
G1 X-0.236S700
G1 X-1.616S0
G1 X-0.308S700
G1 X-1.157S0
G1 X-0.236S700
G1 X-0.605S0
G1 X-0.222S700
G1 X-0.701S0
G1 X-0.24S700
G1 X-0.701S0
G1 X-0.308S700
G1 X-1.667S0
G1 X0.058Y0.05S0
G1 X1.666S0
G1 X0.307S700
G1 X0.641S0
G1 X0.254S700
G1 X0.679S0
G1 X0.23S700
G1 X0.622S0
G1 X0.24S700
G1 X1.198S0
G1 X0.307S700
G1 X1.538S0
G1 X0.241S700
G1 X1.037S0
G1 X0.237S700
G1 X1.397S0
G1 X0.22S700
G1 X0.55S0
G1 X0.22S700
G1 X0.55S0
G1 X0.217S700
G1 X0.247S0
G1 X0.224S700
G1 X0.701S0
G1 X0.198S700
G1 X0.274S0
G1 X1.193S700
G1 X0.269S0
G1 X0.219S700
G1 X0.616S0
G1 X0.219S700
G1 X1.667S0
G1 Y0.05S0
G1 X-1.668S0
G1 X-0.22S700
G1 X-0.613S0
G1 X-0.22S700
G1 X-0.269S0
G1 X-1.189S700
G1 X-0.278S0
G1 X-0.203S700
G1 X-0.697S0
G1 X-0.221S700
G1 X-0.249S0
G1 X-0.218S700
G1 X-0.549S0
G1 X-0.22S700
G1 X-0.547S0
G1 X-0.223S700
G1 X-1.397S0
G1 X-0.237S700
G1 X-1.053S0
G1 X-0.247S700
G1 X-1.459S0
G1 X-0.307S700
G1 X-1.237S0
G1 X-0.241S700
G1 X-0.647S0
G1 X-0.235S700
G1 X-0.649S0
G1 X-0.275S700
G1 X-0.58S0
G1 X-0.306S700
G1 X-1.667S0
G1 X0.057Y0.05S0
G1 X1.666S0
G1 X0.307S700
G1 X0.519S0
G1 X0.296S700
G1 X0.606S0
G1 X0.241S700
G1 X0.688S0
G1 X0.237S700
G1 X1.277S0
G1 X0.306S700
G1 X1.352S0
G1 X0.272S700
G1 X1.079S0
G1 X0.237S700
G1 X1.397S0
G1 X0.225S700
G1 X0.545S0
G1 X0.221S700
G1 X0.546S0
G1 X0.22S700
G1 X0.25S0
G1 X0.22S700
G1 X0.692S0
G1 X0.208S700
G1 X0.281S0
G1 X0.231S700
G1 X0.723S0
G1 X0.233S700
G1 X0.268S0
G1 X0.223S700
G1 X0.609S0
G1 X0.221S700
G1 X1.666S0
G1 Y0.05S0
G1 X-1.667S0
G1 X-0.222S700
G1 X-0.603S0
G1 X-0.227S700
G1 X-0.276S0
G1 X-0.235S700
G1 X-0.706S0
G1 X-0.233S700
G1 X-0.286S0
G1 X-0.214S700
G1 X-0.675S0
G1 X-0.223S700
G1 X-0.258S0
G1 X-0.221S700
G1 X-0.543S0
G1 X-0.223S700
G1 X-0.542S0
G1 X-0.228S700
G1 X-0.407S0
G1 X-1.227S700
G1 X-1.112S0
G1 X-0.3S700
G1 X-1.237S0
G1 X-0.303S700
G1 X-1.312S0
G1 X-0.238S700
G1 X-0.728S0
G1 X-0.254S700
G1 X-0.543S0
G1 X-0.331S700
G1 X-0.462S0
G1 X-0.303S700
G1 X-1.667S0
G1 X0.057Y0.05S0
G1 X1.667S0
G1 X0.294S700
G1 X0.41S0
G1 X0.38S700
G1 X0.452S0
G1 X0.281S700
G1 X0.769S0
G1 X0.239S700
G1 X1.345S0
G1 X0.294S700
G1 X0.861S0
G1 X0.591S700
G1 X1.15S0
G1 X1.227S700
G1 X0.407S0
G1 X0.238S700
G1 X0.529S0
G1 X0.228S700
G1 X0.539S0
G1 X0.223S700
G1 X0.271S0
G1 X0.225S700
G1 X0.637S0
G1 X0.237S700
G1 X0.304S0
G1 X0.227S700
G1 X0.684S0
G1 X0.229S700
G1 X0.292S0
G1 X0.238S700
G1 X0.59S0
G1 X0.223S700
G1 X1.667S0
G1 Y0.05S0
G1 X-1.668S0
G1 X-0.228S700
G1 X-0.572S0
G1 X-0.25S700
G1 X-0.308S0
G1 X-0.226S700
G1 X-0.652S0
G1 X-0.227S700
G1 X-0.323S0
G1 X-0.26S700
G1 X-0.595S0
G1 X-0.232S700
G1 X-0.284S0
G1 X-0.223S700
G1 X-0.521S0
G1 X-0.25S700
G1 X-0.513S0
G1 X-0.249S700
G1 X-0.407S0
G1 X-1.227S700
G1 X-1.225S0
G1 X-0.51S700
G1 X-0.819S0
G1 X-0.289S700
G1 X-1.374S0
G1 X-0.242S700
G1 X-0.828S0
G1 X-0.307S700
G1 X-0.312S0
G1 X-0.233S700
G1 X-0.218
G1 X-0.368S0
G1 X-0.289S700
G1 X-1.666S0
G1 X0.049Y0.05S0
G1 X1.666S0
G1 X0.279S700
G1 X0.334S0
G1 X0.211S700
G1 X0.048S0
G1 X0.767S700
G1 X0.888S0
G1 X0.245S700
G1 X1.399S0
G1 X0.279S700
G1 X0.787S0
G1 X0.398S700
G1 X1.33S0
G1 X1.227S700
G1 X0.407S0
G1 X0.272S700
G1 X0.483S0
G1 X0.282S700
G1 X0.485S0
G1 X0.232S700
G1 X0.306S0
G1 X0.243S700
G1 X0.541S0
G1 X0.283S700
G1 X0.341S0
G1 X0.23S700
G1 X0.605S0
G1 X0.235S700
G1 X0.325S0
G1 X0.276S700
G1 X0.533S0
G1 X0.234S700
G1 X1.667S0
G1 X-0.008Y0.05S0
G1 X-1.666S0
G1 X-0.253S700
G1 X-0.471S0
G1 X-0.312S700
G1 X-0.353S0
G1 X-0.24S700
G1 X-0.528S0
G1 X-0.256S700
G1 X-0.359S0
G1 X-0.309S700
G1 X-0.483S0
G1 X-0.251S700
G1 X-0.332S0
G1 X-0.247S700
G1 X-0.437S0
G1 X-0.331S700
G1 X-0.431S0
G1 X-0.306S700
G1 X-0.407S0
G1 X-1.227S700
G1 X-1.249S0
G1 X-0.473S700
G1 X-0.762S0
G1 X-0.274S700
G1 X-1.412S0
G1 X-0.247S700
G1 X-0.953S0
G1 X-0.676S700
G1 X-0.095S0
G1 X-0.206S700
G1 X-0.307S0
G1 X-0.275S700
G1 X-1.666S0
G1 X0.033Y0.05S0
G1 X1.667S0
G1 X0.264S700
G1 X0.289S0
G1 X0.201S700
G1 X0.16S0
G1 X0.541S700
G1 X1.051S0
G1 X0.243S700
G1 X1.422S0
G1 X0.263S700
G1 X0.97S0
G1 X0.29S700
G1 X1.201S0
G1 X0.237S700
G1 X1.397S0
G1 X0.365S700
G1 X0.335S0
G1 X0.433S700
G1 X0.336S0
G1 X0.265S700
G1 X0.375S0
G1 X0.284S700
G1 X0.371S0
G1 X0.363S700
G1 X0.394S0
G1 X0.274S700
G1 X0.423S0
G1 X0.256S700
G1 X0.389S0
G1 X0.371S700
G1 X0.374S0
G1 X0.279S700
G1 X1.667S0
G1 X-0.028Y0.05S0
G1 X-1.667S0
G1 X-0.348S700
G1 X-0.149S0
G1 X-0.289S700
G1 X-0.012S0
G1 X-0.198S700
G1 X-0.426S0
G1 X-0.313S700
G1 X-0.237S0
G1 X-0.321S700
G1 X-0.439S0
G1 X-0.457S700
G1 X-0.19S0
G1 X-0.333S700
G1 X-0.435S0
G1 X-0.329S700
G1 X-0.119S0
G1 X-0.286S700
G1 X-0.036S0
G1 X-0.319S700
G1 X-0.134S0
G1 X-0.283S700
G1 X-0.206
G1 X-1.397S0
G1 X-0.237S700
G1 X-1.161S0
G1 X-0.261S700
G1 X-1.02S0
G1 X-0.259S700
G1 X-1.414S0
G1 X-0.244S700
G1 X-1.165S0
G1 X-0.359S700
G1 X-0.251S0
G1 X-0.203S700
G1 X-0.276S0
G1 X-0.258S700
G1 X-1.667S0
G1 X0.023Y0.05S0
G1 X1.667S0
G1 X0.247S700
G1 X0.27S0
G1 X0.208S700
G1 X1.793S0
G1 X0.245S700
G1 X1.408S0
G1 X0.247S700
G1 X1.056S0
G1 X0.241S700
G1 X1.133S0
G1 X0.237S700
G1 X1.397S0
G1 X0.197S700
G1 X0.05S0
G1 X0.668S700
G1 X0.105S0
G1 X0.665S700
G1 X0.501S0
G1 X0.698S700
G1 X0.025S0
G1 X0.218S700
G1 X0.483S0
G1 X0.78S700
G1 X0.473S0
G1 X0.198S700
G1 X0.058S0
G1 X0.711S700
G1 X1.667S0
G1 X-0.055Y0.05S0
G1 X-1.666S0
G1 X-0.61S700
G1 X-0.105S0
G1 X-0.198S700
G1 X-0.543S0
G1 X-0.645S700
G1 X-0.548S0
G1 X-0.218S700
G1 X-0.077S0
G1 X-0.583S700
G1 X-0.618S0
G1 X-0.558S700
G1 X-0.212S0
G1 X-0.56S700
G1 X-0.104S0
G1 X-0.197S700
G1 X-1.397S0
G1 X-0.237S700
G1 X-1.117S0
G1 X-0.231S700
G1 X-1.074S0
G1 X-0.241S700
G1 X-1.391S0
G1 X-0.246S700
G1 X-1.811S0
G1 X-0.206S700
G1 X-0.276S0
G1 X-0.241S700
G1 X-1.666S0
G1 X-0.855Y0.05S0
G1 X1.667S0
G1 X0.189S700
G1 X0.678S0
G1 X0.231S700
G1 X0.287S0
G1 X0.206S700
G1 X1.826S0
G1 X0.248S700
G1 X0.505S0
G1 X0.19S700
G1 X0.678S0
G1 X0.231S700
G1 X1.093S0
G1 X0.226S700
G1 X1.1S0
G1 X0.237S700
G1 X1.397S0
G1 X0.197S700
G1 X0.182S0
G1 X0.412S700
G1 X0.36S0
G1 X0.414S700
G1 X0.762S0
G1 X0.412S700
G1 X0.17S0
G1 X0.218S700
G1 X0.644S0
G1 X0.479S700
G1 X0.613S0
G1 X0.198S700
G1 X0.192S0
G1 X0.454S700
G1 X1.667S0
G1 X-0.234Y0.05S0
G1 X-1.667S0
G1 X-0.054S700
G1 X-1.367S0
G1 X-0.058S700
G1 X-0.867S0
G1 X-0.218S700
G1 X-4.306S0
G1 X-0.237S700
G1 X-1.099S0
G1 X-0.223S700
G1 X-0.605S0
G1 X-0.185S700
G1 X-0.31S0
G1 X-0.225S700
G1 X-0.677S0
G1 X-0.226S700
G1 X-0.442S0
G1 X-0.249S700
G1 X-1.832S0
G1 X-0.216S700
G1 X-0.303S0
G1 X-0.226S700
G1 X-0.677S0
G1 X-0.225S700
G1 X-1.667S0
G1 X0.007Y0.05S0
G1 X1.666S0
G1 X0.233S700
G1 X0.652S0
G1 X0.231S700
G1 X0.323S0
G1 X0.227S700
G1 X0.606S0
G1 X0.227S700
G1 X1.009S0
G1 X0.249S700
G1 X0.414S0
G1 X0.233S700
G1 X0.652S0
G1 X0.231S700
G1 X0.282S0
G1 X0.232S700
G1 X0.591S0
G1 X0.222S700
G1 X1.1S0
G1 X0.237S700
G1 X4.306S0
G1 X0.218S700
G1 X1.667S0
G1 Y0.05S0
G1 X-1.667S0
G1 X-0.218S700
G1 X-4.306S0
G1 X-0.237S700
G1 X-1.102S0
G1 X-0.235S700
G1 X-0.562S0
G1 X-0.234S700
G1 X-0.307S0
G1 X-0.229S700
G1 X-0.624S0
G1 X-0.235S700
G1 X-0.39S0
G1 X-0.25S700
G1 X-1.058S0
G1 X-0.233S700
G1 X-0.564S0
G1 X-0.237S700
G1 X-0.351S0
G1 X-0.229S700
G1 X-0.624S0
G1 X-0.235S700
G1 X-1.667S0
G1 X0.017Y0.05S0
G1 X1.667S0
G1 X0.247S700
G1 X0.561S0
G1 X0.249S700
G1 X0.387S0
G1 X0.256S700
G1 X0.499S0
G1 X0.246S700
G1 X1.108S0
G1 X0.25S700
G1 X0.368S0
G1 X0.247S700
G1 X0.561S0
G1 X0.249S700
G1 X0.34S0
G1 X0.246S700
G1 X0.511S0
G1 X0.234S700
G1 X1.123S0
G1 X0.237S700
G1 X4.306S0
G1 X0.218S700
G1 X1.667S0
G1 Y0.05S0
G1 X-1.667S0
G1 X-0.218S700
G1 X-4.306S0
G1 X-0.237S700
G1 X-1.144S0
G1 X-0.251S700
G1 X-0.437S0
G1 X-0.257S700
G1 X-0.39S0
G1 X-0.26S700
G1 X-0.482S0
G1 X-0.265S700
G1 X-0.354S0
G1 X-0.251S700
G1 X-1.169S0
G1 X-0.266S700
G1 X-0.416S0
G1 X-0.262S700
G1 X-0.446S0
G1 X-0.26S700
G1 X-0.482S0
G1 X-0.264S700
G1 X-1.667S0
G1 X0.029Y0.05S0
G1 X1.666S0
G1 X0.311S700
G1 X0.331S0
G1 X0.309S700
G1 X0.508S0
G1 X0.288S700
G1 X0.298S0
G1 X0.295S700
G1 X0.343S0
G1 X1.143S700
G1 X0.345S0
G1 X0.31S700
G1 X0.331S0
G1 X0.31S700
G1 X0.447S0
G1 X0.298S700
G1 X0.3S0
G1 X0.288S700
G1 X1.173S0
G1 X0.237S700
G1 X4.306S0
G1 X0.218S700
G1 X1.667S0
G1 Y0.05S0
G1 X-1.667S0
G1 X-0.218S700
G1 X-3.249S0
G1 X-1.294S700
G1 X-1.225S0
G1 X-0.793S700
G1 X-0.527S0
G1 X-0.87S700
G1 X-0.371S0
G1 X-1.159S700
G1 X-0.38S0
G1 X-0.809S700
G1 X-0.582S0
G1 X-0.87S700
G1 X-1.667S0
G1 X0.055Y0.05S0
G1 X1.667S0
G1 X0.755S700
G1 X0.708S0
G1 X0.693S700
G1 X0.43S0
G1 X1.159S700
G1 X0.425S0
G1 X0.756S700
G1 X0.639S0
G1 X0.688S700
G1 X1.278S0
G1 X1.294S700
G1 X3.249S0
G1 X0.218S700
G1 X1.667S0
G1 Y0.05S0
G1 X-1.667S0
G1 X-0.218S700
G1 X-3.249S0
G1 X-1.294S700
G1 X-1.356S0
G1 X-0.545S700
G1 X-0.794S0
G1 X-0.57S700
G1 X-0.521S0
G1 X-1.159S700
G1 X-0.501S0
G1 X-0.547S700
G1 X-0.873S0
G1 X-0.57S700
G1 X-1.666S0
G1 X0.135Y0.05S0
G1 X1.667S0
G1 X0.292S700
G1 X1.153S0
G1 X0.279S700
G1 X2.447S0
G1 X0.292S700
G1 X1.084S0
G1 X0.279S700
G1 X1.475S0
G1 X1.294S700
G1 X3.249S0
G1 X0.218S700
G1 X1.667S0
G1 X-0.27Y0.65S0
G1 X-1.667S0
G1 X-0.219S700
G1 X-1.667S0
G1 Y0.05S0
G1 X1.667S0
G1 X0.219S700
G1 X1.667S0
G1 Y0.05S0
G1 X-1.667S0
G1 X-0.219S700
G1 X-1.667S0
G1 Y0.05S0
G1 X1.667S0
G1 X0.219S700
G1 X1.667S0
G1 Y0.05S0
G1 X-1.667S0
G1 X-0.219S700
G1 X-1.667S0
G1 Y0.05S0
G1 X1.667S0
G1 X0.219S700
G1 X1.667S0
G1 Y0.05S0
G1 X-1.667S0
G1 X-0.219S700
G1 X-1.667S0
G1 Y0.05S0
G1 X1.667S0
G1 X0.219S700
G1 X1.667S0
G1 Y0.05S0
G1 X-1.667S0
G1 X-0.219S700
G1 X-1.667S0
G1 X-11.407Y0.05S0
G1 X1.667S0
G1 X0.458S700
G1 X1.139S0
G1 X0.374S700
G1 X0.68S0
G1 X0.22S700
G1 X0.614S0
G1 X0.22S700
G1 X0.573S0
G1 X0.428S700
G1 X0.822S0
G1 X0.263S700
G1 X0.378S0
G1 X0.366S700
G1 X0.341S0
G1 X0.23S700
G1 X0.27S0
G1 X0.22S700
G1 X0.614S0
G1 X0.22S700
G1 X0.573S0
G1 X0.263S700
G1 X0.196S0
G1 X0.22S700
G1 X0.517S0
G1 X0.366S700
G1 X0.341S0
G1 X0.23S700
G1 X0.271S0
G1 X0.219S700
G1 X0.2S0
G1 X0.312S700
G1 X0.654S0
G1 X0.219S700
G1 X0.524S0
G1 X0.365S700
G1 X0.342S0
G1 X0.229S700
G1 X0.507S0
G1 X0.263S700
G1 X0.08S0
G1 X1.147S700
G1 X1.556S0
G1 X0.22S700
G1 X1.667S0
G1 Y0.05S0
G1 X-1.667S0
G1 X-0.22S700
G1 X-1.556S0
G1 X-1.147S700
G1 X-0.075S0
G1 X-0.371S700
G1 X-0.427S0
G1 X-0.225S700
G1 X-0.184S0
G1 X-0.603S700
G1 X-0.425S0
G1 X-0.219S700
G1 X-0.555S0
G1 X-0.509S700
G1 X-0.102S0
G1 X-0.219S700
G1 X-0.294S0
G1 X-0.226S700
G1 X-0.183S0
G1 X-0.604S700
G1 X-0.418S0
G1 X-0.22S700
G1 X-0.192S0
G1 X-0.371S700
G1 X-0.469S0
G1 X-0.219S700
G1 X-0.615S0
G1 X-0.22S700
G1 X-0.293S0
G1 X-0.226S700
G1 X-0.184S0
G1 X-0.603S700
G1 X-0.275S0
G1 X-0.371S700
G1 X-0.588S0
G1 X-0.672S700
G1 X-0.459S0
G1 X-0.219S700
G1 X-0.615S0
G1 X-0.22S700
G1 X-0.576S0
G1 X-0.6S700
G1 X-0.864S0
G1 X-0.747S700
G1 X-1.666S0
G1 X-0.082Y0.05S0
G1 X1.667S0
G1 X0.898S700
G1 X0.727S0
G1 X0.756S700
G1 X0.487S0
G1 X0.22S700
G1 X0.616S0
G1 X0.219S700
G1 X0.398S0
G1 X0.789S700
G1 X0.488S0
G1 X0.406S700
G1 X0.225S0
G1 X0.734S700
G1 X0.097S0
G1 X0.223S700
G1 X0.31S0
G1 X0.22S700
G1 X0.616S0
G1 X0.219S700
G1 X0.424S0
G1 X0.407S700
G1 X0.2S0
G1 X0.22S700
G1 X0.36S0
G1 X0.734S700
G1 X0.097S0
G1 X0.223S700
G1 X0.311S0
G1 X0.219S700
G1 X0.034S0
G1 X0.654S700
G1 X0.478S0
G1 X0.219S700
G1 X0.366S0
G1 X0.735S700
G1 X0.097S0
G1 X0.223S700
G1 X0.399S0
G1 X0.406S700
G1 X0.084S0
G1 X1.147S700
G1 X1.556S0
G1 X0.22S700
G1 X1.667S0
G1 Y0.05S0
G1 X-1.667S0
G1 X-0.22S700
G1 X-1.556S0
G1 X-1.147S700
G1 X-0.092S0
G1 X-0.423S700
G1 X-0.383S0
G1 X-0.223S700
G1 X-0.015S0
G1 X-0.337S700
G1 X-0.136S0
G1 X-0.379S700
G1 X-0.322S0
G1 X-0.219S700
G1 X-0.435S0
G1 X-0.95S700
G1 X-0.32S0
G1 X-0.223S700
G1 X-0.015S0
G1 X-0.337S700
G1 X-0.135S0
G1 X-0.379S700
G1 X-0.316S0
G1 X-0.22S700
G1 X-0.208S0
G1 X-0.424S700
G1 X-0.399S0
G1 X-0.218S700
G1 X-0.617S0
G1 X-0.22S700
G1 X-0.319S0
G1 X-0.223S700
G1 X-0.015S0
G1 X-0.337S700
G1 X-0.136S0
G1 X-0.378S700
G1 X-0.189S0
G1 X-0.423S700
G1 X-0.407S0
G1 X-0.395S700
G1 X-0.087S0
G1 X-0.415S700
G1 X-0.346S0
G1 X-0.218S700
G1 X-0.617S0
G1 X-0.22S700
G1 X-0.44S0
G1 X-0.867S700
G1 X-0.592S0
G1 X-1.047S700
G1 X-1.667S0
G1 X-0.036Y0.05S0
G1 X1.667S0
G1 X0.395S700
G1 X0.351S0
G1 X0.391S700
G1 X0.506S0
G1 X0.302S700
G1 X0.341S0
G1 X0.304S700
G1 X0.392S0
G1 X0.22S700
G1 X0.618S0
G1 X0.217S700
G1 X0.315S0
G1 X0.299S700
G1 X0.393S0
G1 X0.258S700
G1 X0.365S0
G1 X0.281S700
G1 X0.329S0
G1 X0.278S700
G1 X0.408S0
G1 X0.416S700
G1 X0.328S0
G1 X0.22S700
G1 X0.618S0
G1 X0.218S700
G1 X0.379S0
G1 X0.281S700
G1 X0.37S0
G1 X0.22S700
G1 X0.295S0
G1 X0.268S700
G1 X0.417S0
G1 X0.416S700
G1 X0.329S0
G1 X0.389S700
G1 X0.31S0
G1 X0.293S700
G1 X0.393S0
G1 X0.219S700
G1 X0.301S0
G1 X0.268S700
G1 X0.417S0
G1 X0.416S700
G1 X0.373S0
G1 X0.281S700
G1 X0.273S0
G1 X0.272S700
G1 X2.412S0
G1 X0.22S700
G1 X1.667S0
G1 Y0.05S0
G1 X-1.667S0
G1 X-0.22S700
G1 X-2.367S0
G1 X-0.274S700
G1 X-0.371S0
G1 X-0.235S700
G1 X-0.371S0
G1 X-0.34S700
G1 X-0.527S0
G1 X-0.248S700
G1 X-0.28S0
G1 X-0.219S700
G1 X-0.361S0
G1 X-0.264S700
G1 X-0.431S0
G1 X-0.329S700
G1 X-0.337S0
G1 X-0.34S700
G1 X-0.527S0
G1 X-0.248S700
G1 X-0.273S0
G1 X-0.22S700
G1 X-0.426S0
G1 X-0.234S700
G1 X-0.37S0
G1 X-0.217S700
G1 X-0.619S0
G1 X-0.22S700
G1 X-0.336S0
G1 X-0.34S700
G1 X-0.521S0
G1 X-0.254S700
G1 X-0.364S0
G1 X-0.234S700
G1 X-0.334S0
G1 X-0.23S700
G1 X-0.505S0
G1 X-0.268S700
G1 X-0.283S0
G1 X-0.217S700
G1 X-0.619S0
G1 X-0.22S700
G1 X-0.348S0
G1 X-0.282S700
G1 X-0.472S0
G1 X-0.269S700
G1 X-0.436S0
G1 X-0.327S700
G1 X-0.562S0
G1 X-0.321S700
G1 X-1.666S0
G1 X-0.034Y0.05S0
G1 X1.666S0
G1 X0.284S700
G1 X0.699S0
G1 X0.299S700
G1 X0.367S0
G1 X0.255S700
G1 X0.55S0
G1 X0.27S700
G1 X0.327S0
G1 X0.22S700
G1 X0.62S0
G1 X0.216S700
G1 X0.269S0
G1 X0.235S700
G1 X0.58S0
G1 X0.224S700
G1 X0.309S0
G1 X0.228S700
G1 X0.366S0
G1 X0.24S700
G1 X0.583S0
G1 X0.298S700
G1 X0.337S0
G1 X0.22S700
G1 X0.62S0
G1 X0.216S700
G1 X0.367S0
G1 X0.228S700
G1 X0.435S0
G1 X0.22S700
G1 X0.266S0
G1 X0.236S700
G1 X0.587S0
G1 X0.298S700
G1 X0.338S0
G1 X0.287S700
G1 X0.505S0
G1 X0.258S700
G1 X0.335S0
G1 X0.219S700
G1 X0.273S0
G1 X0.236S700
G1 X0.586S0
G1 X0.299S700
G1 X0.369S0
G1 X0.229S700
G1 X0.424S0
G1 X0.275S700
G1 X2.322S0
G1 X0.22S700
G1 X1.667S0
G1 Y0.05S0
G1 X-1.667S0
G1 X-0.22S700
G1 X-2.278S0
G1 X-0.275S700
G1 X-0.469S0
G1 X-0.223S700
G1 X-0.375S0
G1 X-0.267S700
G1 X-0.623S0
G1 X-0.231S700
G1 X-0.272S0
G1 X-0.219S700
G1 X-0.309S0
G1 X-0.252S700
G1 X-0.57S0
G1 X-0.254S700
G1 X-0.339S0
G1 X-0.267S700
G1 X-0.622S0
G1 X-0.231S700
G1 X-0.266S0
G1 X-0.22S700
G1 X-0.436S0
G1 X-0.222S700
G1 X-0.371S0
G1 X-0.216S700
G1 X-0.621S0
G1 X-0.22S700
G1 X-0.338S0
G1 X-0.267S700
G1 X-0.62S0
G1 X-0.233S700
G1 X-0.367S0
G1 X-0.222S700
G1 X-0.31S0
G1 X-0.216S700
G1 X-0.611S0
G1 X-0.229S700
G1 X-0.255S0
G1 X-0.216S700
G1 X-0.621S0
G1 X-0.22S700
G1 X-0.305S0
G1 X-0.258S700
G1 X-0.619S0
G1 X-0.238S700
G1 X-0.311S0
G1 X-0.286S700
G1 X-0.804S0
G1 X-0.264S700
G1 X-1.666S0
G1 X-0.034Y0.05S0
G1 X1.666S0
G1 X0.254S700
G1 X0.884S0
G1 X0.269S700
G1 X0.274S0
G1 X0.229S700
G1 X0.679S0
G1 X0.246S700
G1 X0.284S0
G1 X0.22S700
G1 X0.622S0
G1 X0.215S700
G1 X0.33S0
G1 X0.139S700
G1 X0.611S0
G1 X0.23S700
G1 X0.314S0
G1 X0.219S700
G1 X0.366S0
G1 X0.246S700
G1 X0.626S0
G1 X0.248S700
G1 X0.339S0
G1 X0.22S700
G1 X0.622S0
G1 X0.215S700
G1 X0.374S0
G1 X0.219S700
G1 X0.436S0
G1 X0.22S700
G1 X0.265S0
G1 X0.238S700
G1 X0.635S0
G1 X0.247S700
G1 X0.34S0
G1 X0.229S700
G1 X0.623S0
G1 X0.239S700
G1 X0.294S0
G1 X0.219S700
G1 X0.272S0
G1 X0.238S700
G1 X0.634S0
G1 X0.247S700
G1 X0.38S0
G1 X0.22S700
G1 X0.512S0
G1 X0.275S700
G1 X2.235S0
G1 X0.22S700
G1 X1.667S0
G1 X0.242Y0.05S0
G1 X-1.667S0
G1 X-1.238S700
G1 X-1.417S0
G1 X-0.273S700
G1 X-0.556S0
G1 X-0.22S700
G1 X-0.38S0
G1 X-0.23S700
G1 X-0.631S0
G1 X-0.241S700
G1 X-0.289S0
G1 X-0.219S700
G1 X-0.281S0
G1 X-0.238S700
G1 X-0.652S0
G1 X-0.214S700
G1 X-0.34S0
G1 X-0.23S700
G1 X-0.631S0
G1 X-0.242S700
G1 X-0.282S0
G1 X-0.22S700
G1 X-0.436S0
G1 X-0.219S700
G1 X-0.373S0
G1 X-0.215S700
G1 X-0.623S0
G1 X-0.22S700
G1 X-0.339S0
G1 X-0.23S700
G1 X-0.628S0
G1 X-0.245S700
G1 X-0.383S0
G1 X-0.219S700
G1 X-0.314S0
G1 X-0.261S700
G1 X-1.048S0
G1 X-0.215S700
G1 X-0.623S0
G1 X-0.22S700
G1 X-0.265S0
G1 X-0.251S700
G1 X-0.709S0
G1 X-0.231S700
G1 X-0.238S0
G1 X-0.258S700
G1 X-0.942S0
G1 X-0.243S700
G1 X-1.667S0
G1 X-0.017Y0.05S0
G1 X1.666S0
G1 X0.232S700
G1 X0.994S0
G1 X0.252S700
G1 X0.213S0
G1 X0.223S700
G1 X0.737S0
G1 X0.241S700
G1 X0.263S0
G1 X0.22S700
G1 X0.622S0
G1 X0.215S700
G1 X0.988S0
G1 X0.31S700
G1 X0.326S0
G1 X0.219S700
G1 X0.403S0
G1 X0.283S700
G1 X0.577S0
G1 X0.222S700
G1 X0.34S0
G1 X0.22S700
G1 X0.621S0
G1 X0.216S700
G1 X0.374S0
G1 X0.219S700
G1 X0.436S0
G1 X0.22S700
G1 X0.302S0
G1 X0.277S700
G1 X0.583S0
G1 X0.223S700
G1 X0.34S0
G1 X0.199S700
G1 X0.681S0
G1 X0.237S700
G1 X0.268S0
G1 X0.219S700
G1 X0.308S0
G1 X0.277S700
G1 X0.583S0
G1 X0.223S700
G1 X0.38S0
G1 X0.22S700
G1 X0.599S0
G1 X0.273S700
G1 X1.374S0
G1 X1.238S700
G1 X1.667S0
G1 Y0.05S0
G1 X-1.667S0
G1 X-1.238S700
G1 X-1.331S0
G1 X-0.272S700
G1 X-0.644S0
G1 X-0.219S700
G1 X-0.38S0
G1 X-0.216S700
G1 X-0.462S0
G1 X-0.377S700
G1 X-0.336S0
G1 X-0.219S700
G1 X-0.265S0
G1 X-0.225S700
G1 X-0.697S0
G1 X-0.198S700
G1 X-0.341S0
G1 X-0.216S700
G1 X-0.461S0
G1 X-0.378S700
G1 X-0.329S0
G1 X-0.22S700
G1 X-0.436S0
G1 X-0.219S700
G1 X-0.375S0
G1 X-0.216S700
G1 X-0.62S0
G1 X-0.22S700
G1 X-0.34S0
G1 X-0.216S700
G1 X-0.456S0
G1 X-0.383S700
G1 X-0.43S0
G1 X-0.219S700
G1 X-0.36S0
G1 X-0.461S700
G1 X-0.804S0
G1 X-0.216S700
G1 X-0.62S0
G1 X-0.22S700
G1 X-0.262S0
G1 X-0.23S700
G1 X-0.753S0
G1 X-0.225S700
G1 X-0.189S0
G1 X-0.253S700
G1 X-1.031S0
G1 X-0.229S700
G1 X-1.666S0
G1 X-0.017Y0.05S0
G1 X1.666S0
G1 X0.235S700
G1 X1.057S0
G1 X0.114S700
G1 X0.307S0
G1 X0.231S700
G1 X0.765S0
G1 X0.22S700
G1 X0.26S0
G1 X0.22S700
G1 X0.618S0
G1 X0.218S700
G1 X0.633S0
G1 X0.594S700
G1 X0.398S0
G1 X0.219S700
G1 X0.478S0
G1 X0.6S700
G1 X0.188S0
G1 X0.219S700
G1 X0.34S0
G1 X0.22S700
G1 X0.618S0
G1 X0.218S700
G1 X0.375S0
G1 X0.219S700
G1 X0.436S0
G1 X0.22S700
G1 X0.377S0
G1 X0.607S700
G1 X0.181S0
G1 X0.219S700
G1 X0.341S0
G1 X0.198S700
G1 X0.704S0
G1 X0.22S700
G1 X0.263S0
G1 X0.219S700
G1 X0.383S0
G1 X0.608S700
G1 X0.181S0
G1 X0.219S700
G1 X0.38S0
G1 X0.219S700
G1 X0.687S0
G1 X0.271S700
G1 X1.289S0
G1 X1.238S700
G1 X1.667S0
G1 X-0.242Y0.05S0
G1 X-1.667S0
G1 X-0.22S700
G1 X-0.546S0
G1 X-0.216S700
G1 X-1.26S0
G1 X-0.27S700
G1 X-0.731S0
G1 X-0.219S700
G1 X-0.38S0
G1 X-0.223S700
G1 X-0.73
G1 X-0.438S0
G1 X-0.219S700
G1 X-0.26S0
G1 X-0.223S700
G1 X-0.703S0
G1 X-0.199S700
G1 X-0.341S0
G1 X-0.222S700
G1 X-0.731
G1 X-0.431S0
G1 X-0.22S700
G1 X-0.436S0
G1 X-0.219S700
G1 X-0.376S0
G1 X-0.219S700
G1 X-0.616S0
G1 X-0.22S700
G1 X-0.34S0
G1 X-0.222S700
G1 X-0.731
G1 X-0.532S0
G1 X-0.219S700
G1 X-0.455S0
G1 X-0.678S700
G1 X-0.493S0
G1 X-0.218S700
G1 X-0.617S0
G1 X-0.22S700
G1 X-0.258S0
G1 X-0.223S700
G1 X-0.765S0
G1 X-0.232S700
G1 X-1.487S0
G1 X-0.241S700
G1 X-1.666S0
G1 X-0.014Y0.05S0
G1 X1.666S0
G1 X0.245S700
G1 X1.502S0
G1 X0.228S700
G1 X0.759S0
G1 X0.229S700
G1 X0.257S0
G1 X0.22S700
G1 X0.615S0
G1 X0.219S700
G1 X0.432S0
G1 X0.66S700
G1 X0.535S0
G1 X0.219S700
G1 X0.673S0
G1 X0.812S700
G1 X0.34S0
G1 X0.22S700
G1 X0.615S0
G1 X0.219S700
G1 X0.377S0
G1 X0.219S700
G1 X0.436S0
G1 X0.22S700
G1 X0.572S0
G1 X0.812S700
G1 X0.341S0
G1 X0.199S700
G1 X0.702S0
G1 X0.222S700
G1 X0.262S0
G1 X0.219S700
G1 X0.579S0
G1 X0.812S700
G1 X0.38S0
G1 X0.219S700
G1 X0.775S0
G1 X0.269S700
G1 X1.252S0
G1 X0.216S700
G1 X0.511S0
G1 X0.22S700
G1 X1.667S0
G1 Y0.05S0
G1 X-1.667S0
G1 X-0.22S700
G1 X-0.477S0
G1 X-0.214S700
G1 X-1.246S0
G1 X-0.268S700
G1 X-0.818S0
G1 X-0.219S700
G1 X-0.38S0
G1 X-0.565S700
G1 X-0.826S0
G1 X-0.219S700
G1 X-0.265S0
G1 X-0.219S700
G1 X-0.702S0
G1 X-0.199S700
G1 X-0.341S0
G1 X-0.565S700
G1 X-0.819S0
G1 X-0.22S700
G1 X-0.436S0
G1 X-0.219S700
G1 X-0.377S0
G1 X-0.221S700
G1 X-0.611S0
G1 X-0.222S700
G1 X-0.34S0
G1 X-0.565S700
G1 X-0.92S0
G1 X-0.219S700
G1 X-0.688S0
G1 X-0.57S700
G1 X-0.37S0
G1 X-0.22S700
G1 X-0.611S0
G1 X-0.222S700
G1 X-0.257S0
G1 X-0.234S700
G1 X-0.754S0
G1 X-0.222S700
G1 X-1.515S0
G1 X-0.241S700
G1 X-1.666S0
G1 Y0.05S0
G1 X1.663S0
G1 X0.238S700
G1 X1.527S0
G1 X0.221S700
G1 X0.744S0
G1 X0.237S700
G1 X0.259S0
G1 X0.225S700
G1 X0.606S0
G1 X0.222S700
G1 X0.326S0
G1 X0.429S700
G1 X0.873S0
G1 X0.219S700
G1 X1.157S0
G1 X0.328S700
G1 X0.34S0
G1 X0.225S700
G1 X0.606S0
G1 X0.222S700
G1 X0.378S0
G1 X0.219S700
G1 X0.436S0
G1 X0.22S700
G1 X1.056S0
G1 X0.328S700
G1 X0.341S0
G1 X0.2S700
G1 X0.692S0
G1 X0.226S700
G1 X0.267S0
G1 X0.22S700
G1 X1.062S0
G1 X0.327S700
G1 X0.381S0
G1 X0.219S700
G1 X0.862S0
G1 X0.267S700
G1 X1.238S0
G1 X0.214S700
G1 X0.442S0
G1 X0.22S700
G1 X1.667S0
G1 Y0.05S0
G1 X-1.667S0
G1 X-0.22S700
G1 X-0.407S0
G1 X-0.214S700
G1 X-1.23S0
G1 X-0.267S700
G1 X-0.905S0
G1 X-0.219S700
G1 X-0.38S0
G1 X-0.222S700
G1 X-1.168S0
G1 X-0.219S700
G1 X-0.277S0
G1 X-0.231S700
G1 X-0.659S0
G1 X-0.218S700
G1 X-0.341S0
G1 X-0.221S700
G1 X-1.163S0
G1 X-0.22S700
G1 X-0.437S0
G1 X-0.218S700
G1 X-0.379S0
G1 X-0.222S700
G1 X-0.597S0
G1 X-0.233S700
G1 X-0.339S0
G1 X-0.222S700
G1 X-1.264S0
G1 X-0.219S700
G1 X-1.025S0
G1 X-0.297S700
G1 X-0.307S0
G1 X-0.222S700
G1 X-0.597S0
G1 X-0.233S700
G1 X-0.27S0
G1 X-0.241S700
G1 X-0.713S0
G1 X-0.224S700
G1 X-1.547S0
G1 X-0.234S700
G1 X-1.667S0
G1 Y0.05S0
G1 X1.664S0
G1 X0.235S700
G1 X1.564S0
G1 X0.225S700
G1 X0.673S0
G1 X0.254S700
G1 X0.281S0
G1 X0.245S700
G1 X0.583S0
G1 X0.223S700
G1 X0.295S0
G1 X0.24S700
G1 X1.095S0
G1 X0.219S700
G1 X0.59S0
G1 X0.025S700
G1 X0.647S0
G1 X0.228S700
G1 X0.335S0
G1 X0.244S700
G1 X0.584S0
G1 X0.223S700
G1 X0.38S0
G1 X0.218S700
G1 X0.437S0
G1 X0.22S700
G1 X0.489S0
G1 X0.025S700
G1 X0.647S0
G1 X0.225S700
G1 X0.339S0
G1 X0.237S700
G1 X0.624S0
G1 X0.232S700
G1 X0.292S0
G1 X0.22S700
G1 X0.495S0
G1 X0.024S700
G1 X0.648S0
G1 X0.224S700
G1 X0.379S0
G1 X0.219S700
G1 X0.949S0
G1 X0.265S700
G1 X1.223S0
G1 X0.214S700
G1 X0.372S0
G1 X0.22S700
G1 X1.667S0
G1 Y0.05S0
G1 X-1.667S0
G1 X-0.22S700
G1 X-0.338S0
G1 X-0.213S700
G1 X-1.215S0
G1 X-0.265S700
G1 X-0.992S0
G1 X-0.219S700
G1 X-0.378S0
G1 X-0.23S700
G1 X-0.624S0
G1 X-0.226S700
G1 X-0.312S0
G1 X-0.22S700
G1 X-0.307S0
G1 X-0.232S700
G1 X-0.588S0
G1 X-0.258S700
G1 X-0.338S0
G1 X-0.231S700
G1 X-0.623S0
G1 X-0.227S700
G1 X-0.306S0
G1 X-0.22S700
G1 X-0.437S0
G1 X-0.218S700
G1 X-0.383S0
G1 X-0.232S700
G1 X-0.558S0
G1 X-0.258S700
G1 X-0.331S0
G1 X-0.237S700
G1 X-0.623S0
G1 X-0.228S700
G1 X-0.406S0
G1 X-0.219S700
G1 X-0.437S0
G1 X-0.134S700
G1 X-0.546S0
G1 X-0.221S700
G1 X-0.296S0
G1 X-0.231S700
G1 X-0.558S0
G1 X-0.258S700
G1 X-0.3S0
G1 X-0.259S700
G1 X-0.62S0
G1 X-0.238S700
G1 X-1.577S0
G1 X-0.241S700
G1 X-1.667S0
G1 Y0.05S0
G1 X1.667S0
G1 X0.244S700
G1 X1.589S0
G1 X0.258S700
G1 X0.561S0
G1 X0.26S700
G1 X0.323S0
G1 X0.294S700
G1 X0.509S0
G1 X0.237S700
G1 X0.305S0
G1 X0.213S700
G1 X0.536S0
G1 X0.228S700
G1 X0.359S0
G1 X0.218S700
G1 X0.422S0
G1 X0.232S700
G1 X0.588S0
G1 X0.243S700
G1 X0.341S0
G1 X0.294S700
G1 X0.509S0
G1 X0.237S700
G1 X0.391S0
G1 X0.218S700
G1 X0.437S0
G1 X0.22S700
G1 X0.324S0
G1 X0.228S700
G1 X0.588S0
G1 X0.248S700
G1 X0.337S0
G1 X0.299S700
G1 X0.518S0
G1 X0.24S700
G1 X0.328S0
G1 X0.22S700
G1 X0.33S0
G1 X0.228S700
G1 X0.588S0
G1 X0.247S700
G1 X0.377S0
G1 X0.219S700
G1 X1.036S0
G1 X0.264S700
G1 X1.208S0
G1 X0.212S700
G1 X0.303S0
G1 X0.22S700
G1 X1.667S0
G1 Y0.05S0
G1 X-1.667S0
G1 X-0.22S700
G1 X-0.268S0
G1 X-0.212S700
G1 X-1.201S0
G1 X-0.262S700
G1 X-1.08S0
G1 X-0.219S700
G1 X-0.396S0
G1 X-0.257S700
G1 X-0.516S0
G1 X-0.253S700
G1 X-0.348S0
G1 X-0.22S700
G1 X-0.358S0
G1 X-0.243S700
G1 X-0.444S0
G1 X-0.34S700
G1 X-0.357S0
G1 X-0.256S700
G1 X-0.517S0
G1 X-0.253S700
G1 X-0.342S0
G1 X-0.22S700
G1 X-0.437S0
G1 X-0.218S700
G1 X-0.398S0
G1 X-0.268S700
G1 X-0.434S0
G1 X-0.331S700
G1 X-0.351S0
G1 X-0.261S700
G1 X-0.517S0
G1 X-0.258S700
G1 X-0.439S0
G1 X-0.218S700
G1 X-0.369S0
G1 X-0.255S700
G1 X-0.478S0
G1 X-0.221S700
G1 X-0.325S0
G1 X-0.268S700
G1 X-0.434S0
G1 X-0.331S700
G1 X-0.351S0
G1 X-0.278S700
G1 X-0.467S0
G1 X-0.277S700
G1 X-1.614S0
G1 X-0.238S700
G1 X-1.666S0
G1 X0.01Y0.05S0
G1 X1.667S0
G1 X0.238S700
G1 X1.643S0
G1 X0.302S700
G1 X0.335S0
G1 X0.308S700
G1 X0.388S0
G1 X0.413S700
G1 X0.289S0
G1 X0.309S700
G1 X0.364S0
G1 X0.251S700
G1 X0.375S0
G1 X0.289S700
G1 X0.391S0
G1 X0.218S700
G1 X0.468S0
G1 X0.294S700
G1 X0.392S0
G1 X0.298S700
G1 X0.374S0
G1 X0.413S700
G1 X0.289S0
G1 X0.309S700
G1 X0.42S0
G1 X0.218S700
G1 X0.437S0
G1 X0.22S700
G1 X0.365S0
G1 X0.295S700
G1 X0.392S0
G1 X0.295S700
G1 X0.378S0
G1 X0.412S700
G1 X0.308S0
G1 X0.278S700
G1 X0.387S0
G1 X0.22S700
G1 X0.37S0
G1 X0.295S700
G1 X0.392S0
G1 X0.295S700
G1 X0.418S0
G1 X0.219S700
G1 X1.123S0
G1 X0.262S700
G1 X1.193S0
G1 X0.212S700
G1 X0.233S0
G1 X0.22S700
G1 X1.667S0
G1 Y0.05S0
G1 X-1.667S0
G1 X-0.22S700
G1 X-0.199S0
G1 X-0.211S700
G1 X-1.185S0
G1 X-1.06S700
G1 X-0.147S0
G1 X-0.601S700
G1 X-0.278S0
G1 X-0.493S700
G1 X-0.013S0
G1 X-0.41S700
G1 X-0.415S0
G1 X-0.22S700
G1 X-0.428S0
G1 X-0.738S700
G1 X-0.02S0
G1 X-0.199S700
G1 X-0.4S0
G1 X-0.492S700
G1 X-0.014S0
G1 X-0.409S700
G1 X-0.41S0
G1 X-0.22S700
G1 X-0.216S0
G1 X-0.6S700
G1 X-0.288S0
G1 X-0.749S700
G1 X-0.035S0
G1 X-0.198S700
G1 X-0.399S0
G1 X-0.492S700
G1 X-0.014S0
G1 X-0.423S700
G1 X-0.277S0
G1 X-0.6S700
G1 X-0.258S0
G1 X-0.422S700
G1 X-0.05S0
G1 X-0.383S700
G1 X-0.425S0
G1 X-0.749S700
G1 X-0.035S0
G1 X-0.198S700
G1 X-0.432S0
G1 X-0.861S700
G1 X-1.67S0
G1 X-0.241S700
G1 X-1.666S0
G1 X0.01Y0.05S0
G1 X1.667S0
G1 X0.244S700
G1 X1.707S0
G1 X0.753S700
G1 X0.489S0
G1 X0.198S700
G1 X0.081S0
G1 X0.664S700
G1 X0.514S0
G1 X0.757S700
G1 X0.306S0
G1 X0.6S700
G1 X0.356S0
G1 X0.807S700
G1 X0.442S0
G1 X0.198S700
G1 X0.081S0
G1 X0.664S700
G1 X0.327S0
G1 X0.6S700
G1 X0.216S0
G1 X0.22S700
G1 X0.455S0
G1 X0.819S700
G1 X0.451S0
G1 X0.199S700
G1 X0.064S0
G1 X0.645S700
G1 X0.477S0
G1 X0.22S700
G1 X0.46S0
G1 X0.819S700
G1 X0.33S0
G1 X0.601S700
G1 X0.147S0
G1 X1.06S700
G1 X1.221S0
G1 X0.21S700
G1 X0.164S0
G1 X0.22S700
G1 X1.667S0
G1 Y0.05S0
G1 X-1.667S0
G1 X-0.22S700
G1 X-0.129S0
G1 X-0.21S700
G1 X-1.256S0
G1 X-1.06S700
G1 X-0.147S0
G1 X-0.601S700
G1 X-0.387S0
G1 X-0.682S700
G1 X-0.54S0
G1 X-0.22S700
G1 X-0.537S0
G1 X-0.513S700
G1 X-0.136S0
G1 X-0.199S700
G1 X-0.509S0
G1 X-0.681S700
G1 X-0.535S0
G1 X-0.22S700
G1 X-0.216S0
G1 X-0.6S700
G1 X-0.388S0
G1 X-0.535S700
G1 X-0.149S0
G1 X-0.198S700
G1 X-0.504S0
G1 X-0.666S700
G1 X-0.435S0
G1 X-0.6S700
G1 X-0.374S0
G1 X-0.612S700
G1 X-0.651S0
G1 X-0.536S700
G1 X-0.149S0
G1 X-0.198S700
G1 X-0.568S0
G1 X-0.587S700
G1 X-0.733S0
G1 X-0.032S700
G1 X-1.013S0
G1 X-0.25S700
G1 X-1.666S0
G1 X0.014Y0.05S0
G1 X1.666S0
G1 X0.26S700
G1 X0.967S0
G1 X0.258S700
G1 X0.648S0
G1 X0.344S700
G1 X1.136S0
G1 X0.324S700
G1 X0.884S0
G1 X0.366S700
G1 X0.663S0
G1 X0.218S700
G1 X0.799S0
G1 X0.384S700
G1 X1.087S0
G1 X0.324S700
G1 X0.663S0
G1 X0.218S700
G1 X1.334S0
G1 X0.409S700
G1 X1.066S0
G1 X0.318S700
G1 X0.64S0
G1 X0.22S700
G1 X0.682S0
G1 X0.41S700
G1 X0.678S0
G1 X0.219S700
G1 X2.719S0
G1 X0.21S700
G1 X0.094S0
G1 X0.22S700
G1 X1.667S0
G1 Y0.05S0
G1 X-1.667S0
G1 X-0.22S700
G1 X-0.06S0
G1 X-0.209S700
G1 X-2.754S0
G1 X-0.219S700
G1 X-1.77S0
G1 X-0.22S700
G1 X-3.767S0
G1 X-0.218S700
G1 X-3.257S0
G1 X-0.218S700
G1 X-4.385S0
G1 X-0.259S700
G1 X-0.921S0
G1 X-0.26S700
G1 X-1.667S0
G1 X0.024Y0.05S0
G1 X1.667S0
G1 X0.261S700
G1 X0.874S0
G1 X0.262S700
G1 X4.404S0
G1 X0.218S700
G1 X3.257S0
G1 X0.218S700
G1 X3.767S0
G1 X0.22S700
G1 X1.77S0
G1 X0.219S700
G1 X2.79S0
G1 X0.208S700
G1 X0.025S0
G1 X0.22S700
G1 X1.667S0
G1 Y0.05S0
G1 X-1.667S0
G1 X-0.418S700
G1 X-2.825S0
G1 X-0.219S700
G1 X-1.77S0
G1 X-0.22S700
G1 X-3.767S0
G1 X-0.218S700
G1 X-3.257S0
G1 X-0.218S700
G1 X-4.424S0
G1 X-0.286S700
G1 X-0.774S0
G1 X-0.289S700
G1 X-1.666S0
G1 X0.037Y0.05S0
G1 X1.667S0
G1 X0.309S700
G1 X0.672S0
G1 X0.298S700
G1 X4.456S0
G1 X0.218S700
G1 X3.257S0
G1 X0.218S700
G1 X3.767S0
G1 X0.22S700
G1 X1.77S0
G1 X0.219S700
G1 X2.86S0
G1 X0.383S700
G1 X1.667S0
G1 Y0.05S0
G1 X-1.667S0
G1 X-0.348S700
G1 X-2.895S0
G1 X-0.219S700
G1 X-1.77S0
G1 X-0.22S700
G1 X-3.11S0
G1 X-0.22S700
G1 X-0.437S0
G1 X-0.218S700
G1 X-3.257S0
G1 X-0.218S700
G1 X-4.493S0
G1 X-0.34S700
G1 X-0.522S0
G1 X-0.342S700
G1 X-1.667S0
G1 X0.052Y0.05S0
G1 X1.667S0
G1 X0.43S700
G1 X0.259S0
G1 X0.427S700
G1 X4.529S0
G1 X0.218S700
G1 X3.257S0
G1 X0.218S700
G1 X0.437S0
G1 X0.22S700
G1 X3.11S0
G1 X0.22S700
G1 X1.77S0
G1 X0.219S700
G1 X2.93S0
G1 X0.313S700
G1 X1.667S0
G1 Y0.05S0
G1 X-1.667S0
G1 X-0.277S700
G1 X-2.966S0
G1 X-0.164S700
G1 X-1.825S0
G1 X-0.22S700
G1 X-3.11S0
G1 X-0.22S700
G1 X-0.437S0
G1 X-0.164S700
G1 X-3.311S0
G1 X-0.164S700
G1 X-4.643S0
G1 X-1.001S700
G1 X-1.667S0
G1 X0.075Y0.05S0
G1 X1.667S0
G1 X0.865S700
G1 X4.787S0
G1 X0.081S700
G1 X3.394S0
G1 X0.081S700
G1 X0.437S0
G1 X0.22S700
G1 X3.11S0
G1 X0.22S700
G1 X1.908S0
G1 X0.081S700
G1 X3.001S0
G1 X0.242S700
G1 X1.667S0
G1 Y0.05S0
G1 X-1.667S0
G1 X-0.207S700
G1 X-5.025S0
G1 X-0.22S700
G1 X-3.11S0
G1 X-0.22S700
G1 X-8.877S0
G1 X-0.68S700
G1 X-1.667S0
G1 X0.138Y0.05S0
G1 X1.667S0
G1 X0.399S700
G1 X1.667S0
; Image @ 4000.002 mm/min, 60% power
G0 X8.232Y20.05
; Layer Logo
G1 X1.667S0
G1 X0.75S569.7
G1 X1.666S0
G1 X15.45Y0.05S0
G1 X-1.666S0
G1 X-0.5S569.7
G1 X-1.15S0
G1 X-0.45S569.7
G1 X-0.5S0
G1 X-1.4S569.7
G1 X-0.65S0
G1 X-1.4S569.7
G1 X-0.4S0
G1 X-1.3S569.7
G1 X-2.2S0
G1 X-0.2S569.7
G1 X-1.5S0
G1 X-0.35S569.7
G1 X-0.6S0
G1 X-1.4S569.7
G1 X-1.25S0
G1 X-1.2S569.7
G1 X-0.7S0
G1 X-0.4S569.7
G1 X-1.75S0
G1 X-0.35S569.7
G1 X-0.6S0
G1 X-1.35S569.7
G1 X-1.35S0
G1 X-5.45S532.3
G1 X-1.667S0
G1 Y0.05S0
G1 X1.667S0
G1 X5.45S532.3
G1 X1.35S0
G1 X1.4S569.7
G1 X0.55S0
G1 X0.35S569.7
G1 X1.75S0
G1 X0.4S569.7
G1 X0.55S0
G1 X1.45S569.7
G1 X1.15S0
G1 X1.4S569.7
G1 X0.6S0
G1 X0.35S569.7
G1 X1.45S0
G1 X0.25S569.7
G1 X2.2S0
G1 X1.35S569.7
G1 X0.35S0
G1 X1.45S569.7
G1 X0.6S0
G1 X1.4S569.7
G1 X0.5S0
G1 X0.45S569.7
G1 X1.1S0
G1 X0.5S569.7
G1 X1.666S0
G1 X-0.05Y0.05S0
G1 X-1.666S0
G1 X-0.5S569.7
G1 X-1.05S0
G1 X-0.45S569.7
G1 X-0.45S0
G1 X-1.45S569.7
G1 X-0.6S0
G1 X-1.45S569.7
G1 X-0.35S0
G1 X-1.35S569.7
G1 X-2.2S0
G1 X-0.3S569.7
G1 X-1.4S0
G1 X-0.35S569.7
G1 X-0.55S0
G1 X-1.45S569.7
G1 X-1.05S0
G1 X-1.55S569.7
G1 X-0.55S0
G1 X-0.4S569.7
G1 X-1.75S0
G1 X-0.35S569.7
G1 X-0.55S0
G1 X-1.4S569.7
G1 X-1.35S0
G1 X-5.45S532.3
G1 X-1.667S0
G1 Y0.05S0
G1 X1.667S0
G1 X5.45S532.3
G1 X1.35S0
G1 X1.45S569.7
G1 X0.5S0
G1 X0.35S569.7
G1 X1.75S0
G1 X0.4S569.7
G1 X0.55S0
G1 X1.65S569.7
G1 X0.95S0
G1 X1.45S569.7
G1 X0.55S0
G1 X0.35S569.7
G1 X1.4S0
G1 X0.3S569.7
G1 X2.2S0
G1 X1.4S569.7
G1 X0.3S0
G1 X1.5S569.7
G1 X0.55S0
G1 X1.45S569.7
G1 X0.45S0
G1 X0.45S569.7
G1 X1.05S0
G1 X0.5S569.7
G1 X1.666S0
G1 X-0.05Y0.05S0
G1 X-1.666S0
G1 X-0.5S569.7
G1 X-1S0
G1 X-0.45S569.7
G1 X-0.4S0
G1 X-1.5S569.7
G1 X-0.55S0
G1 X-1.5S569.7
G1 X-0.25S0
G1 X-1.45S569.7
G1 X-2.2S0
G1 X-0.35S569.7
G1 X-1.35S0
G1 X-0.35S569.7
G1 X-0.5S0
G1 X-1.5S569.7
G1 X-0.9S0
G1 X-1.7S569.7
G1 X-0.55S0
G1 X-0.4S569.7
G1 X-1.75S0
G1 X-0.35S569.7
G1 X-0.5S0
G1 X-1.45S569.7
G1 X-1.35S0
G1 X-5.45S532.3
G1 X-1.667S0
G1 Y0.05S0
G1 X1.667S0
G1 X5.45S532.3
G1 X1.35S0
G1 X1.5S569.7
G1 X0.45S0
G1 X0.35S569.7
G1 X1.75S0
G1 X0.4S569.7
G1 X0.55S0
G1 X0.65S569.7
G1 X0.35S0
G1 X0.8S569.7
G1 X0.8S0
G1 X1.5S569.7
G1 X0.5S0
G1 X0.35S569.7
G1 X1.3S0
G1 X0.4S569.7
G1 X2.2S0
G1 X1.45S569.7
G1 X0.25S0
G1 X1.55S569.7
G1 X0.5S0
G1 X1.5S569.7
G1 X0.4S0
G1 X0.45S569.7
G1 X0.95S0
G1 X0.5S569.7
G1 X1.666S0
G1 X-0.05Y0.05S0
G1 X-1.666S0
G1 X-0.5S569.7
G1 X-0.9S0
G1 X-0.45S569.7
G1 X-0.35S0
G1 X-1.55S569.7
G1 X-0.5S0
G1 X-1.55S569.7
G1 X-0.2S0
G1 X-1.5S569.7
G1 X-2.2S0
G1 X-0.45S569.7
G1 X-1.25S0
G1 X-0.35S569.7
G1 X-0.45S0
G1 X-1.55S569.7
G1 X-0.75S0
G1 X-0.65S569.7
G1 X-0.8S0
G1 X-0.4S569.7
G1 X-0.55S0
G1 X-0.4S569.7
G1 X-1.75S0
G1 X-0.35S569.7
G1 X-0.45S0
G1 X-1.5S569.7
G1 X-1.35S0
G1 X-5.45S532.3
G1 X-1.667S0
G1 Y0.05S0
G1 X1.667S0
G1 X5.45S532.3
G1 X1.35S0
G1 X0.4S569.7
G1 X1.55S0
G1 X0.35S569.7
G1 X1.75S0
G1 X0.4S569.7
G1 X0.55S0
G1 X0.4S569.7
G1 X0.9S0
G1 X0.6S569.7
G1 X0.7S0
G1 X0.4S569.7
G1 X1.6S0
G1 X0.35S569.7
G1 X1.2S0
G1 X0.5S569.7
G1 X2.2S0
G1 X0.4S569.7
G1 X1.3S0
G1 X0.4S569.7
G1 X1.65S0
G1 X0.4S569.7
G1 X1.5S0
G1 X0.45S569.7
G1 X0.9S0
G1 X0.5S569.7
G1 X1.666S0
G1 X-0.05Y0.05S0
G1 X-1.666S0
G1 X-0.5S569.7
G1 X-0.85S0
G1 X-0.45S569.7
G1 X-1.5S0
G1 X-0.4S569.7
G1 X-1.65S0
G1 X-0.4S569.7
G1 X-1.3S0
G1 X-0.4S569.7
G1 X-2.2S0
G1 X-0.5S569.7
G1 X-1.2S0
G1 X-0.35S569.7
G1 X-1.6S0
G1 X-0.4S569.7
G1 X-0.65S0
G1 X-0.6S569.7
G1 X-0.95S0
G1 X-0.4S569.7
G1 X-0.55S0
G1 X-0.4S569.7
G1 X-1.75S0
G1 X-0.35S569.7
G1 X-1.55S0
G1 X-0.4S569.7
G1 X-1.35S0
G1 X-5.45S532.3
G1 X-1.667S0
G1 Y0.05S0
G1 X1.667S0
G1 X5.45S532.3
G1 X1.35S0
G1 X0.4S569.7
G1 X1.55S0
G1 X0.35S569.7
G1 X1.75S0
G1 X0.4S569.7
G1 X0.55S0
G1 X0.4S569.7
G1 X1S0
G1 X0.55S569.7
G1 X0.65S0
G1 X0.4S569.7
G1 X1.6S0
G1 X0.35S569.7
G1 X1.15S0
G1 X0.55S569.7
G1 X2.2S0
G1 X0.4S569.7
G1 X1.3S0
G1 X0.4S569.7
G1 X1.65S0
G1 X0.4S569.7
G1 X1.5S0
G1 X0.45S569.7
G1 X0.8S0
G1 X0.5S569.7
G1 X1.666S0
G1 X-0.05Y0.05S0
G1 X-1.666S0
G1 X-0.45S569.7
G1 X-0.8S0
G1 X-0.45S569.7
G1 X-1.5S0
G1 X-0.4S569.7
G1 X-1.65S0
G1 X-0.4S569.7
G1 X-1.3S0
G1 X-0.4S569.7
G1 X-2.2S0
G1 X-0.6S569.7
G1 X-1.1S0
G1 X-0.35S569.7
G1 X-1.6S0
G1 X-0.4S569.7
G1 X-0.6S0
G1 X-0.5S569.7
G1 X-1.1S0
G1 X-0.4S569.7
G1 X-0.55S0
G1 X-0.4S569.7
G1 X-1.75S0
G1 X-0.35S569.7
G1 X-1.55S0
G1 X-0.4S569.7
G1 X-1.35S0
G1 X-5.45S532.3
G1 X-1.667S0
G1 Y0.05S0
G1 X1.667S0
G1 X5.45S532.3
G1 X1.35S0
G1 X0.4S569.7
G1 X1.55S0
G1 X0.35S569.7
G1 X1.75S0
G1 X0.4S569.7
G1 X0.55S0
G1 X0.4S569.7
G1 X1.1S0
G1 X0.55S569.7
G1 X0.55S0
G1 X0.4S569.7
G1 X1.6S0
G1 X0.35S569.7
G1 X1.05S0
G1 X0.65S569.7
G1 X2.2S0
G1 X0.4S569.7
G1 X1.3S0
G1 X0.4S569.7
G1 X1.65S0
G1 X0.4S569.7
G1 X1.5S0
G1 X0.45S569.7
G1 X0.75S0
G1 X0.5S569.7
G1 X1.666S0
G1 X-0.05Y0.05S0
G1 X-1.666S0
G1 X-0.5S569.7
G1 X-0.7S0
G1 X-0.45S569.7
G1 X-1.5S0
G1 X-0.4S569.7
G1 X-1.65S0
G1 X-0.4S569.7
G1 X-1.3S0
G1 X-0.4S569.7
G1 X-2.2S0
G1 X-0.7S569.7
G1 X-1S0
G1 X-0.35S569.7
G1 X-1.6S0
G1 X-0.4S569.7
G1 X-0.55S0
G1 X-0.5S569.7
G1 X-1.15S0
G1 X-0.4S569.7
G1 X-0.55S0
G1 X-0.4S569.7
G1 X-1.75S0
G1 X-0.35S569.7
G1 X-1.55S0
G1 X-0.4S569.7
G1 X-1.35S0
G1 X-5.45S532.3
G1 X-1.667S0
G1 Y0.05S0
G1 X1.667S0
G1 X5.45S532.3
G1 X1.35S0
G1 X0.4S569.7
G1 X1.55S0
G1 X0.35S569.7
G1 X1.75S0
G1 X0.4S569.7
G1 X0.55S0
G1 X0.4S569.7
G1 X1.2S0
G1 X0.5S569.7
G1 X0.5S0
G1 X0.4S569.7
G1 X1.6S0
G1 X0.35S569.7
G1 X1S0
G1 X0.7S569.7
G1 X2.2S0
G1 X0.4S569.7
G1 X1.3S0
G1 X0.4S569.7
G1 X1.65S0
G1 X0.4S569.7
G1 X1.5S0
G1 X0.45S569.7
G1 X0.65S0
G1 X0.5S569.7
G1 X1.666S0
G1 X-0.05Y0.05S0
G1 X-1.666S0
G1 X-0.45S569.7
G1 X-0.65S0
G1 X-0.45S569.7
G1 X-1.5S0
G1 X-0.4S569.7
G1 X-1.65S0
G1 X-0.4S569.7
G1 X-1.3S0
G1 X-0.4S569.7
G1 X-2.2S0
G1 X-0.75S569.7
G1 X-0.95S0
G1 X-0.35S569.7
G1 X-1.6S0
G1 X-0.4S569.7
G1 X-0.5S0
G1 X-0.45S569.7
G1 X-1.25S0
G1 X-0.4S569.7
G1 X-0.55S0
G1 X-0.4S569.7
G1 X-1.75S0
G1 X-0.35S569.7
G1 X-1.55S0
G1 X-0.4S569.7
G1 X-1.35S0
G1 X-5.45S532.3
G1 X-1.667S0
G1 Y0.05S0
G1 X1.667S0
G1 X5.45S532.3
G1 X1.35S0
G1 X0.4S569.7
G1 X1.55S0
G1 X0.35S569.7
G1 X1.75S0
G1 X0.4S569.7
G1 X0.55S0
G1 X0.4S569.7
G1 X1.25S0
G1 X0.5S569.7
G1 X0.45S0
G1 X0.4S569.7
G1 X1.6S0
G1 X0.35S569.7
G1 X0.9S0
G1 X0.8S569.7
G1 X2.2S0
G1 X0.4S569.7
G1 X1.3S0
G1 X0.4S569.7
G1 X1.65S0
G1 X0.4S569.7
G1 X1.5S0
G1 X0.45S569.7
G1 X0.6S0
G1 X0.5S569.7
G1 X1.666S0
G1 X-0.05Y0.05S0
G1 X-1.666S0
G1 X-0.5S569.7
G1 X-0.55S0
G1 X-0.45S569.7
G1 X-1.5S0
G1 X-0.4S569.7
G1 X-1.65S0
G1 X-0.4S569.7
G1 X-1.3S0
G1 X-0.4S569.7
G1 X-2.2S0
G1 X-0.85S569.7
G1 X-0.85S0
G1 X-0.35S569.7
G1 X-1.6S0
G1 X-0.4S569.7
G1 X-0.45S0
G1 X-0.45S569.7
G1 X-1.3S0
G1 X-0.4S569.7
G1 X-0.55S0
G1 X-0.4S569.7
G1 X-0.85S0
G1 X-0.1S569.7
G1 X-0.8S0
G1 X-0.35S569.7
G1 X-1.55S0
G1 X-0.4S569.7
G1 X-1.35S0
G1 X-5.45S532.3
G1 X-1.667S0
G1 Y0.05S0
G1 X1.667S0
G1 X5.45S532.3
G1 X1.35S0
G1 X0.4S569.7
G1 X1.55S0
G1 X0.35S569.7
G1 X0.75S0
G1 X0.15S569.7
G1 X0.85S0
G1 X0.4S569.7
G1 X0.55S0
G1 X0.4S569.7
G1 X1.3S0
G1 X0.45S569.7
G1 X0.45S0
G1 X0.4S569.7
G1 X1.6S0
G1 X0.35S569.7
G1 X0.85S0
G1 X0.85S569.7
G1 X2.2S0
G1 X0.4S569.7
G1 X1.3S0
G1 X0.4S569.7
G1 X1.65S0
G1 X0.4S569.7
G1 X1.5S0
G1 X0.45S569.7
G1 X0.55S0
G1 X0.45S569.7
G1 X1.666S0
G1 X-0.05Y0.05S0
G1 X-1.666S0
G1 X-0.45S569.7
G1 X-0.5S0
G1 X-0.45S569.7
G1 X-1.5S0
G1 X-0.4S569.7
G1 X-1.65S0
G1 X-0.4S569.7
G1 X-1.3S0
G1 X-0.4S569.7
G1 X-2.2S0
G1 X-0.35S569.7
G1 X-0.05S0
G1 X-0.5S569.7
G1 X-0.8S0
G1 X-0.35S569.7
G1 X-1.6S0
G1 X-0.4S569.7
G1 X-0.45S0
G1 X-0.45S569.7
G1 X-1.3S0
G1 X-0.4S569.7
G1 X-0.55S0
G1 X-0.4S569.7
G1 X-0.8S0
G1 X-0.2S569.7
G1 X-0.75S0
G1 X-0.35S569.7
G1 X-1.55S0
G1 X-0.4S569.7
G1 X-1.35S0
G1 X-5.45S532.3
G1 X-1.667S0
G1 Y0.05S0
G1 X1.667S0
G1 X5.45S532.3
G1 X1.35S0
G1 X0.4S569.7
G1 X1.55S0
G1 X0.35S569.7
G1 X0.7S0
G1 X0.3S569.7
G1 X0.75S0
G1 X0.4S569.7
G1 X0.55S0
G1 X0.4S569.7
G1 X1.35S0
G1 X0.45S569.7
G1 X0.4S0
G1 X0.4S569.7
G1 X1.6S0
G1 X0.35S569.7
G1 X0.75S0
G1 X0.5S569.7
G1 X0.1S0
G1 X0.35S569.7
G1 X2.2S0
G1 X0.4S569.7
G1 X1.3S0
G1 X0.4S569.7
G1 X1.65S0
G1 X0.4S569.7
G1 X1.5S0
G1 X0.45S569.7
G1 X0.45S0
G1 X0.5S569.7
G1 X1.666S0
G1 X-0.05Y0.05S0
G1 X-1.666S0
G1 X-0.5S569.7
G1 X-0.4S0
G1 X-0.45S569.7
G1 X-1.5S0
G1 X-0.4S569.7
G1 X-1.65S0
G1 X-0.4S569.7
G1 X-1.3S0
G1 X-0.4S569.7
G1 X-2.2S0
G1 X-0.35S569.7
G1 X-0.15S0
G1 X-0.5S569.7
G1 X-0.7S0
G1 X-0.35S569.7
G1 X-1.6S0
G1 X-0.4S569.7
G1 X-0.4S0
G1 X-0.45S569.7
G1 X-1.35S0
G1 X-0.4S569.7
G1 X-0.55S0
G1 X-0.4S569.7
G1 X-0.7S0
G1 X-0.4S569.7
G1 X-0.65S0
G1 X-0.35S569.7
G1 X-1.55S0
G1 X-0.4S569.7
G1 X-1.35S0
G1 X-5.45S532.3
G1 X-1.667S0
G1 Y0.05S0
G1 X1.667S0
G1 X5.45S532.3
G1 X1.35S0
G1 X0.4S569.7
G1 X1.55S0
G1 X0.35S569.7
G1 X0.65S0
G1 X0.4S569.7
G1 X0.7S0
G1 X0.4S569.7
G1 X0.55S0
G1 X0.4S569.7
G1 X1.35S0
G1 X0.45S569.7
G1 X0.4S0
G1 X0.4S569.7
G1 X1.6S0
G1 X0.35S569.7
G1 X0.65S0
G1 X0.55S569.7
G1 X0.15S0
G1 X0.35S569.7
G1 X0.8S0
G1 X0.65S569.7
G1 X0.75S0
G1 X0.4S569.7
G1 X1.3S0
G1 X0.4S569.7
G1 X1.65S0
G1 X0.4S569.7
G1 X1.5S0
G1 X0.45S569.7
G1 X0.4S0
G1 X0.45S569.7
G1 X1.666S0
G1 X-0.05Y0.05S0
G1 X-1.666S0
G1 X-1.25S569.7
G1 X-1.5S0
G1 X-0.4S569.7
G1 X-1.65S0
G1 X-0.4S569.7
G1 X-1.3S0
G1 X-0.4S569.7
G1 X-0.75S0
G1 X-0.65S569.7
G1 X-0.8S0
G1 X-0.35S569.7
G1 X-0.2S0
G1 X-0.5S569.7
G1 X-0.65S0
G1 X-0.35S569.7
G1 X-1.6S0
G1 X-0.4S569.7
G1 X-0.4S0
G1 X-0.45S569.7
G1 X-1.35S0
G1 X-0.4S569.7
G1 X-0.55S0
G1 X-0.4S569.7
G1 X-0.65S0
G1 X-0.5S569.7
G1 X-0.6S0
G1 X-0.35S569.7
G1 X-1.55S0
G1 X-0.4S569.7
G1 X-1.35S0
G1 X-5.45S532.3
G1 X-1.667S0
G1 Y0.05S0
G1 X1.667S0
G1 X5.45S532.3
G1 X1.35S0
G1 X0.4S569.7
G1 X1.55S0
G1 X0.35S569.7
G1 X0.55S0
G1 X0.6S569.7
G1 X0.6S0
G1 X0.4S569.7
G1 X0.55S0
G1 X0.4S569.7
G1 X1.4S0
G1 X0.4S569.7
G1 X0.4S0
G1 X0.4S569.7
G1 X1.6S0
G1 X0.35S569.7
G1 X0.6S0
G1 X0.5S569.7
G1 X0.25S0
G1 X0.35S569.7
G1 X0.8S0
G1 X0.65S569.7
G1 X0.75S0
G1 X0.4S569.7
G1 X1.3S0
G1 X0.4S569.7
G1 X1.65S0
G1 X0.4S569.7
G1 X1.5S0
G1 X1.25S569.7
G1 X1.666S0
G1 X-0.05Y0.05S0
G1 X-1.666S0
G1 X-1.2S569.7
G1 X-0.75S0
G1 X-1.15S569.7
G1 X-0.85S0
G1 X-1.2S569.7
G1 X-1.3S0
G1 X-0.4S569.7
G1 X-0.75S0
G1 X-0.65S569.7
G1 X-0.8S0
G1 X-0.35S569.7
G1 X-0.3S0
G1 X-0.5S569.7
G1 X-0.55S0
G1 X-0.35S569.7
G1 X-0.85S0
G1 X-1.15S569.7
G1 X-0.4S0
G1 X-0.4S569.7
G1 X-1.4S0
G1 X-0.4S569.7
G1 X-0.55S0
G1 X-0.4S569.7
G1 X-0.55S0
G1 X-0.7S569.7
G1 X-0.5S0
G1 X-0.35S569.7
G1 X-0.8S0
G1 X-1.15S569.7
G1 X-1.35S0
G1 X-5.45S532.3
G1 X-1.667S0
G1 Y0.05S0
G1 X1.667S0
G1 X5.45S532.3
G1 X1.35S0
G1 X1.15S569.7
G1 X0.8S0
G1 X0.35S569.7
G1 X0.5S0
G1 X0.7S569.7
G1 X0.55S0
G1 X0.4S569.7
G1 X0.55S0
G1 X0.4S569.7
G1 X1.4S0
G1 X0.4S569.7
G1 X0.4S0
G1 X1.2S569.7
G1 X0.8S0
G1 X0.35S569.7
G1 X0.5S0
G1 X0.5S569.7
G1 X0.35S0
G1 X0.35S569.7
G1 X0.8S0
G1 X0.65S569.7
G1 X0.75S0
G1 X0.4S569.7
G1 X1.3S0
G1 X1.2S569.7
G1 X0.85S0
G1 X1.2S569.7
G1 X0.7S0
G1 X1.3S569.7
G1 X1.666S0
G1 X0.1Y0.05S0
G1 X-1.666S0
G1 X-1.4S569.7
G1 X-0.7S0
G1 X-1.2S569.7
G1 X-0.85S0
G1 X-1.2S569.7
G1 X-1.3S0
G1 X-0.4S569.7
G1 X-0.75S0
G1 X-0.65S569.7
G1 X-0.8S0
G1 X-0.35S569.7
G1 X-0.35S0
G1 X-0.55S569.7
G1 X-0.45S0
G1 X-0.35S569.7
G1 X-0.8S0
G1 X-1.2S569.7
G1 X-0.4S0
G1 X-0.4S569.7
G1 X-1.4S0
G1 X-0.4S569.7
G1 X-0.55S0
G1 X-0.4S569.7
G1 X-0.5S0
G1 X-0.8S569.7
G1 X-0.45S0
G1 X-0.35S569.7
G1 X-0.75S0
G1 X-1.2S569.7
G1 X-1.35S0
G1 X-5.45S532.3
G1 X-1.667S0
G1 Y0.05S0
G1 X1.667S0
G1 X5.45S532.3
G1 X1.35S0
G1 X1.2S569.7
G1 X0.75S0
G1 X0.35S569.7
G1 X0.4S0
G1 X0.9S569.7
G1 X0.45S0
G1 X0.4S569.7
G1 X0.55S0
G1 X0.4S569.7
G1 X1.4S0
G1 X0.4S569.7
G1 X0.4S0
G1 X1.2S569.7
G1 X0.8S0
G1 X0.35S569.7
G1 X0.45S0
G1 X0.5S569.7
G1 X0.4S0
G1 X0.35S569.7
G1 X0.8S0
G1 X0.65S569.7
G1 X0.75S0
G1 X0.4S569.7
G1 X1.3S0
G1 X1.25S569.7
G1 X0.8S0
G1 X1.25S569.7
G1 X0.65S0
G1 X1.45S569.7
G1 X1.666S0
G1 X0.05Y0.05S0
G1 X-1.666S0
G1 X-0.5S569.7
G1 X-0.55S0
G1 X-0.45S569.7
G1 X-0.65S0
G1 X-1.25S569.7
G1 X-0.8S0
G1 X-1.25S569.7
G1 X-1.3S0
G1 X-0.4S569.7
G1 X-0.75S0
G1 X-0.65S569.7
G1 X-0.8S0
G1 X-0.35S569.7
G1 X-0.45S0
G1 X-0.5S569.7
G1 X-0.4S0
G1 X-0.35S569.7
G1 X-0.75S0
G1 X-1.25S569.7
G1 X-0.4S0
G1 X-0.4S569.7
G1 X-1.4S0
G1 X-0.4S569.7
G1 X-0.55S0
G1 X-0.4S569.7
G1 X-0.4S0
G1 X-0.4S569.7
G1 X-0.05S0
G1 X-0.5S569.7
G1 X-0.4S0
G1 X-0.35S569.7
G1 X-0.75S0
G1 X-1.2S569.7
G1 X-1.35S0
G1 X-5.45S532.3
G1 X-1.667S0
G1 Y0.05S0
G1 X1.667S0
G1 X5.45S532.3
G1 X1.35S0
G1 X1.25S569.7
G1 X0.7S0
G1 X0.35S569.7
G1 X0.35S0
G1 X0.5S569.7
G1 X0.15S0
G1 X0.35S569.7
G1 X0.4S0
G1 X0.4S569.7
G1 X0.55S0
G1 X0.4S569.7
G1 X1.4S0
G1 X0.4S569.7
G1 X0.4S0
G1 X1.25S569.7
G1 X0.75S0
G1 X0.35S569.7
G1 X0.35S0
G1 X0.5S569.7
G1 X0.5S0
G1 X0.35S569.7
G1 X0.8S0
G1 X0.65S569.7
G1 X0.75S0
G1 X0.4S569.7
G1 X1.3S0
G1 X1.3S569.7
G1 X0.75S0
G1 X1.25S569.7
G1 X0.65S0
G1 X0.45S569.7
G1 X0.65S0
G1 X0.45S569.7
G1 X1.666S0
G1 X0.05Y0.05S0
G1 X-1.666S0
G1 X-0.45S569.7
G1 X-0.7S0
G1 X-0.45S569.7
G1 X-0.6S0
G1 X-1.3S569.7
G1 X-0.75S0
G1 X-1.3S569.7
G1 X-1.3S0
G1 X-0.4S569.7
G1 X-0.75S0
G1 X-0.65S569.7
G1 X-0.8S0
G1 X-0.35S569.7
G1 X-0.55S0
G1 X-0.5S569.7
G1 X-0.3S0
G1 X-0.35S569.7
G1 X-0.7S0
G1 X-1.3S569.7
G1 X-0.4S0
G1 X-0.4S569.7
G1 X-1.4S0
G1 X-0.4S569.7
G1 X-0.55S0
G1 X-0.4S569.7
G1 X-0.35S0
G1 X-0.35S569.7
G1 X-0.25S0
G1 X-0.5S569.7
G1 X-0.3S0
G1 X-0.35S569.7
G1 X-0.7S0
G1 X-1.25S569.7
G1 X-1.35S0
G1 X-5.45S532.3
G1 X-1.667S0
G1 Y0.05S0
G1 X1.667S0
G1 X5.45S532.3
G1 X1.35S0
G1 X0.4S569.7
G1 X1.55S0
G1 X0.35S569.7
G1 X0.25S0
G1 X0.5S569.7
G1 X0.3S0
G1 X0.4S569.7
G1 X0.3S0
G1 X0.4S569.7
G1 X0.55S0
G1 X0.4S569.7
G1 X1.35S0
G1 X0.45S569.7
G1 X0.4S0
G1 X0.4S569.7
G1 X1.6S0
G1 X0.35S569.7
G1 X0.25S0
G1 X0.55S569.7
G1 X0.55S0
G1 X0.35S569.7
G1 X0.8S0
G1 X0.65S569.7
G1 X0.75S0
G1 X0.4S569.7
G1 X1.3S0
G1 X0.4S569.7
G1 X1.65S0
G1 X0.4S569.7
G1 X1.5S0
G1 X0.45S569.7
G1 X0.75S0
G1 X0.4S569.7
G1 X1.666S0
G1 X0.05Y0.05S0
G1 X-1.666S0
G1 X-0.4S569.7
G1 X-0.8S0
G1 X-0.45S569.7
G1 X-1.5S0
G1 X-0.4S569.7
G1 X-1.65S0
G1 X-0.4S569.7
G1 X-1.3S0
G1 X-0.4S569.7
G1 X-0.75S0
G1 X-0.65S569.7
G1 X-0.8S0
G1 X-0.35S569.7
G1 X-0.6S0
G1 X-0.5S569.7
G1 X-0.25S0
G1 X-0.35S569.7
G1 X-1.6S0
G1 X-0.4S569.7
G1 X-0.4S0
G1 X-0.45S569.7
G1 X-1.35S0
G1 X-0.4S569.7
G1 X-0.55S0
G1 X-0.4S569.7
G1 X-0.25S0
G1 X-0.4S569.7
G1 X-0.35S0
G1 X-0.5S569.7
G1 X-0.25S0
G1 X-0.35S569.7
G1 X-1.55S0
G1 X-0.4S569.7
G1 X-1.35S0
G1 X-5.45S532.3
G1 X-1.667S0
G1 Y0.05S0
G1 X1.667S0
G1 X5.45S532.3
G1 X1.35S0
G1 X0.4S569.7
G1 X1.55S0
G1 X0.35S569.7
G1 X0.2S0
G1 X0.5S569.7
G1 X0.45S0
G1 X0.35S569.7
G1 X0.25S0
G1 X0.4S569.7
G1 X0.55S0
G1 X0.4S569.7
G1 X1.35S0
G1 X0.45S569.7
G1 X0.4S0
G1 X0.4S569.7
G1 X1.6S0
G1 X0.35S569.7
G1 X0.2S0
G1 X0.5S569.7
G1 X0.65S0
G1 X0.35S569.7
G1 X0.8S0
G1 X0.65S569.7
G1 X0.75S0
G1 X0.4S569.7
G1 X1.3S0
G1 X0.4S569.7
G1 X1.65S0
G1 X0.4S569.7
G1 X1.5S0
G1 X0.45S569.7
G1 X0.8S0
G1 X0.4S569.7
G1 X1.666S0
G1 X0.05Y0.05S0
G1 X-1.666S0
G1 X-0.4S569.7
G1 X-0.85S0
G1 X-0.45S569.7
G1 X-1.5S0
G1 X-0.4S569.7
G1 X-1.65S0
G1 X-0.4S569.7
G1 X-1.3S0
G1 X-0.4S569.7
G1 X-2.2S0
G1 X-0.35S569.7
G1 X-0.7S0
G1 X-0.5S569.7
G1 X-0.15S0
G1 X-0.35S569.7
G1 X-1.6S0
G1 X-0.4S569.7
G1 X-0.4S0
G1 X-0.45S569.7
G1 X-1.35S0
G1 X-0.4S569.7
G1 X-0.55S0
G1 X-0.4S569.7
G1 X-0.2S0
G1 X-0.35S569.7
G1 X-0.55S0
G1 X-0.5S569.7
G1 X-0.15S0
G1 X-0.35S569.7
G1 X-1.55S0
G1 X-0.4S569.7
G1 X-1.35S0
G1 X-5.45S532.3
G1 X-1.667S0
G1 Y0.05S0
G1 X1.667S0
G1 X5.45S532.3
G1 X1.35S0
G1 X0.4S569.7
G1 X1.55S0
G1 X0.35S569.7
G1 X0.15S0
G1 X0.5S569.7
G1 X0.55S0
G1 X0.4S569.7
G1 X0.15S0
G1 X0.4S569.7
G1 X0.55S0
G1 X0.4S569.7
G1 X1.3S0
G1 X0.45S569.7
G1 X0.45S0
G1 X0.4S569.7
G1 X1.6S0
G1 X0.35S569.7
G1 X0.1S0
G1 X0.5S569.7
G1 X0.75S0
G1 X0.35S569.7
G1 X2.2S0
G1 X0.4S569.7
G1 X1.3S0
G1 X0.4S569.7
G1 X1.65S0
G1 X0.4S569.7
G1 X1.5S0
G1 X0.45S569.7
G1 X0.85S0
G1 X0.4S569.7
G1 X1.666S0
G1 Y0.05S0
G1 X-1.666S0
G1 X-0.4S569.7
G1 X-0.85S0
G1 X-0.45S569.7
G1 X-1.5S0
G1 X-0.4S569.7
G1 X-1.65S0
G1 X-0.4S569.7
G1 X-1.3S0
G1 X-0.4S569.7
G1 X-2.2S0
G1 X-0.35S569.7
G1 X-0.75S0
G1 X-0.55S569.7
G1 X-0.05S0
G1 X-0.35S569.7
G1 X-1.6S0
G1 X-0.4S569.7
G1 X-0.45S0
G1 X-0.45S569.7
G1 X-1.3S0
G1 X-0.4S569.7
G1 X-0.55S0
G1 X-0.4S569.7
G1 X-0.1S0
G1 X-0.4S569.7
G1 X-0.65S0
G1 X-0.5S569.7
G1 X-0.1S0
G1 X-0.35S569.7
G1 X-1.55S0
G1 X-0.4S569.7
G1 X-1.35S0
G1 X-5.45S532.3
G1 X-1.667S0
G1 Y0.05S0
G1 X1.667S0
G1 X5.45S532.3
G1 X1.35S0
G1 X0.4S569.7
G1 X1.55S0
G1 X0.35S569.7
G1 X0.05S0
G1 X0.5S569.7
G1 X0.75S0
G1 X0.35S569.7
G1 X0.1S0
G1 X0.4S569.7
G1 X0.55S0
G1 X0.4S569.7
G1 X1.3S0
G1 X0.45S569.7
G1 X0.45S0
G1 X0.4S569.7
G1 X1.6S0
G1 X0.35S569.7
G1 X0.05S0
G1 X0.5S569.7
G1 X0.8S0
G1 X0.35S569.7
G1 X2.2S0
G1 X0.4S569.7
G1 X1.3S0
G1 X0.4S569.7
G1 X1.65S0
G1 X0.4S569.7
G1 X1.5S0
G1 X0.45S569.7
G1 X0.85S0
G1 X0.45S569.7
G1 X1.666S0
G1 Y0.05S0
G1 X-1.666S0
G1 X-0.4S569.7
G1 X-0.9S0
G1 X-0.45S569.7
G1 X-1.5S0
G1 X-0.4S569.7
G1 X-1.65S0
G1 X-0.4S569.7
G1 X-1.3S0
G1 X-0.4S569.7
G1 X-2.2S0
G1 X-0.35S569.7
G1 X-0.85S0
G1 X-0.85S569.7
G1 X-1.6S0
G1 X-0.4S569.7
G1 X-0.45S0
G1 X-0.5S569.7
G1 X-1.25S0
G1 X-0.4S569.7
G1 X-0.55S0
G1 X-0.4S569.7
G1 X-0.05S0
G1 X-0.35S569.7
G1 X-0.85S0
G1 X-0.45S569.7
G1 X-0.05S0
G1 X-0.35S569.7
G1 X-1.55S0
G1 X-0.4S569.7
G1 X-1.35S0
G1 X-5.45S532.3
G1 X-1.667S0
G1 Y0.05S0
G1 X1.667S0
G1 X5.45S532.3
G1 X1.35S0
G1 X0.4S569.7
G1 X1.55S0
G1 X0.85S569.7
G1 X0.85S0
G1 X0.8S569.7
G1 X0.55S0
G1 X0.4S569.7
G1 X1.25S0
G1 X0.45S569.7
G1 X0.5S0
G1 X0.4S569.7
G1 X1.6S0
G1 X0.8S569.7
G1 X0.9S0
G1 X0.35S569.7
G1 X2.2S0
G1 X0.4S569.7
G1 X1.3S0
G1 X0.4S569.7
G1 X1.65S0
G1 X0.4S569.7
G1 X1.5S0
G1 X0.45S569.7
G1 X0.9S0
G1 X0.4S569.7
G1 X1.666S0
G1 Y0.05S0
G1 X-1.666S0
G1 X-0.45S569.7
G1 X-0.85S0
G1 X-0.45S569.7
G1 X-1.5S0
G1 X-0.4S569.7
G1 X-1.65S0
G1 X-0.4S569.7
G1 X-1.3S0
G1 X-0.4S569.7
G1 X-2.2S0
G1 X-0.35S569.7
G1 X-0.95S0
G1 X-0.75S569.7
G1 X-1.6S0
G1 X-0.4S569.7
G1 X-0.5S0
G1 X-0.5S569.7
G1 X-1.2S0
G1 X-0.4S569.7
G1 X-0.55S0
G1 X-0.75S569.7
G1 X-0.95S0
G1 X-0.8S569.7
G1 X-1.55S0
G1 X-0.4S569.7
G1 X-1.35S0
G1 X-5.45S532.3
G1 X-1.667S0
G1 Y0.05S0
G1 X1.667S0
G1 X5.45S532.3
G1 X1.35S0
G1 X0.4S569.7
G1 X1.55S0
G1 X0.75S569.7
G1 X1.05S0
G1 X0.7S569.7
G1 X0.55S0
G1 X0.4S569.7
G1 X1.15S0
G1 X0.5S569.7
G1 X0.55S0
G1 X0.4S569.7
G1 X1.6S0
G1 X0.75S569.7
G1 X0.95S0
G1 X0.35S569.7
G1 X2.2S0
G1 X0.4S569.7
G1 X1.3S0
G1 X0.4S569.7
G1 X1.65S0
G1 X0.4S569.7
G1 X1.5S0
G1 X0.45S569.7
G1 X0.85S0
G1 X0.45S569.7
G1 X1.666S0
G1 X-0.05Y0.05S0
G1 X-1.666S0
G1 X-0.4S569.7
G1 X-0.85S0
G1 X-0.45S569.7
G1 X-1.5S0
G1 X-0.4S569.7
G1 X-1.65S0
G1 X-0.4S569.7
G1 X-1.3S0
G1 X-0.4S569.7
G1 X-2.2S0
G1 X-0.35S569.7
G1 X-1S0
G1 X-0.7S569.7
G1 X-1.6S0
G1 X-0.4S569.7
G1 X-0.55S0
G1 X-0.55S569.7
G1 X-1.1S0
G1 X-0.4S569.7
G1 X-0.55S0
G1 X-0.65S569.7
G1 X-1.1S0
G1 X-0.75S569.7
G1 X-1.55S0
G1 X-0.4S569.7
G1 X-1.35S0
G1 X-5.45S532.3
G1 X-1.667S0
G1 Y0.05S0
G1 X1.667S0
G1 X5.45S532.3
G1 X1.35S0
G1 X0.4S569.7
G1 X1.55S0
G1 X0.7S569.7
G1 X1.2S0
G1 X0.6S569.7
G1 X0.55S0
G1 X0.4S569.7
G1 X1.05S0
G1 X0.55S569.7
G1 X0.6S0
G1 X0.4S569.7
G1 X1.6S0
G1 X0.65S569.7
G1 X1.05S0
G1 X0.35S569.7
G1 X2.2S0
G1 X0.4S569.7
G1 X1.3S0
G1 X0.4S569.7
G1 X1.65S0
G1 X0.4S569.7
G1 X1.5S0
G1 X0.45S569.7
G1 X0.85S0
G1 X0.4S569.7
G1 X1.666S0
G1 Y0.05S0
G1 X-1.666S0
G1 X-0.45S569.7
G1 X-0.8S0
G1 X-0.45S569.7
G1 X-1.5S0
G1 X-0.4S569.7
G1 X-1.65S0
G1 X-0.4S569.7
G1 X-1.3S0
G1 X-0.4S569.7
G1 X-2.2S0
G1 X-0.35S569.7
G1 X-1.1S0
G1 X-0.6S569.7
G1 X-1.6S0
G1 X-0.4S569.7
G1 X-0.65S0
G1 X-0.55S569.7
G1 X-1S0
G1 X-0.4S569.7
G1 X-0.55S0
G1 X-0.6S569.7
G1 X-1.25S0
G1 X-0.65S569.7
G1 X-1.55S0
G1 X-0.4S569.7
G1 X-1.35S0
G1 X-5.45S532.3
G1 X-1.667S0
G1 Y0.05S0
G1 X1.667S0
G1 X5.45S532.3
G1 X1.35S0
G1 X0.4S569.7
G1 X1.55S0
G1 X0.6S569.7
G1 X1.35S0
G1 X0.55S569.7
G1 X0.55S0
G1 X0.4S569.7
G1 X0.95S0
G1 X0.6S569.7
G1 X0.65S0
G1 X0.4S569.7
G1 X1.6S0
G1 X0.55S569.7
G1 X1.15S0
G1 X0.35S569.7
G1 X2.2S0
G1 X0.4S569.7
G1 X1.3S0
G1 X0.4S569.7
G1 X1.65S0
G1 X0.4S569.7
G1 X1.5S0
G1 X0.45S569.7
G1 X0.75S0
G1 X0.5S569.7
G1 X1.666S0
G1 X-0.05Y0.05S0
G1 X-1.666S0
G1 X-0.5S569.7
G1 X-0.7S0
G1 X-0.45S569.7
G1 X-1.5S0
G1 X-0.4S569.7
G1 X-1.65S0
G1 X-0.4S569.7
G1 X-1.3S0
G1 X-0.4S569.7
G1 X-2.2S0
G1 X-0.35S569.7
G1 X-1.15S0
G1 X-0.55S569.7
G1 X-1.6S0
G1 X-0.4S569.7
G1 X-0.7S0
G1 X-0.65S569.7
G1 X-0.85S0
G1 X-0.4S569.7
G1 X-0.55S0
G1 X-0.5S569.7
G1 X-1.4S0
G1 X-0.6S569.7
G1 X-1.55S0
G1 X-0.4S569.7
G1 X-1.35S0
G1 X-5.45S532.3
G1 X-1.667S0
G1 Y0.05S0
G1 X1.667S0
G1 X5.45S532.3
G1 X1.35S0
G1 X0.4S569.7
G1 X1.55S0
G1 X0.55S569.7
G1 X1.5S0
G1 X0.45S569.7
G1 X0.55S0
G1 X0.4S569.7
G1 X0.75S0
G1 X0.7S569.7
G1 X0.75S0
G1 X0.4S569.7
G1 X1.6S0
G1 X0.5S569.7
G1 X1.2S0
G1 X0.35S569.7
G1 X2.2S0
G1 X0.4S569.7
G1 X1.3S0
G1 X0.4S569.7
G1 X1.65S0
G1 X0.4S569.7
G1 X1.5S0
G1 X0.45S569.7
G1 X0.6S0
G1 X0.55S569.7
G1 X1.666S0
G1 Y0.05S0
G1 X-1.666S0
G1 X-0.7S569.7
G1 X-0.45S0
G1 X-0.45S569.7
G1 X-0.55S0
G1 X-1.35S569.7
G1 X-0.7S0
G1 X-1.35S569.7
G1 X-1.3S0
G1 X-0.4S569.7
G1 X-2.2S0
G1 X-0.35S569.7
G1 X-1.25S0
G1 X-0.5S569.7
G1 X-0.6S0
G1 X-1.35S569.7
G1 X-0.8S0
G1 X-0.85S569.7
G1 X-0.55S0
G1 X-0.4S569.7
G1 X-0.55S0
G1 X-0.45S569.7
G1 X-1.55S0
G1 X-0.5S569.7
G1 X-0.6S0
G1 X-1.35S569.7
G1 X-1.35S0
G1 X-5.45S532.3
G1 X-1.667S0
G1 Y0.05S0
G1 X1.667S0
G1 X5.45S532.3
G1 X1.35S0
G1 X1.35S569.7
G1 X0.6S0
G1 X0.5S569.7
G1 X1.6S0
G1 X0.4S569.7
G1 X0.55S0
G1 X1.75S569.7
G1 X0.85S0
G1 X1.35S569.7
G1 X0.55S0
G1 X0.5S569.7
G1 X1.3S0
G1 X0.35S569.7
G1 X2.2S0
G1 X0.4S569.7
G1 X1.3S0
G1 X1.4S569.7
G1 X0.65S0
G1 X1.4S569.7
G1 X0.5S0
G1 X1.55S569.7
G1 X1.666S0
G1 X-0.05Y0.05S0
G1 X-1.666S0
G1 X-1.5S569.7
G1 X-0.5S0
G1 X-1.4S569.7
G1 X-0.65S0
G1 X-1.4S569.7
G1 X-1.3S0
G1 X-0.4S569.7
G1 X-2.2S0
G1 X-0.35S569.7
G1 X-1.35S0
G1 X-0.5S569.7
G1 X-0.45S0
G1 X-1.4S569.7
G1 X-0.95S0
G1 X-1.65S569.7
G1 X-0.55S0
G1 X-0.35S569.7
G1 X-1.7S0
G1 X-0.5S569.7
G1 X-0.55S0
G1 X-1.35S569.7
G1 X-1.35S0
G1 X-5.45S532.3
G1 X-1.667S0
G1 Y0.05S0
G1 X1.667S0
G1 X5.45S532.3
G1 X1.35S0
G1 X1.4S569.7
G1 X0.45S0
G1 X0.5S569.7
G1 X1.8S0
G1 X0.3S569.7
G1 X0.55S0
G1 X1.6S569.7
G1 X1S0
G1 X1.4S569.7
G1 X0.4S0
G1 X0.55S569.7
G1 X1.35S0
G1 X0.35S569.7
G1 X2.2S0
G1 X0.4S569.7
G1 X1.3S0
G1 X1.45S569.7
G1 X0.6S0
G1 X1.4S569.7
G1 X0.5S0
G1 X1.45S569.7
G1 X1.666S0
G1 X-0.1Y0.05S0
G1 X-1.666S0
G1 X-1.35S569.7
G1 X-0.45S0
G1 X-1.45S569.7
G1 X-0.6S0
G1 X-1.45S569.7
G1 X-1.3S0
G1 X-0.4S569.7
G1 X-2.2S0
G1 X-0.35S569.7
G1 X-1.4S0
G1 X-0.5S569.7
G1 X-0.35S0
G1 X-1.45S569.7
G1 X-1.15S0
G1 X-1.45S569.7
G1 X-0.55S0
G1 X-0.3S569.7
G1 X-1.8S0
G1 X-0.55S569.7
G1 X-0.4S0
G1 X-1.4S569.7
G1 X-1.35S0
G1 X-5.45S532.3
G1 X-1.667S0
G1 Y0.05S0
G1 X1.667S0
G1 X5.45S532.3
G1 X1.35S0
G1 X1.45S569.7
G1 X0.35S0
G1 X0.5S569.7
G1 X1.9S0
G1 X0.25S569.7
G1 X0.65S0
G1 X1.25S569.7
G1 X1.25S0
G1 X1.45S569.7
G1 X0.3S0
G1 X0.5S569.7
G1 X1.45S0
G1 X0.35S569.7
G1 X2.2S0
G1 X0.4S569.7
G1 X1.3S0
G1 X1.45S569.7
G1 X0.6S0
G1 X1.45S569.7
G1 X0.55S0
G1 X1.15S569.7
G1 X1.666S0
G1 X-0.2Y0.05S0
G1 X-1.666S0
G1 X-0.65S569.7
G1 X-13.8S0
G1 X-0.7S569.7
G1 X-6.75S0
G1 X-2.75S532.3
G1 X-1.667S0
G1 Y0.05S0
G1 X1.667S0
G1 X2.75S532.3
G1 X1.666S0
G1 Y0.05S0
G1 X-1.666S0
G1 X-2.75S532.3
G1 X-1.667S0
G1 Y0.05S0
G1 X1.667S0
G1 X2.75S532.3
G1 X1.666S0
G1 Y0.05S0
G1 X-1.666S0
G1 X-2.75S532.3
G1 X-1.667S0
G1 Y0.05S0
G1 X1.667S0
G1 X2.75S532.3
G1 X1.666S0
G1 Y0.05S0
G1 X-1.666S0
G1 X-2.75S532.3
G1 X-1.667S0
G1 X-3Y0.05S0
G1 X1.667S0
G1 X2.7S566.9
G1 X0.3S0
G1 X2.75S532.3
G1 X1.666S0
G1 Y0.05S0
G1 X-1.666S0
G1 X-2.75S532.3
G1 X-0.3S0
G1 X-2.7S566.9
G1 X-1.667S0
G1 Y0.05S0
G1 X1.667S0
G1 X2.7S566.9
G1 X0.3S0
G1 X2.75S532.3
G1 X1.666S0
G1 Y0.05S0
G1 X-1.666S0
G1 X-2.75S532.3
G1 X-0.3S0
G1 X-2.7S566.9
G1 X-1.667S0
G1 Y0.05S0
G1 X1.667S0
G1 X2.7S566.9
G1 X0.3S0
G1 X2.75S532.3
G1 X1.666S0
G1 Y0.05S0
G1 X-1.666S0
G1 X-2.75S532.3
G1 X-0.3S0
G1 X-2.7S566.9
G1 X-1.667S0
G1 Y0.05S0
G1 X1.667S0
G1 X2.7S566.9
G1 X0.3S0
G1 X2.75S532.3
G1 X1.35S0
G1 X0.3S569.7
G1 X0.95S0
G1 X0.3S569.7
G1 X1.4S0
G1 X0.65S569.7
G1 X1.9S0
G1 X0.65S569.7
G1 X1.1S0
G1 X0.3S569.7
G1 X1S0
G1 X0.3S569.7
G1 X0.95S0
G1 X0.65S569.7
G1 X1.65S0
G1 X0.65S569.7
G1 X1.1S0
G1 X0.3S569.7
G1 X1S0
G1 X0.3S569.7
G1 X1.35S0
G1 X0.6S569.7
G1 X1.3S0
G1 X1S569.7
G1 X0.75S0
G1 X1.05S569.7
G1 X1.666S0
G1 Y0.05S0
G1 X-1.666S0
G1 X-1.05S569.7
G1 X-0.7S0
G1 X-1.05S569.7
G1 X-1.2S0
G1 X-0.85S569.7
G1 X-1.2S0
G1 X-0.3S569.7
G1 X-1S0
G1 X-0.3S569.7
G1 X-0.95S0
G1 X-0.9S569.7
G1 X-1.45S0
G1 X-0.9S569.7
G1 X-0.8S0
G1 X-0.3S569.7
G1 X-1S0
G1 X-0.3S569.7
G1 X-0.95S0
G1 X-0.95S569.7
G1 X-1.65S0
G1 X-0.85S569.7
G1 X-1.3S0
G1 X-0.3S569.7
G1 X-0.95S0
G1 X-0.3S569.7
G1 X-1.35S0
G1 X-2.75S532.3
G1 X-0.3S0
G1 X-2.7S566.9
G1 X-1.667S0
G1 Y0.05S0
G1 X1.667S0
G1 X2.7S566.9
G1 X0.3S0
G1 X2.75S532.3
G1 X1.35S0
G1 X0.3S569.7
G1 X0.95S0
G1 X0.3S569.7
G1 X1.2S0
G1 X1.05S569.7
G1 X1.45S0
G1 X1.15S569.7
G1 X0.85S0
G1 X0.3S569.7
G1 X1S0
G1 X0.3S569.7
G1 X0.8S0
G1 X0.95S569.7
G1 X1.3S0
G1 X1.1S569.7
G1 X0.85S0
G1 X0.3S569.7
G1 X1S0
G1 X0.3S569.7
G1 X1.15S0
G1 X0.95S569.7
G1 X1.15S0
G1 X1.05S569.7
G1 X0.7S0
G1 X1.1S569.7
G1 X1.666S0
G1 Y0.05S0
G1 X-1.666S0
G1 X-1.1S569.7
G1 X-0.65S0
G1 X-1.1S569.7
G1 X-1.05S0
G1 X-1.1S569.7
G1 X-1.1S0
G1 X-0.3S569.7
G1 X-1S0
G1 X-0.3S569.7
G1 X-0.8S0
G1 X-1.25S569.7
G1 X-1.15S0
G1 X-1S569.7
G1 X-0.8S0
G1 X-0.3S569.7
G1 X-1S0
G1 X-0.3S569.7
G1 X-0.8S0
G1 X-1.25S569.7
G1 X-1.3S0
G1 X-1.25S569.7
G1 X-1.1S0
G1 X-0.3S569.7
G1 X-0.95S0
G1 X-0.3S569.7
G1 X-1.35S0
G1 X-2.75S532.3
G1 X-0.3S0
G1 X-2.7S566.9
G1 X-1.667S0
G1 Y0.05S0
G1 X1.667S0
G1 X2.7S566.9
G1 X0.3S0
G1 X2.75S532.3
G1 X1.35S0
G1 X0.3S569.7
G1 X0.95S0
G1 X0.3S569.7
G1 X1.05S0
G1 X1.35S569.7
G1 X1.2S0
G1 X1.3S569.7
G1 X0.8S0
G1 X0.3S569.7
G1 X1S0
G1 X0.3S569.7
G1 X0.8S0
G1 X1.05S569.7
G1 X1.05S0
G1 X1.3S569.7
G1 X0.8S0
G1 X0.3S569.7
G1 X1S0
G1 X0.3S569.7
G1 X1.05S0
G1 X1.2S569.7
G1 X1S0
G1 X1.1S569.7
G1 X0.65S0
G1 X1.15S569.7
G1 X1.666S0
G1 X-0.85Y0.05S0
G1 X-1.666S0
G1 X-0.3S569.7
G1 X-1.4S0
G1 X-0.35S569.7
G1 X-1S0
G1 X-0.35S569.7
G1 X-0.5S0
G1 X-0.4S569.7
G1 X-1S0
G1 X-0.3S569.7
G1 X-1S0
G1 X-0.3S569.7
G1 X-0.8S0
G1 X-0.4S569.7
G1 X-0.4S0
G1 X-0.55S569.7
G1 X-0.95S0
G1 X-0.45S569.7
G1 X-0.4S0
G1 X-0.25S569.7
G1 X-0.8S0
G1 X-0.3S569.7
G1 X-1S0
G1 X-0.3S569.7
G1 X-0.8S0
G1 X-0.4S569.7
G1 X-0.4S0
G1 X-0.55S569.7
G1 X-1.1S0
G1 X-0.5S569.7
G1 X-0.45S0
G1 X-0.5S569.7
G1 X-1S0
G1 X-0.3S569.7
G1 X-0.95S0
G1 X-0.3S569.7
G1 X-1.35S0
G1 X-2.75S532.3
G1 X-0.3S0
G1 X-2.7S566.9
G1 X-1.667S0
G1 Y0.05S0
G1 X1.667S0
G1 X2.7S566.9
G1 X0.3S0
G1 X2.75S532.3
G1 X1.35S0
G1 X0.3S569.7
G1 X0.95S0
G1 X0.3S569.7
G1 X0.95S0
G1 X0.45S569.7
G1 X0.65S0
G1 X0.45S569.7
G1 X1S0
G1 X0.5S569.7
G1 X0.65S0
G1 X0.25S569.7
G1 X0.8S0
G1 X0.3S569.7
G1 X1S0
G1 X0.3S569.7
G1 X0.8S0
G1 X0.1S569.7
G1 X0.65S0
G1 X0.35S569.7
G1 X0.9S0
G1 X0.5S569.7
G1 X0.65S0
G1 X0.25S569.7
G1 X0.8S0
G1 X0.3S569.7
G1 X1S0
G1 X0.3S569.7
G1 X0.95S0
G1 X0.4S569.7
G1 X0.6S0
G1 X0.35S569.7
G1 X0.95S0
G1 X0.35S569.7
G1 X1.4S0
G1 X0.3S569.7
G1 X1.666S0
G1 Y0.05S0
G1 X-1.666S0
G1 X-0.3S569.7
G1 X-1.4S0
G1 X-0.35S569.7
G1 X-0.9S0
G1 X-0.35S569.7
G1 X-0.7S0
G1 X-0.35S569.7
G1 X-0.95S0
G1 X-0.3S569.7
G1 X-1S0
G1 X-0.3S569.7
G1 X-0.8S0
G1 X-0.1S569.7
G1 X-0.9S0
G1 X-0.45S569.7
G1 X-0.8S0
G1 X-0.35S569.7
G1 X-0.75S0
G1 X-0.1S569.7
G1 X-0.75S0
G1 X-0.3S569.7
G1 X-1S0
G1 X-0.3S569.7
G1 X-0.8S0
G1 X-0.15S569.7
G1 X-0.85S0
G1 X-0.45S569.7
G1 X-0.9S0
G1 X-0.4S569.7
G1 X-0.85S0
G1 X-0.4S569.7
G1 X-0.9S0
G1 X-0.3S569.7
G1 X-0.95S0
G1 X-0.3S569.7
G1 X-1.35S0
G1 X-2.75S532.3
G1 X-0.3S0
G1 X-2.7S566.9
G1 X-1.667S0
G1 Y0.05S0
G1 X1.667S0
G1 X2.7S566.9
G1 X0.3S0
G1 X2.75S532.3
G1 X1.35S0
G1 X0.3S569.7
G1 X0.95S0
G1 X0.3S569.7
G1 X0.9S0
G1 X0.35S569.7
G1 X0.95S0
G1 X0.35S569.7
G1 X0.85S0
G1 X0.45S569.7
G1 X1S0
G1 X0.05S569.7
G1 X0.8S0
G1 X0.3S569.7
G1 X1S0
G1 X0.3S569.7
G1 X1.6S0
G1 X0.35S569.7
G1 X0.75S0
G1 X0.45S569.7
G1 X1S0
G1 X0.05S569.7
G1 X0.8S0
G1 X0.3S569.7
G1 X1S0
G1 X0.3S569.7
G1 X0.9S0
G1 X0.35S569.7
G1 X0.8S0
G1 X0.3S569.7
G1 X0.9S0
G1 X0.35S569.7
G1 X1.4S0
G1 X0.3S569.7
G1 X1.666S0
G1 Y0.05S0
G1 X-1.666S0
G1 X-0.3S569.7
G1 X-1.4S0
G1 X-0.35S569.7
G1 X-0.9S0
G1 X-0.25S569.7
G1 X-0.85S0
G1 X-0.35S569.7
G1 X-0.9S0
G1 X-0.3S569.7
G1 X-1S0
G1 X-0.3S569.7
G1 X-1.9S0
G1 X-0.4S569.7
G1 X-0.75S0
G1 X-0.3S569.7
G1 X-1.65S0
G1 X-0.3S569.7
G1 X-1S0
G1 X-0.3S569.7
G1 X-1.9S0
G1 X-0.4S569.7
G1 X-0.8S0
G1 X-0.35S569.7
G1 X-1.05S0
G1 X-0.35S569.7
G1 X-0.85S0
G1 X-0.3S569.7
G1 X-0.95S0
G1 X-0.3S569.7
G1 X-1.35S0
G1 X-2.75S532.3
G1 X-0.3S0
G1 X-2.7S566.9
G1 X-1.667S0
G1 Y0.05S0
G1 X1.667S0
G1 X2.7S566.9
G1 X0.3S0
G1 X2.75S532.3
G1 X1.35S0
G1 X0.3S569.7
G1 X0.95S0
G1 X0.3S569.7
G1 X0.85S0
G1 X0.35S569.7
G1 X1.05S0
G1 X0.35S569.7
G1 X0.75S0
G1 X0.4S569.7
G1 X1.95S0
G1 X0.3S569.7
G1 X1S0
G1 X0.3S569.7
G1 X1.65S0
G1 X0.3S569.7
G1 X0.7S0
G1 X0.4S569.7
G1 X1.95S0
G1 X0.3S569.7
G1 X1S0
G1 X0.3S569.7
G1 X0.9S0
G1 X0.3S569.7
G1 X0.9S0
G1 X0.3S569.7
G1 X0.85S0
G1 X0.35S569.7
G1 X1.4S0
G1 X0.3S569.7
G1 X1.666S0
G1 Y0.05S0
G1 X-1.666S0
G1 X-0.3S569.7
G1 X-1.4S0
G1 X-0.35S569.7
G1 X-0.85S0
G1 X-0.25S569.7
G1 X-0.95S0
G1 X-0.3S569.7
G1 X-0.9S0
G1 X-0.3S569.7
G1 X-1S0
G1 X-0.3S569.7
G1 X-2S0
G1 X-0.35S569.7
G1 X-0.7S0
G1 X-0.3S569.7
G1 X-1.65S0
G1 X-0.3S569.7
G1 X-1S0
G1 X-0.3S569.7
G1 X-2S0
G1 X-0.35S569.7
G1 X-0.7S0
G1 X-0.35S569.7
G1 X-1.15S0
G1 X-0.35S569.7
G1 X-0.8S0
G1 X-0.3S569.7
G1 X-0.95S0
G1 X-0.3S569.7
G1 X-1.35S0
G1 X-2.75S532.3
G1 X-0.3S0
G1 X-2.7S566.9
G1 X-1.667S0
G1 Y0.05S0
G1 X1.667S0
G1 X2.7S566.9
G1 X0.3S0
G1 X2.75S532.3
G1 X1.35S0
G1 X0.3S569.7
G1 X0.95S0
G1 X0.3S569.7
G1 X0.8S0
G1 X0.35S569.7
G1 X1.15S0
G1 X0.35S569.7
G1 X0.65S0
G1 X0.35S569.7
G1 X2.05S0
G1 X0.3S569.7
G1 X1S0
G1 X0.3S569.7
G1 X1.65S0
G1 X0.3S569.7
G1 X0.65S0
G1 X0.4S569.7
G1 X2S0
G1 X0.3S569.7
G1 X1S0
G1 X0.3S569.7
G1 X0.85S0
G1 X0.35S569.7
G1 X0.95S0
G1 X0.25S569.7
G1 X0.85S0
G1 X0.35S569.7
G1 X1.4S0
G1 X0.3S569.7
G1 X1.666S0
G1 Y0.05S0
G1 X-1.666S0
G1 X-0.3S569.7
G1 X-1.4S0
G1 X-0.35S569.7
G1 X-0.85S0
G1 X-0.25S569.7
G1 X-0.95S0
G1 X-0.35S569.7
G1 X-0.85S0
G1 X-0.3S569.7
G1 X-1S0
G1 X-0.3S569.7
G1 X-2.05S0
G1 X-0.35S569.7
G1 X-0.65S0
G1 X-0.35S569.7
G1 X-1.6S0
G1 X-0.3S569.7
G1 X-1S0
G1 X-0.3S569.7
G1 X-2.05S0
G1 X-0.35S569.7
G1 X-0.6S0
G1 X-0.35S569.7
G1 X-1.25S0
G1 X-0.3S569.7
G1 X-0.8S0
G1 X-0.3S569.7
G1 X-0.95S0
G1 X-0.3S569.7
G1 X-1.35S0
G1 X-2.75S532.3
G1 X-0.3S0
G1 X-2.7S566.9
G1 X-1.667S0
G1 Y0.05S0
G1 X1.667S0
G1 X2.7S566.9
G1 X0.3S0
G1 X2.75S532.3
G1 X1.35S0
G1 X0.3S569.7
G1 X0.95S0
G1 X0.3S569.7
G1 X0.75S0
G1 X0.35S569.7
G1 X1.25S0
G1 X0.35S569.7
G1 X0.6S0
G1 X0.35S569.7
G1 X2.05S0
G1 X0.3S569.7
G1 X1S0
G1 X0.3S569.7
G1 X1.55S0
G1 X0.4S569.7
G1 X0.65S0
G1 X0.35S569.7
G1 X2.05S0
G1 X0.3S569.7
G1 X1S0
G1 X0.3S569.7
G1 X0.85S0
G1 X0.3S569.7
G1 X1S0
G1 X0.25S569.7
G1 X0.85S0
G1 X0.35S569.7
G1 X1.4S0
G1 X0.3S569.7
G1 X1.666S0
G1 Y0.05S0
G1 X-1.666S0
G1 X-0.3S569.7
G1 X-1.4S0
G1 X-0.35S569.7
G1 X-0.85S0
G1 X-0.25S569.7
G1 X-1S0
G1 X-0.3S569.7
G1 X-0.85S0
G1 X-0.3S569.7
G1 X-1S0
G1 X-0.3S569.7
G1 X-2.1S0
G1 X-0.35S569.7
G1 X-0.65S0
G1 X-0.4S569.7
G1 X-1.5S0
G1 X-0.3S569.7
G1 X-1S0
G1 X-0.3S569.7
G1 X-2.1S0
G1 X-0.35S569.7
G1 X-0.55S0
G1 X-0.35S569.7
G1 X-1.25S0
G1 X-0.35S569.7
G1 X-0.75S0
G1 X-0.3S569.7
G1 X-0.95S0
G1 X-0.3S569.7
G1 X-1.35S0
G1 X-2.75S532.3
G1 X-0.3S0
G1 X-2.7S566.9
G1 X-1.667S0
G1 Y0.05S0
G1 X1.667S0
G1 X2.7S566.9
G1 X0.3S0
G1 X2.75S532.3
G1 X1.35S0
G1 X0.3S569.7
G1 X0.95S0
G1 X0.3S569.7
G1 X0.75S0
G1 X0.3S569.7
G1 X1.35S0
G1 X0.3S569.7
G1 X0.55S0
G1 X0.35S569.7
G1 X2.1S0
G1 X0.3S569.7
G1 X1S0
G1 X0.3S569.7
G1 X1.4S0
G1 X0.5S569.7
G1 X0.65S0
G1 X0.35S569.7
G1 X2.1S0
G1 X0.3S569.7
G1 X1S0
G1 X0.3S569.7
G1 X0.85S0
G1 X0.3S569.7
G1 X1S0
G1 X0.25S569.7
G1 X0.85S0
G1 X0.35S569.7
G1 X1.4S0
G1 X0.3S569.7
G1 X1.666S0
G1 Y0.05S0
G1 X-1.666S0
G1 X-0.3S569.7
G1 X-1.4S0
G1 X-0.35S569.7
G1 X-0.85S0
G1 X-0.25S569.7
G1 X-1S0
G1 X-0.3S569.7
G1 X-0.85S0
G1 X-0.3S569.7
G1 X-1S0
G1 X-0.3S569.7
G1 X-2.1S0
G1 X-0.35S569.7
G1 X-0.7S0
G1 X-0.5S569.7
G1 X-1.35S0
G1 X-0.3S569.7
G1 X-1S0
G1 X-0.3S569.7
G1 X-2.1S0
G1 X-0.35S569.7
G1 X-0.55S0
G1 X-0.3S569.7
G1 X-1.35S0
G1 X-0.3S569.7
G1 X-0.75S0
G1 X-0.3S569.7
G1 X-0.95S0
G1 X-0.3S569.7
G1 X-1.35S0
G1 X-2.75S532.3
G1 X-0.3S0
G1 X-2.7S566.9
G1 X-1.667S0
G1 Y0.05S0
G1 X1.667S0
G1 X2.7S566.9
G1 X0.3S0
G1 X2.75S532.3
G1 X1.35S0
G1 X0.3S569.7
G1 X0.95S0
G1 X0.3S569.7
G1 X0.75S0
G1 X0.3S569.7
G1 X1.35S0
G1 X0.35S569.7
G1 X0.5S0
G1 X0.3S569.7
G1 X2.15S0
G1 X0.3S569.7
G1 X1S0
G1 X0.3S569.7
G1 X1.25S0
G1 X0.55S569.7
G1 X0.75S0
G1 X0.35S569.7
G1 X2.1S0
G1 X0.3S569.7
G1 X1S0
G1 X0.3S569.7
G1 X0.85S0
G1 X0.3S569.7
G1 X1S0
G1 X0.25S569.7
G1 X0.85S0
G1 X0.35S569.7
G1 X1.4S0
G1 X0.3S569.7
G1 X1.666S0
G1 X0.6Y0.05S0
G1 X-1.666S0
G1 X-0.9S569.7
G1 X-1.4S0
G1 X-0.35S569.7
G1 X-0.85S0
G1 X-0.25S569.7
G1 X-1S0
G1 X-0.3S569.7
G1 X-0.85S0
G1 X-1.6S569.7
G1 X-2.1S0
G1 X-0.35S569.7
G1 X-0.8S0
G1 X-0.6S569.7
G1 X-1.15S0
G1 X-1.6S569.7
G1 X-2.15S0
G1 X-0.3S569.7
G1 X-0.5S0
G1 X-0.35S569.7
G1 X-1.35S0
G1 X-0.3S569.7
G1 X-0.75S0
G1 X-1.55S569.7
G1 X-1.35S0
G1 X-2.75S532.3
G1 X-0.3S0
G1 X-2.7S566.9
G1 X-1.667S0
G1 Y0.05S0
G1 X1.667S0
G1 X2.7S566.9
G1 X0.3S0
G1 X2.75S532.3
G1 X1.35S0
G1 X1.55S569.7
G1 X0.75S0
G1 X0.3S569.7
G1 X1.35S0
G1 X0.35S569.7
G1 X0.5S0
G1 X0.3S569.7
G1 X2.15S0
G1 X1.6S569.7
G1 X1.1S0
G1 X0.55S569.7
G1 X0.9S0
G1 X0.3S569.7
G1 X2.15S0
G1 X1.6S569.7
G1 X0.85S0
G1 X0.3S569.7
G1 X1S0
G1 X0.25S569.7
G1 X0.85S0
G1 X0.35S569.7
G1 X1.4S0
G1 X0.9S569.7
G1 X1.666S0
G1 X0.05Y0.05S0
G1 X-1.666S0
G1 X-0.95S569.7
G1 X-1.4S0
G1 X-0.35S569.7
G1 X-0.85S0
G1 X-0.25S569.7
G1 X-1S0
G1 X-0.3S569.7
G1 X-0.85S0
G1 X-1.6S569.7
G1 X-2.15S0
G1 X-0.3S569.7
G1 X-0.95S0
G1 X-0.55S569.7
G1 X-1.05S0
G1 X-1.6S569.7
G1 X-2.15S0
G1 X-0.3S569.7
G1 X-0.5S0
G1 X-0.35S569.7
G1 X-1.35S0
G1 X-0.3S569.7
G1 X-0.75S0
G1 X-1.55S569.7
G1 X-1.35S0
G1 X-2.75S532.3
G1 X-0.3S0
G1 X-2.7S566.9
G1 X-1.667S0
G1 Y0.05S0
G1 X1.667S0
G1 X2.7S566.9
G1 X0.3S0
G1 X2.75S532.3
G1 X1.35S0
G1 X1.55S569.7
G1 X0.75S0
G1 X0.3S569.7
G1 X1.35S0
G1 X0.35S569.7
G1 X0.5S0
G1 X0.3S569.7
G1 X2.15S0
G1 X1.6S569.7
G1 X1S0
G1 X0.5S569.7
G1 X1.05S0
G1 X0.35S569.7
G1 X2.1S0
G1 X1.6S569.7
G1 X0.85S0
G1 X0.3S569.7
G1 X1S0
G1 X0.25S569.7
G1 X0.85S0
G1 X0.35S569.7
G1 X1.4S0
G1 X0.95S569.7
G1 X1.666S0
G1 X-0.65Y0.05S0
G1 X-1.666S0
G1 X-0.3S569.7
G1 X-1.4S0
G1 X-0.35S569.7
G1 X-0.85S0
G1 X-0.25S569.7
G1 X-1S0
G1 X-0.3S569.7
G1 X-0.85S0
G1 X-1.6S569.7
G1 X-2.1S0
G1 X-0.35S569.7
G1 X-1.1S0
G1 X-0.5S569.7
G1 X-0.95S0
G1 X-1.6S569.7
G1 X-2.15S0
G1 X-0.3S569.7
G1 X-0.55S0
G1 X-0.3S569.7
G1 X-1.35S0
G1 X-0.3S569.7
G1 X-0.75S0
G1 X-1.55S569.7
G1 X-1.35S0
G1 X-2.75S532.3
G1 X-0.3S0
G1 X-2.7S566.9
G1 X-1.667S0
G1 Y0.05S0
G1 X1.667S0
G1 X2.7S566.9
G1 X0.3S0
G1 X2.75S532.3
G1 X1.35S0
G1 X0.3S569.7
G1 X0.95S0
G1 X0.3S569.7
G1 X0.75S0
G1 X0.3S569.7
G1 X1.35S0
G1 X0.3S569.7
G1 X0.55S0
G1 X0.35S569.7
G1 X2.1S0
G1 X0.3S569.7
G1 X1S0
G1 X0.3S569.7
G1 X0.9S0
G1 X0.45S569.7
G1 X1.2S0
G1 X0.35S569.7
G1 X2.1S0
G1 X0.3S569.7
G1 X1S0
G1 X0.3S569.7
G1 X0.85S0
G1 X0.3S569.7
G1 X1S0
G1 X0.25S569.7
G1 X0.85S0
G1 X0.35S569.7
G1 X1.4S0
G1 X0.3S569.7
G1 X1.666S0
G1 Y0.05S0
G1 X-1.666S0
G1 X-0.3S569.7
G1 X-1.4S0
G1 X-0.35S569.7
G1 X-0.85S0
G1 X-0.25S569.7
G1 X-1S0
G1 X-0.3S569.7
G1 X-0.85S0
G1 X-0.3S569.7
G1 X-1S0
G1 X-0.3S569.7
G1 X-2.1S0
G1 X-0.35S569.7
G1 X-1.25S0
G1 X-0.45S569.7
G1 X-0.85S0
G1 X-0.3S569.7
G1 X-1S0
G1 X-0.3S569.7
G1 X-2.1S0
G1 X-0.35S569.7
G1 X-0.55S0
G1 X-0.3S569.7
G1 X-1.35S0
G1 X-0.3S569.7
G1 X-0.75S0
G1 X-0.3S569.7
G1 X-0.95S0
G1 X-0.3S569.7
G1 X-1.35S0
G1 X-2.75S532.3
G1 X-0.3S0
G1 X-2.7S566.9
G1 X-1.667S0
G1 Y0.05S0
G1 X1.667S0
G1 X2.7S566.9
G1 X0.3S0
G1 X2.75S532.3
G1 X1.35S0
G1 X0.3S569.7
G1 X0.95S0
G1 X0.3S569.7
G1 X0.75S0
G1 X0.35S569.7
G1 X1.25S0
G1 X0.35S569.7
G1 X0.6S0
G1 X0.3S569.7
G1 X2.1S0
G1 X0.3S569.7
G1 X1S0
G1 X0.3S569.7
G1 X0.85S0
G1 X0.35S569.7
G1 X1.4S0
G1 X0.3S569.7
G1 X2.1S0
G1 X0.3S569.7
G1 X1S0
G1 X0.3S569.7
G1 X0.85S0
G1 X0.3S569.7
G1 X1S0
G1 X0.25S569.7
G1 X0.85S0
G1 X0.35S569.7
G1 X1.4S0
G1 X0.3S569.7
G1 X1.666S0
G1 Y0.05S0
G1 X-1.666S0
G1 X-0.3S569.7
G1 X-1.4S0
G1 X-0.35S569.7
G1 X-0.85S0
G1 X-0.25S569.7
G1 X-1S0
G1 X-0.3S569.7
G1 X-0.85S0
G1 X-0.3S569.7
G1 X-1S0
G1 X-0.3S569.7
G1 X-2.05S0
G1 X-0.35S569.7
G1 X-1.45S0
G1 X-0.35S569.7
G1 X-0.8S0
G1 X-0.3S569.7
G1 X-1S0
G1 X-0.3S569.7
G1 X-2.1S0
G1 X-0.3S569.7
G1 X-0.6S0
G1 X-0.35S569.7
G1 X-1.25S0
G1 X-0.35S569.7
G1 X-0.75S0
G1 X-0.3S569.7
G1 X-0.95S0
G1 X-0.3S569.7
G1 X-1.35S0
G1 X-2.75S532.3
G1 X-0.3S0
G1 X-2.7S566.9
G1 X-1.667S0
G1 Y0.05S0
G1 X1.667S0
G1 X2.7S566.9
G1 X0.3S0
G1 X2.75S532.3
G1 X1.35S0
G1 X0.3S569.7
G1 X0.95S0
G1 X0.3S569.7
G1 X0.8S0
G1 X0.3S569.7
G1 X1.25S0
G1 X0.3S569.7
G1 X0.65S0
G1 X0.35S569.7
G1 X2.05S0
G1 X0.3S569.7
G1 X1S0
G1 X0.3S569.7
G1 X0.8S0
G1 X0.35S569.7
G1 X1.45S0
G1 X0.35S569.7
G1 X2.05S0
G1 X0.3S569.7
G1 X1S0
G1 X0.3S569.7
G1 X0.85S0
G1 X0.3S569.7
G1 X1S0
G1 X0.25S569.7
G1 X0.85S0
G1 X0.35S569.7
G1 X1.4S0
G1 X0.3S569.7
G1 X1.666S0
G1 Y0.05S0
G1 X-1.666S0
G1 X-0.3S569.7
G1 X-1.4S0
G1 X-0.35S569.7
G1 X-0.85S0
G1 X-0.25S569.7
G1 X-1S0
G1 X-0.3S569.7
G1 X-0.85S0
G1 X-0.3S569.7
G1 X-1S0
G1 X-0.3S569.7
G1 X-2.05S0
G1 X-0.3S569.7
G1 X-1.55S0
G1 X-0.3S569.7
G1 X-0.8S0
G1 X-0.3S569.7
G1 X-1S0
G1 X-0.3S569.7
G1 X-2.05S0
G1 X-0.3S569.7
G1 X-0.7S0
G1 X-0.35S569.7
G1 X-1.15S0
G1 X-0.35S569.7
G1 X-0.8S0
G1 X-0.3S569.7
G1 X-0.95S0
G1 X-0.3S569.7
G1 X-1.35S0
G1 X-2.75S532.3
G1 X-0.3S0
G1 X-2.7S566.9
G1 X-1.667S0
G1 Y0.05S0
G1 X1.667S0
G1 X2.7S566.9
G1 X0.3S0
G1 X2.75S532.3
G1 X1.35S0
G1 X0.3S569.7
G1 X0.95S0
G1 X0.3S569.7
G1 X0.8S0
G1 X0.35S569.7
G1 X1.15S0
G1 X0.35S569.7
G1 X0.7S0
G1 X0.35S569.7
G1 X2S0
G1 X0.3S569.7
G1 X1S0
G1 X0.3S569.7
G1 X0.8S0
G1 X0.3S569.7
G1 X1.55S0
G1 X0.35S569.7
G1 X2S0
G1 X0.3S569.7
G1 X1S0
G1 X0.3S569.7
G1 X0.85S0
G1 X0.3S569.7
G1 X1S0
G1 X0.25S569.7
G1 X0.85S0
G1 X0.35S569.7
G1 X1.4S0
G1 X0.3S569.7
G1 X1.666S0
G1 Y0.05S0
G1 X-1.666S0
G1 X-0.3S569.7
G1 X-1.4S0
G1 X-0.35S569.7
G1 X-0.85S0
G1 X-0.25S569.7
G1 X-1S0
G1 X-0.3S569.7
G1 X-0.85S0
G1 X-0.3S569.7
G1 X-1S0
G1 X-0.3S569.7
G1 X-1.95S0
G1 X-0.35S569.7
G1 X-1.6S0
G1 X-0.3S569.7
G1 X-0.8S0
G1 X-0.3S569.7
G1 X-1S0
G1 X-0.3S569.7
G1 X-1.95S0
G1 X-0.4S569.7
G1 X-0.75S0
G1 X-0.35S569.7
G1 X-1.05S0
G1 X-0.35S569.7
G1 X-0.85S0
G1 X-0.3S569.7
G1 X-0.95S0
G1 X-0.3S569.7
G1 X-1.35S0
G1 X-2.75S532.3
G1 X-0.3S0
G1 X-2.7S566.9
G1 X-1.667S0
G1 Y0.05S0
G1 X1.667S0
G1 X2.7S566.9
G1 X0.3S0
G1 X2.75S532.3
G1 X1.35S0
G1 X0.3S569.7
G1 X0.95S0
G1 X0.3S569.7
G1 X0.9S0
G1 X0.35S569.7
G1 X0.95S0
G1 X0.4S569.7
G1 X0.8S0
G1 X0.35S569.7
G1 X1.95S0
G1 X0.3S569.7
G1 X1S0
G1 X0.3S569.7
G1 X0.8S0
G1 X0.3S569.7
G1 X1.6S0
G1 X0.4S569.7
G1 X1.9S0
G1 X0.3S569.7
G1 X1S0
G1 X0.3S569.7
G1 X0.85S0
G1 X0.3S569.7
G1 X1S0
G1 X0.25S569.7
G1 X0.85S0
G1 X0.35S569.7
G1 X1.4S0
G1 X0.3S569.7
G1 X1.666S0
G1 Y0.05S0
G1 X-1.666S0
G1 X-0.3S569.7
G1 X-1.4S0
G1 X-0.35S569.7
G1 X-0.85S0
G1 X-0.25S569.7
G1 X-1S0
G1 X-0.3S569.7
G1 X-0.85S0
G1 X-0.3S569.7
G1 X-1S0
G1 X-0.3S569.7
G1 X-0.8S0
G1 X-0.05S569.7
G1 X-1S0
G1 X-0.4S569.7
G1 X-0.8S0
G1 X-0.05S569.7
G1 X-0.75S0
G1 X-0.3S569.7
G1 X-0.85S0
G1 X-0.3S569.7
G1 X-1S0
G1 X-0.3S569.7
G1 X-0.8S0
G1 X-0.05S569.7
G1 X-1.05S0
G1 X-0.35S569.7
G1 X-0.9S0
G1 X-0.4S569.7
G1 X-0.85S0
G1 X-0.4S569.7
G1 X-0.9S0
G1 X-0.3S569.7
G1 X-0.95S0
G1 X-0.3S569.7
G1 X-1.35S0
G1 X-2.75S532.3
G1 X-0.3S0
G1 X-2.7S566.9
G1 X-1.667S0
G1 Y0.05S0
G1 X1.667S0
G1 X2.7S566.9
G1 X0.3S0
G1 X2.75S532.3
G1 X1.35S0
G1 X0.3S569.7
G1 X0.95S0
G1 X0.3S569.7
G1 X0.95S0
G1 X0.4S569.7
G1 X0.75S0
G1 X0.4S569.7
G1 X0.95S0
G1 X0.45S569.7
G1 X0.85S0
G1 X0.15S569.7
G1 X0.8S0
G1 X0.3S569.7
G1 X1S0
G1 X0.3S569.7
G1 X0.85S0
G1 X0.35S569.7
G1 X0.65S0
G1 X0.1S569.7
G1 X0.85S0
G1 X0.4S569.7
G1 X0.85S0
G1 X0.15S569.7
G1 X0.8S0
G1 X0.3S569.7
G1 X1S0
G1 X0.3S569.7
G1 X0.85S0
G1 X0.3S569.7
G1 X1S0
G1 X0.25S569.7
G1 X0.85S0
G1 X0.35S569.7
G1 X1.4S0
G1 X0.3S569.7
G1 X1.666S0
G1 Y0.05S0
G1 X-1.666S0
G1 X-0.3S569.7
G1 X-1.4S0
G1 X-0.35S569.7
G1 X-0.85S0
G1 X-0.25S569.7
G1 X-1S0
G1 X-0.3S569.7
G1 X-0.85S0
G1 X-0.3S569.7
G1 X-1S0
G1 X-0.3S569.7
G1 X-0.8S0
G1 X-0.25S569.7
G1 X-0.65S0
G1 X-0.5S569.7
G1 X-0.85S0
G1 X-0.2S569.7
G1 X-0.5S0
G1 X-0.4S569.7
G1 X-0.85S0
G1 X-0.3S569.7
G1 X-1S0
G1 X-0.3S569.7
G1 X-0.8S0
G1 X-0.3S569.7
G1 X-0.6S0
G1 X-0.5S569.7
G1 X-1.05S0
G1 X-0.4S569.7
G1 X-0.65S0
G1 X-0.4S569.7
G1 X-1S0
G1 X-0.3S569.7
G1 X-0.95S0
G1 X-0.3S569.7
G1 X-1.35S0
G1 X-2.75S532.3
G1 X-0.3S0
G1 X-2.7S566.9
G1 X-1.667S0
G1 Y0.05S0
G1 X1.667S0
G1 X2.7S566.9
G1 X0.3S0
G1 X2.75S532.3
G1 X1.35S0
G1 X0.3S569.7
G1 X0.95S0
G1 X0.3S569.7
G1 X1.05S0
G1 X0.5S569.7
G1 X0.35S0
G1 X0.5S569.7
G1 X1.15S0
G1 X0.6S569.7
G1 X0.3S0
G1 X0.45S569.7
G1 X0.8S0
G1 X0.3S569.7
G1 X1S0
G1 X0.3S569.7
G1 X0.9S0
G1 X0.45S569.7
G1 X0.25S0
G1 X0.35S569.7
G1 X0.9S0
G1 X0.6S569.7
G1 X0.3S0
G1 X0.45S569.7
G1 X0.8S0
G1 X0.3S569.7
G1 X1S0
G1 X0.3S569.7
G1 X0.85S0
G1 X0.3S569.7
G1 X1S0
G1 X0.25S569.7
G1 X0.85S0
G1 X0.35S569.7
G1 X1.4S0
G1 X1S569.7
G1 X1.666S0
G1 X0.05Y0.05S0
G1 X-1.666S0
G1 X-1.05S569.7
G1 X-1.4S0
G1 X-0.35S569.7
G1 X-0.85S0
G1 X-0.25S569.7
G1 X-1S0
G1 X-0.3S569.7
G1 X-0.85S0
G1 X-0.3S569.7
G1 X-1S0
G1 X-0.3S569.7
G1 X-0.8S0
G1 X-1.25S569.7
G1 X-1S0
G1 X-1S569.7
G1 X-0.95S0
G1 X-0.3S569.7
G1 X-1S0
G1 X-0.3S569.7
G1 X-0.8S0
G1 X-1.3S569.7
G1 X-1.25S0
G1 X-1.25S569.7
G1 X-1.1S0
G1 X-0.3S569.7
G1 X-0.95S0
G1 X-0.3S569.7
G1 X-1.35S0
