; LightBurn 1.2.01
; GRBL device profile, current position
; Bounds: X-0.37 Y-0 to X90 Y54
G00 G17 G40 G21 G54
G91
M4
; Cut @ 6000 mm/min, 10% power
M8
G0 X0Y0
; Layer C03
G1 Y54S0F6000
G1 X85.6
G1 Y-54
G1 X-85.6
; Cut @ 4000.002 mm/min, 70% power
M8
G0 X42.102Y-0
; Layer C01 Pass 1 of 3
G1 Y41S700F4000
; Layer C01 Pass 2 of 3
G1 Y-41
; Layer C01 Pass 3 of 3
G1 Y41
; Scan @ 4000.002 mm/min, 70% power
M8
G0 X-33.737Y-38.119
; Layer C00
G1 X1.667S0
G1 X0.052S700
G1 X1.667S0
G1 X0.297Y0.05S0
G1 X-1.667S0
G1 X-0.562S700
G1 X-0.79S0
G1 X-0.244S700
G1 X-0.222S0
G1 X-0.435S700
G1 X-0.811S0
G1 X-0.301S700
G1 X-0.478S0
G1 X-0.264S700
G1 X-0.737S0
G1 X-0.263S700
G1 X-0.401S0
G1 X-0.264S700
G1 X-0.416S0
G1 X-0.245S700
G1 X-0.221S0
G1 X-0.435S700
G1 X-0.615S0
G1 X-1.377S700
G1 X-1.667S0
G1 Y0.05S0
G1 X1.667S0
G1 X1.377S700
G1 X0.529S0
G1 X0.621S700
G1 X0.121S0
G1 X0.245S700
G1 X0.416S0
G1 X0.264S700
G1 X0.401S0
G1 X0.263S700
G1 X0.738S0
G1 X0.263S700
G1 X0.478S0
G1 X0.301S700
G1 X0.725S0
G1 X0.621S700
G1 X0.122S0
G1 X0.244S700
G1 X0.675S0
G1 X0.777S700
G1 X1.666S0
G1 X0.078Y0.05S0
G1 X-1.667S0
G1 X-0.922S700
G1 X-0.607S0
G1 X-0.244S700
G1 X-0.075S0
G1 X-0.755S700
G1 X-0.638S0
G1 X-0.301S700
G1 X-0.477S0
G1 X-0.263S700
G1 X-0.739S0
G1 X-0.263S700
G1 X-0.401S0
G1 X-0.264S700
G1 X-0.416S0
G1 X-0.245S700
G1 X-0.075S0
G1 X-0.754S700
G1 X-0.442S0
G1 X-1.377S700
G1 X-1.667S0
G1 Y0.05S0
G1 X1.667S0
G1 X1.377S700
G1 X0.397S0
G1 X0.846S700
G1 X0.028S0
G1 X0.245S700
G1 X0.416S0
G1 X0.264S700
G1 X0.401S0
G1 X0.263S700
G1 X0.74S0
G1 X0.262S700
G1 X0.477S0
G1 X0.301S700
G1 X0.593S0
G1 X0.846S700
G1 X0.029S0
G1 X0.244S700
G1 X0.54S0
G1 X1.042S700
G1 X1.666S0
G1 X0.042Y0.05S0
G1 X-1.667S0
G1 X-0.414S700
G1 X-0.297S0
G1 X-0.411S700
G1 X-0.501S0
G1 X-0.503S700
G1 X-0.301S0
G1 X-0.358S700
G1 X-0.55S0
G1 X-0.301S700
G1 X-0.476S0
G1 X-0.262S700
G1 X-0.741S0
G1 X-0.263S700
G1 X-0.401S0
G1 X-0.264S700
G1 X-0.416S0
G1 X-0.506S700
G1 X-0.293S0
G1 X-0.364S700
G1 X-0.353S0
G1 X-1.028S700
G1 X-0.023S0
G1 X-0.325S700
G1 X-1.666S0
G1 X0.043Y0.05S0
G1 X1.667S0
G1 X0.327S700
G1 X1.315S0
G1 X0.322S700
G1 X0.462S0
G1 X0.422S700
G1 X0.416S0
G1 X0.264S700
G1 X0.401S0
G1 X0.263S700
G1 X0.742S0
G1 X0.261S700
G1 X0.476S0
G1 X0.301S700
G1 X0.506S0
G1 X0.32S700
G1 X0.449S0
G1 X0.437S700
G1 X0.468S0
G1 X0.339S700
G1 X0.502S0
G1 X0.355S700
G1 X1.667S0
G1 X0.027Y0.05S0
G1 X-1.667S0
G1 X-0.328S700
G1 X-0.606S0
G1 X-0.321S700
G1 X-0.436S0
G1 X-0.376S700
G1 X-0.552S0
G1 X-0.315S700
G1 X-1.246S0
G1 X-0.26S700
G1 X-0.743S0
G1 X-0.263S700
G1 X-0.401S0
G1 X-0.264S700
G1 X-0.416S0
G1 X-0.37S700
G1 X-0.568S0
G1 X-0.305S700
G1 X-1.233S0
G1 X-0.329S700
G1 X-1.666S0
G1 X0.043Y0.05S0
G1 X1.667S0
G1 X0.33S700
G1 X1.167S0
G1 X0.287S700
G1 X0.638S0
G1 X0.339S700
G1 X0.416S0
G1 X0.264S700
G1 X0.401S0
G1 X0.263S700
G1 X0.744S0
G1 X0.26S700
G1 X1.224S0
G1 X0.294S700
G1 X0.629S0
G1 X0.341S700
G1 X0.415S0
G1 X0.297S700
G1 X0.701S0
G1 X0.298S700
G1 X1.667S0
G1 X0.02Y0.05S0
G1 X-1.667S0
G1 X-0.294S700
G1 X-0.756S0
G1 X-0.288S700
G1 X-0.393S0
G1 X-0.307S700
G1 X-0.692S0
G1 X-0.286S700
G1 X-1.203S0
G1 X-0.259S700
G1 X-0.745S0
G1 X-0.263S700
G1 X-0.401S0
G1 X-0.264S700
G1 X-0.416S0
G1 X-0.312S700
G1 X-0.696S0
G1 X-0.277S700
G1 X-1.102S0
G1 X-0.331S700
G1 X-1.666S0
G1 X0.043Y0.05S0
G1 X1.667S0
G1 X0.329S700
G1 X1.039S0
G1 X0.283S700
G1 X0.736S0
G1 X0.287S700
G1 X0.416S0
G1 X0.264S700
G1 X0.401S0
G1 X0.263S700
G1 X0.746S0
G1 X0.259S700
G1 X1.181S0
G1 X0.282S700
G1 X0.743S0
G1 X0.281S700
G1 X0.372S0
G1 X0.279S700
G1 X0.811S0
G1 X0.289S700
G1 X1.667S0
G1 X-1.117Y0.05S0
G1 X-1.667S0
G1 X-0.274S700
G1 X-0.36S0
G1 X-0.265S700
G1 X-0.78S0
G1 X-0.282S700
G1 X-1.16S0
G1 X-0.258S700
G1 X-0.747S0
G1 X-0.263S700
G1 X-0.401S0
G1 X-0.264S700
G1 X-0.416S0
G1 X-0.271S700
G1 X-0.767S0
G1 X-0.289S700
G1 X-0.975S0
G1 X-0.328S700
G1 X-1.667S0
G1 X0.044Y0.05S0
G1 X1.666S0
G1 X0.328S700
G1 X0.925S0
G1 X0.28S700
G1 X0.798S0
G1 X0.256S700
G1 X0.416S0
G1 X0.264S700
G1 X0.401S0
G1 X0.263S700
G1 X0.747S0
G1 X0.258S700
G1 X1.153S0
G1 X0.276S700
G1 X0.808S0
G1 X0.25S700
G1 X0.347S0
G1 X0.27S700
G1 X1.667S0
G1 X-0.009Y0.05S0
G1 X-1.666S0
G1 X-0.274S700
G1 X-0.335S0
G1 X-0.241S700
G1 X-0.829S0
G1 X-0.268S700
G1 X-1.149S0
G1 X-0.26S700
G1 X-0.745S0
G1 X-0.263S700
G1 X-0.401S0
G1 X-0.264S700
G1 X-0.416S0
G1 X-0.244S700
G1 X-0.825S0
G1 X-0.269S700
G1 X-0.879S0
G1 X-0.326S700
G1 X-1.667S0
G1 X0.044Y0.05S0
G1 X1.666S0
G1 X0.326S700
G1 X0.833S0
G1 X0.269S700
G1 X0.833S0
G1 X0.239S700
G1 X0.416S0
G1 X0.264S700
G1 X0.401S0
G1 X0.263S700
G1 X0.744S0
G1 X0.26S700
G1 X1.147S0
G1 X0.265S700
G1 X0.835S0
G1 X0.241S700
G1 X0.331S0
G1 X0.273S700
G1 X1.666S0
G1 X1.156Y0.05S0
G1 X-1.666S0
G1 X-1.433S700
G1 X-0.327S0
G1 X-0.241S700
G1 X-0.836S0
G1 X-0.268S700
G1 X-1.144S0
G1 X-0.261S700
G1 X-0.742S0
G1 X-0.263S700
G1 X-0.401S0
G1 X-0.264S700
G1 X-0.416S0
G1 X-0.235S700
G1 X-0.84S0
G1 X-0.27S700
G1 X-0.786S0
G1 X-0.325S700
G1 X-1.667S0
G1 X0.044Y0.05S0
G1 X1.666S0
G1 X0.324S700
G1 X0.741S0
G1 X0.27S700
G1 X0.845S0
G1 X0.233S700
G1 X0.416S0
G1 X0.264S700
G1 X0.401S0
G1 X0.263S700
G1 X0.74S0
G1 X0.262S700
G1 X1.142S0
G1 X0.27S700
G1 X0.837S0
G1 X0.241S700
G1 X0.323S0
G1 X1.437S700
G1 X1.667S0
G1 Y0.05S0
G1 X-1.667S0
G1 X-1.435S700
G1 X-0.325S0
G1 X-0.241S700
G1 X-0.838S0
G1 X-0.269S700
G1 X-1.142S0
G1 X-0.263S700
G1 X-0.739S0
G1 X-0.263S700
G1 X-0.401S0
G1 X-0.264S700
G1 X-0.416S0
G1 X-0.238S700
G1 X-0.843S0
G1 X-0.267S700
G1 X-0.698S0
G1 X-0.323S700
G1 X-1.667S0
G1 X0.044Y0.05S0
G1 X1.667S0
G1 X0.322S700
G1 X0.657S0
G1 X0.271S700
G1 X0.831S0
G1 X0.244S700
G1 X0.416S0
G1 X0.264S700
G1 X0.401S0
G1 X0.264S700
G1 X0.736S0
G1 X0.264S700
G1 X1.145S0
G1 X0.266S700
G1 X0.839S0
G1 X0.241S700
G1 X0.33S0
G1 X1.431S700
G1 X1.666S0
G1 Y0.05S0
G1 X-1.666S0
G1 X-1.427S700
G1 X-0.334S0
G1 X-0.244S700
G1 X-0.837S0
G1 X-0.263S700
G1 X-1.148S0
G1 X-0.265S700
G1 X-0.731S0
G1 X-0.267S700
G1 X-0.401S0
G1 X-0.264S700
G1 X-0.416S0
G1 X-0.25S700
G1 X-0.817S0
G1 X-0.277S700
G1 X-0.617S0
G1 X-0.321S700
G1 X-1.667S0
G1 X0.044Y0.05S0
G1 X1.667S0
G1 X0.32S700
G1 X0.577S0
G1 X0.283S700
G1 X0.801S0
G1 X0.257S700
G1 X0.416S0
G1 X0.264S700
G1 X0.401S0
G1 X0.269S700
G1 X0.727S0
G1 X0.266S700
G1 X1.152S0
G1 X0.271S700
G1 X0.814S0
G1 X0.256S700
G1 X0.343S0
G1 X0.276S700
G1 X0.856S0
G1 X0.276S700
G1 X1.667S0
G1 X-0.013Y0.05S0
G1 X-1.667S0
G1 X-0.273S700
G1 X-0.839S0
G1 X-0.27S700
G1 X-0.356S0
G1 X-0.267S700
G1 X-0.792S0
G1 X-0.269S700
G1 X-1.165S0
G1 X-0.267S700
G1 X-0.718S0
G1 X-0.277S700
G1 X-0.401S0
G1 X-0.264S700
G1 X-0.416S0
G1 X-0.264S700
G1 X-0.785S0
G1 X-0.279S700
G1 X-0.547S0
G1 X-0.32S700
G1 X-1.666S0
G1 X0.043Y0.05S0
G1 X1.667S0
G1 X0.318S700
G1 X0.517S0
G1 X0.284S700
G1 X0.752S0
G1 X0.28S700
G1 X0.416S0
G1 X0.264S700
G1 X0.401S0
G1 X0.289S700
G1 X0.704S0
G1 X0.268S700
G1 X1.178S0
G1 X0.27S700
G1 X0.761S0
G1 X0.285S700
G1 X0.368S0
G1 X0.275S700
G1 X0.813S0
G1 X0.269S700
G1 X1.667S0
G1 X-0.013Y0.05S0
G1 X-1.667S0
G1 X-0.271S700
G1 X-0.779S0
G1 X-0.276S700
G1 X-0.386S0
G1 X-0.309S700
G1 X-0.712S0
G1 X-0.282S700
G1 X-1.192S0
G1 X-0.275S700
G1 X-0.685S0
G1 X-0.3S700
G1 X-0.401S0
G1 X-0.264S700
G1 X-0.416S0
G1 X-0.301S700
G1 X-0.709S0
G1 X-0.294S700
G1 X-0.486S0
G1 X-0.318S700
G1 X-1.666S0
G1 X0.043Y0.05S0
G1 X1.667S0
G1 X0.317S700
G1 X0.464S0
G1 X0.295S700
G1 X0.661S0
G1 X0.327S700
G1 X0.416S0
G1 X0.264S700
G1 X0.401S0
G1 X0.326S700
G1 X0.646S0
G1 X0.28S700
G1 X1.22S0
G1 X0.286S700
G1 X0.664S0
G1 X0.333S700
G1 X0.408S0
G1 X0.273S700
G1 X0.733S0
G1 X0.275S700
G1 X1.667S0
G1 X-0.028Y0.05S0
G1 X-1.666S0
G1 X-0.275S700
G1 X-0.663S0
G1 X-0.294S700
G1 X-0.43S0
G1 X-0.37S700
G1 X-0.591S0
G1 X-0.298S700
G1 X-1.251S0
G1 X-0.293S700
G1 X-0.59S0
G1 X-0.362S700
G1 X-0.401S0
G1 X-0.264S700
G1 X-0.416S0
G1 X-0.366S700
G1 X-0.6S0
G1 X-0.293S700
G1 X-0.446S0
G1 X-0.315S700
G1 X-1.667S0
G1 X0.043Y0.05S0
G1 X1.667S0
G1 X0.315S700
G1 X0.427S0
G1 X0.315S700
G1 X0.511S0
G1 X0.409S700
G1 X0.416S0
G1 X0.264S700
G1 X0.401S0
G1 X0.403S700
G1 X0.51S0
G1 X0.325S700
G1 X1.283S0
G1 X0.314S700
G1 X0.51S0
G1 X0.41S700
G1 X0.458S0
G1 X0.309S700
G1 X0.568S0
G1 X0.299S700
G1 X1.667S0
G1 X-0.028Y0.05S0
G1 X-1.667S0
G1 X-0.337S700
G1 X-0.424S0
G1 X-0.355S700
G1 X-0.49S0
G1 X-0.475S700
G1 X-0.38S0
G1 X-0.348S700
G1 X-1.337S0
G1 X-0.363S700
G1 X-0.367S0
G1 X-0.485S700
G1 X-0.401S0
G1 X-0.264S700
G1 X-0.416S0
G1 X-0.474S700
G1 X-0.391S0
G1 X-0.338S700
G1 X-0.416S0
G1 X-0.314S700
G1 X-1.667S0
G1 X-0.901Y0.05S0
G1 X1.667S0
G1 X1.257S700
G1 X0.412S0
G1 X0.438S700
G1 X0.124S0
G1 X0.603S700
G1 X0.416S0
G1 X0.264S700
G1 X0.401S0
G1 X0.237S700
G1 X0.028S0
G1 X0.922S700
G1 X1.404S0
G1 X0.453S700
G1 X0.093S0
G1 X0.618S700
G1 X0.523S0
G1 X0.479S700
G1 X0.119S0
G1 X0.438S700
G1 X1.667S0
G1 X-0.048Y0.05S0
G1 X-1.667S0
G1 X-0.925S700
G1 X-0.586S0
G1 X-0.262S700
G1 X-0.035S0
G1 X-0.829S700
G1 X-1.471S0
G1 X-0.847S700
G1 X-0.074S0
G1 X-0.237S700
G1 X-0.401S0
G1 X-0.264S700
G1 X-0.416S0
G1 X-0.262S700
G1 X-0.035S0
G1 X-0.829S700
G1 X-0.437S0
G1 X-1.271S700
G1 X-1.667S0
G1 Y0.05S0
G1 X1.667S0
G1 X1.271S700
G1 X0.501S0
G1 X0.718S700
G1 X0.082S0
G1 X0.262S700
G1 X0.416S0
G1 X0.264S700
G1 X0.401S0
G1 X0.237S700
G1 X0.119S0
G1 X0.746S700
G1 X1.591S0
G1 X0.718S700
G1 X0.082S0
G1 X0.262S700
G1 X0.656S0
G1 X0.807S700
G1 X1.667S0
G1 X-0.106Y0.05S0
G1 X-1.667S0
G1 X-0.631S700
G1 X-0.726S0
G1 X-0.262S700
G1 X-0.176S0
G1 X-0.545S700
G1 X-1.731S0
G1 X-0.6S700
G1 X-0.204S0
G1 X-0.237S700
G1 X-0.401S0
G1 X-0.264S700
G1 X-0.416S0
G1 X-0.262S700
G1 X-0.176S0
G1 X-0.545S700
G1 X-0.58S0
G1 X-1.271S700
G1 X-1.667S0
G1 X1.986Y0.05S0
G1 X1.667S0
G1 X0.301S700
G1 X0.285S0
G1 X0.262S700
G1 X1.633S0
G1 X0.356S700
G1 X1.999S0
G1 X0.301S700
G1 X0.285S0
G1 X0.262S700
G1 X0.887S0
G1 X0.356S700
G1 X1.667S0
G1 X-1.243Y0.05S0
G1 X-1.667S0
G1 X-0.262S700
G1 X-4.574S0
G1 X-0.262S700
G1 X-1.667S0
G1 Y0.05S0
G1 X1.667S0
G1 X0.262S700
G1 X4.574S0
G1 X0.262S700
G1 X1.667S0
G1 Y0.05S0
G1 X-1.667S0
G1 X-0.262S700
G1 X-4.574S0
G1 X-0.262S700
G1 X-1.667S0
G1 Y0.05S0
G1 X1.667S0
G1 X0.262S700
G1 X4.574S0
G1 X0.262S700
G1 X1.667S0
G1 Y0.05S0
G1 X-1.667S0
G1 X-0.262S700
G1 X-4.574S0
G1 X-0.262S700
G1 X-1.667S0
G1 Y0.05S0
G1 X1.667S0
G1 X0.262S700
G1 X0.416S0
G1 X0.264S700
G1 X3.894S0
G1 X0.262S700
G1 X1.667S0
G1 Y0.05S0
G1 X-1.667S0
G1 X-0.262S700
G1 X-3.894S0
G1 X-0.264S700
G1 X-0.416S0
G1 X-0.262S700
G1 X-1.667S0
G1 Y0.05S0
G1 X1.667S0
G1 X0.262S700
G1 X0.416S0
G1 X0.264S700
G1 X3.894S0
G1 X0.262S700
G1 X1.667S0
G1 Y0.05S0
G1 X-1.667S0
G1 X-0.262S700
G1 X-3.894S0
G1 X-0.264S700
G1 X-0.416S0
G1 X-0.262S700
G1 X-1.667S0
G1 Y0.05S0
G1 X1.667S0
G1 X0.262S700
G1 X0.416S0
G1 X0.264S700
G1 X3.894S0
G1 X0.262S700
G1 X1.667S0
G1 Y0.05S0
G1 X-1.667S0
G1 X-0.262S700
G1 X-3.894S0
G1 X-0.264S700
G1 X-0.416S0
G1 X-0.262S700
G1 X-1.667S0
G1 X19.32Y7.65S0
G1 X1.667S0
G1 X0.57S700
G1 X1.666S0
G1 X0.104Y0.05S0
G1 X-1.666S0
G1 X-0.803S700
G1 X-1.667S0
G1 X-0.076Y0.05S0
G1 X1.666S0
G1 X0.952S700
G1 X1.667S0
G1 X0.054Y0.05S0
G1 X-1.667S0
G1 X-1.047S700
G1 X-1.667S0
G1 X-0.041Y0.05S0
G1 X1.667S0
G1 X0.377S700
G1 X0.353S0
G1 X0.4S700
G1 X1.667S0
G1 X0.035Y0.05S0
G1 X-1.666S0
G1 X-0.337S700
G1 X-0.543S0
G1 X-0.306S700
G1 X-1.667S0
G1 X-0.02Y0.05S0
G1 X1.667S0
G1 X0.283S700
G1 X0.642S0
G1 X0.308S700
G1 X1.666S0
G1 X0.022Y0.05S0
G1 X-1.667S0
G1 X-0.286S700
G1 X-0.712S0
G1 X-0.266S700
G1 X-1.667S0
G1 Y0.05S0
G1 X1.663S0
G1 X0.257S700
G1 X0.74S0
G1 X0.289S700
G1 X1.667S0
G1 X0.011Y0.05S0
G1 X-1.667S0
G1 X-0.284S700
G1 X-0.975S0
G1 X-0.041S700
G1 X-1.667S0
G1 X1.032Y0.05S0
G1 X1.666S0
G1 X0.28S700
G1 X1.667S0
G1 Y0.05S0
G1 X-1.666S0
G1 X-0.265S700
G1 X-4.632S0
G1 X-0.045S700
G1 X-3.351S0
G1 X-0.056S700
G1 X-1.666S0
G1 X-14.536Y0.05S0
G1 X1.667S0
G1 X1.418S700
G1 X0.759S0
G1 X0.504S700
G1 X1.417S0
G1 X0.264S700
G1 X0.643S0
G1 X1.418S700
G1 X1.012S0
G1 X0.263S700
G1 X2.245S0
G1 X0.638S700
G1 X1.026S0
G1 X0.264S700
G1 X0.762S0
G1 X0.434S700
G1 X0.222S0
G1 X0.245S700
G1 X0.79S0
G1 X0.562S700
G1 X0.73S0
G1 X0.264S700
G1 X0.737S0
G1 X0.263S700
G1 X0.403S0
G1 X0.245S700
G1 X0.209S0
G1 X0.44S700
G1 X1.058S0
G1 X0.486S700
G1 X0.251S0
G1 X0.236S700
G1 X0.41S0
G1 X0.264S700
G1 X1.188S0
G1 X0.204S700
G1 X0.347S0
G1 X0.264S700
G1 X1.667S0
G1 Y0.05S0
G1 X-1.666S0
G1 X-0.265S700
G1 X-0.19S0
G1 X-0.521S700
G1 X-1.028S0
G1 X-0.264S700
G1 X-0.41S0
G1 X-0.236S700
G1 X-0.162S0
G1 X-0.666S700
G1 X-0.853S0
G1 X-0.635S700
G1 X-0.128S0
G1 X-0.245S700
G1 X-0.402S0
G1 X-0.263S700
G1 X-0.738S0
G1 X-0.264S700
G1 X-0.631S0
G1 X-0.777S700
G1 X-0.674S0
G1 X-0.245S700
G1 X-0.121S0
G1 X-0.622S700
G1 X-0.675S0
G1 X-0.264S700
G1 X-0.911S0
G1 X-0.889S700
G1 X-2.109S0
G1 X-0.263S700
G1 X-1.012S0
G1 X-1.412S700
G1 X-0.649S0
G1 X-0.264S700
G1 X-1.308S0
G1 X-0.72S700
G1 X-0.652S0
G1 X-1.411S700
G1 X-1.667S0
G1 X0.006Y0.05S0
G1 X1.667S0
G1 X1.405S700
G1 X0.585S0
G1 X0.847S700
G1 X1.248S0
G1 X0.264S700
G1 X0.656S0
G1 X1.405S700
G1 X1.012S0
G1 X0.263S700
G1 X2.026S0
G1 X1.069S700
G1 X0.814S0
G1 X0.264S700
G1 X0.588S0
G1 X0.755S700
G1 X0.075S0
G1 X0.245S700
G1 X0.606S0
G1 X0.922S700
G1 X0.554S0
G1 X0.264S700
G1 X0.739S0
G1 X0.262S700
G1 X0.402S0
G1 X0.245S700
G1 X0.068S0
G1 X0.754S700
G1 X0.734S0
G1 X0.788S700
G1 X0.1S0
G1 X0.236S700
G1 X0.41S0
G1 X0.264S700
G1 X0.937S0
G1 X0.712S700
G1 X0.09S0
G1 X0.266S700
G1 X1.666S0
G1 Y0.05S0
G1 X-1.665S0
G1 X-0.266S700
G1 X-0.04S0
G1 X-0.82S700
G1 X-0.88S0
G1 X-0.264S700
G1 X-0.41S0
G1 X-0.236S700
G1 X-0.05S0
G1 X-0.88S700
G1 X-0.635S0
G1 X-0.854S700
G1 X-0.025S0
G1 X-0.245S700
G1 X-0.401S0
G1 X-0.262S700
G1 X-0.74S0
G1 X-0.264S700
G1 X-0.501S0
G1 X-1.041S700
G1 X-0.54S0
G1 X-0.245S700
G1 X-0.029S0
G1 X-0.845S700
G1 X-0.544S0
G1 X-0.264S700
G1 X-0.743S0
G1 X-1.222S700
G1 X-1.944S0
G1 X-0.263S700
G1 X-1.012S0
G1 X-1.392S700
G1 X-0.669S0
G1 X-0.264S700
G1 X-1.189S0
G1 X-0.974S700
G1 X-0.517S0
G1 X-1.392S700
G1 X-1.666S0
G1 X0.016Y0.05S0
G1 X1.667S0
G1 X1.375S700
G1 X0.481S0
G1 X0.379S700
G1 X0.303S0
G1 X0.369S700
G1 X1.148S0
G1 X0.264S700
G1 X0.686S0
G1 X1.375S700
G1 X1.012S0
G1 X0.263S700
G1 X1.883S0
G1 X0.577S700
G1 X0.192S0
G1 X0.582S700
G1 X0.675S0
G1 X0.264S700
G1 X0.5S0
G1 X0.358S700
G1 X0.302S0
G1 X0.503S700
G1 X0.5S0
G1 X0.412S700
G1 X0.296S0
G1 X0.414S700
G1 X0.46S0
G1 X0.264S700
G1 X0.741S0
G1 X0.261S700
G1 X0.401S0
G1 X0.506S700
G1 X0.298S0
G1 X0.374S700
G1 X0.552S0
G1 X0.411S700
G1 X0.236S0
G1 X0.301S700
G1 X0.011S0
G1 X0.236S700
G1 X0.41S0
G1 X0.264S700
G1 X0.839S0
G1 X1.167S700
G1 X1.667S0
G1 Y0.05S0
G1 X-1.666S0
G1 X-0.492S700
G1 X-0.365S0
G1 X-0.353S700
G1 X-0.797S0
G1 X-0.264S700
G1 X-0.41S0
G1 X-0.442S700
G1 X-0.445S0
G1 X-0.337S700
G1 X-0.493S0
G1 X-0.322S700
G1 X-0.454S0
G1 X-0.432S700
G1 X-0.401S0
G1 X-0.26S700
G1 X-0.742S0
G1 X-0.264S700
G1 X-0.419S0
G1 X-0.355S700
G1 X-0.502S0
G1 X-0.338S700
G1 X-0.468S0
G1 X-0.437S700
G1 X-0.434S0
G1 X-0.336S700
G1 X-0.456S0
G1 X-0.264S700
G1 X-0.626S0
G1 X-0.441S700
G1 X-0.579S0
G1 X-0.426S700
G1 X-1.837S0
G1 X-0.263S700
G1 X-2.058S0
G1 X-0.31S700
G1 X-0.705S0
G1 X-0.264S700
G1 X-1.114S0
G1 X-0.33S700
G1 X-0.461S0
G1 X-0.33S700
G1 X-1.49S0
G1 X-0.311S700
G1 X-1.667S0
G1 X0.028Y0.05S0
G1 X1.666S0
G1 X0.323S700
G1 X1.416S0
G1 X0.32S700
G1 X0.568S0
G1 X0.302S700
G1 X1.08S0
G1 X0.264S700
G1 X0.732S0
G1 X0.318S700
G1 X2.023S0
G1 X0.263S700
G1 X1.79S0
G1 X0.399S700
G1 X0.744S0
G1 X0.399S700
G1 X0.577S0
G1 X0.264S700
G1 X0.419S0
G1 X0.313S700
G1 X0.555S0
G1 X0.376S700
G1 X0.436S0
G1 X0.32S700
G1 X0.607S0
G1 X0.328S700
G1 X0.391S0
G1 X0.264S700
G1 X0.743S0
G1 X0.26S700
G1 X0.4S0
G1 X0.382S700
G1 X0.536S0
G1 X0.32S700
G1 X0.45S0
G1 X0.31S700
G1 X0.549S0
G1 X0.378S700
G1 X0.41S0
G1 X0.264S700
G1 X0.769S0
G1 X0.312S700
G1 X0.512S0
G1 X0.415S700
G1 X1.667S0
G1 Y0.05S0
G1 X-1.666S0
G1 X-0.366S700
G1 X-0.61S0
G1 X-0.292S700
G1 X-0.741S0
G1 X-0.264S700
G1 X-0.41S0
G1 X-0.34S700
G1 X-0.614S0
G1 X-0.291S700
G1 X-0.412S0
G1 X-0.318S700
G1 X-0.609S0
G1 X-0.341S700
G1 X-0.4S0
G1 X-0.259S700
G1 X-0.744S0
G1 X-0.264S700
G1 X-0.371S0
G1 X-0.299S700
G1 X-0.701S0
G1 X-0.297S700
G1 X-0.414S0
G1 X-0.341S700
G1 X-0.628S0
G1 X-0.296S700
G1 X-0.398S0
G1 X-0.264S700
G1 X-0.535S0
G1 X-0.367S700
G1 X-0.891S0
G1 X-0.372S700
G1 X-1.744S0
G1 X-0.263S700
G1 X-1.975S0
G1 X-0.338S700
G1 X-0.76S0
G1 X-0.264S700
G1 X-1.059S0
G1 X-0.288S700
G1 X-0.649S0
G1 X-0.301S700
G1 X-1.351S0
G1 X-0.333S700
G1 X-1.667S0
G1 X0.041Y0.05S0
G1 X1.667S0
G1 X0.339S700
G1 X1.291S0
G1 X0.279S700
G1 X0.72S0
G1 X0.269S700
G1 X1.042S0
G1 X0.264S700
G1 X0.801S0
G1 X0.347S700
G1 X1.925S0
G1 X0.263S700
G1 X1.709S0
G1 X0.346S700
G1 X1.006S0
G1 X0.346S700
G1 X0.502S0
G1 X0.264S700
G1 X0.377S0
G1 X0.284S700
G1 X0.694S0
G1 X0.308S700
G1 X0.393S0
G1 X0.287S700
G1 X0.757S0
G1 X0.293S700
G1 X0.352S0
G1 X0.264S700
G1 X0.745S0
G1 X0.259S700
G1 X0.399S0
G1 X0.313S700
G1 X0.669S0
G1 X0.309S700
G1 X0.382S0
G1 X0.275S700
G1 X0.667S0
G1 X0.31S700
G1 X0.41S0
G1 X0.264S700
G1 X0.714S0
G1 X0.278S700
G1 X0.69S0
G1 X0.328S700
G1 X1.666S0
G1 Y0.05S0
G1 X-1.666S0
G1 X-0.298S700
G1 X-0.745S0
G1 X-0.271S700
G1 X-0.696S0
G1 X-0.264S700
G1 X-0.41S0
G1 X-0.292S700
G1 X-0.696S0
G1 X-0.269S700
G1 X-0.365S0
G1 X-0.29S700
G1 X-0.728S0
G1 X-0.285S700
G1 X-0.399S0
G1 X-0.258S700
G1 X-0.746S0
G1 X-0.264S700
G1 X-0.332S0
G1 X-0.289S700
G1 X-0.81S0
G1 X-0.279S700
G1 X-0.372S0
G1 X-0.281S700
G1 X-0.751S0
G1 X-0.275S700
G1 X-0.356S0
G1 X-0.264S700
G1 X-0.469S0
G1 X-0.33S700
G1 X-1.095S0
G1 X-0.33S700
G1 X-1.685S0
G1 X-0.263S700
G1 X-1.874S0
G1 X-0.357S700
G1 X-0.842S0
G1 X-0.264S700
G1 X-1.026S0
G1 X-0.27S700
G1 X-0.755S0
G1 X-0.273S700
G1 X-1.224S0
G1 X-0.351S700
G1 X-1.666S0
G1 X0.047Y0.05S0
G1 X1.667S0
G1 X0.357S700
G1 X1.157S0
G1 X0.266S700
G1 X0.788S0
G1 X0.271S700
G1 X1.012S0
G1 X0.264S700
G1 X0.89S0
G1 X0.36S700
G1 X1.823S0
G1 X0.263S700
G1 X1.661S0
G1 X0.315S700
G1 X1.169S0
G1 X0.325S700
G1 X0.439S0
G1 X0.264S700
G1 X0.335S0
G1 X0.28S700
G1 X0.782S0
G1 X0.266S700
G1 X0.359S0
G1 X0.275S700
G1 X1.448S0
G1 X0.264S700
G1 X0.747S0
G1 X0.257S700
G1 X0.399S0
G1 X0.267S700
G1 X0.767S0
G1 X0.28S700
G1 X0.353S0
G1 X0.261S700
G1 X0.723S0
G1 X0.274S700
G1 X0.41S0
G1 X0.264S700
G1 X0.679S0
G1 X0.266S700
G1 X0.785S0
G1 X0.281S700
G1 X1.667S0
G1 Y0.05S0
G1 X-1.666S0
G1 X-0.267S700
G1 X-0.815S0
G1 X-0.269S700
G1 X-0.661S0
G1 X-0.264S700
G1 X-0.41S0
G1 X-0.266S700
G1 X-0.731S0
G1 X-0.262S700
G1 X-0.34S0
G1 X-0.28S700
G1 X-0.791S0
G1 X-0.255S700
G1 X-0.398S0
G1 X-0.259S700
G1 X-0.746S0
G1 X-0.264S700
G1 X-1.465S0
G1 X-0.27S700
G1 X-0.347S0
G1 X-0.251S700
G1 X-0.812S0
G1 X-0.272S700
G1 X-0.328S0
G1 X-0.264S700
G1 X-0.418S0
G1 X-0.312S700
G1 X-1.243S0
G1 X-0.298S700
G1 X-1.638S0
G1 X-0.263S700
G1 X-1.772S0
G1 X-0.363S700
G1 X-0.938S0
G1 X-0.264S700
G1 X-1.006S0
G1 X-0.264S700
G1 X-0.821S0
G1 X-0.259S700
G1 X-1.086S0
G1 X-0.367S700
G1 X-1.667S0
G1 X0.048Y0.05S0
G1 X1.667S0
G1 X0.377S700
G1 X1.015S0
G1 X0.266S700
G1 X0.832S0
G1 X0.265S700
G1 X1S0
G1 X0.264S700
G1 X0.986S0
G1 X0.366S700
G1 X1.721S0
G1 X0.263S700
G1 X1.614S0
G1 X0.296S700
G1 X1.295S0
G1 X0.308S700
G1 X0.396S0
G1 X0.264S700
G1 X0.325S0
G1 X0.261S700
G1 X0.836S0
G1 X0.241S700
G1 X0.335S0
G1 X0.273S700
G1 X1.474S0
G1 X0.264S700
G1 X0.745S0
G1 X0.259S700
G1 X0.399S0
G1 X0.242S700
G1 X0.816S0
G1 X0.279S700
G1 X0.328S0
G1 X0.263S700
G1 X0.739S0
G1 X0.258S700
G1 X0.41S0
G1 X0.264S700
G1 X0.653S0
G1 X0.27S700
G1 X0.827S0
G1 X0.263S700
G1 X1.667S0
G1 Y0.05S0
G1 X-1.666S0
G1 X-0.259S700
G1 X-0.84S0
G1 X-0.271S700
G1 X-0.644S0
G1 X-0.264S700
G1 X-0.41S0
G1 X-0.26S700
G1 X-0.737S0
G1 X-0.264S700
G1 X-0.323S0
G1 X-0.271S700
G1 X-0.831S0
G1 X-0.239S700
G1 X-0.4S0
G1 X-0.26S700
G1 X-0.743S0
G1 X-0.264S700
G1 X-1.479S0
G1 X-0.273S700
G1 X-0.33S0
G1 X-0.241S700
G1 X-0.837S0
G1 X-0.264S700
G1 X-0.321S0
G1 X-0.264S700
G1 X-0.375S0
G1 X-0.309S700
G1 X-1.334S0
G1 X-0.299S700
G1 X-1.592S0
G1 X-0.263S700
G1 X-1.662S0
G1 X-0.368S700
G1 X-1.043S0
G1 X-0.264S700
G1 X-0.994S0
G1 X-0.267S700
G1 X-0.837S0
G1 X-0.278S700
G1 X-0.944S0
G1 X-0.378S700
G1 X-1.667S0
G1 X0.058Y0.05S0
G1 X1.666S0
G1 X0.38S700
G1 X0.875S0
G1 X0.286S700
G1 X0.843S0
G1 X0.269S700
G1 X0.988S0
G1 X0.264S700
G1 X1.1S0
G1 X0.37S700
G1 X1.603S0
G1 X0.263S700
G1 X1.581S0
G1 X0.29S700
G1 X1.375S0
G1 X0.301S700
G1 X0.362S0
G1 X0.264S700
G1 X0.318S0
G1 X0.267S700
G1 X0.837S0
G1 X0.241S700
G1 X0.326S0
G1 X1.433S700
G1 X0.323S0
G1 X0.264S700
G1 X0.741S0
G1 X0.261S700
G1 X0.401S0
G1 X0.24S700
G1 X0.842S0
G1 X0.263S700
G1 X0.318S0
G1 X0.265S700
G1 X0.734S0
G1 X0.263S700
G1 X0.41S0
G1 X0.264S700
G1 X0.636S0
G1 X0.274S700
G1 X0.85S0
G1 X0.255S700
G1 X1.666S0
G1 Y0.05S0
G1 X-1.666S0
G1 X-0.25S700
G1 X-0.861S0
G1 X-0.27S700
G1 X-0.634S0
G1 X-0.264S700
G1 X-0.41S0
G1 X-0.263S700
G1 X-0.734S0
G1 X-0.266S700
G1 X-0.312S0
G1 X-0.265S700
G1 X-0.844S0
G1 X-0.241S700
G1 X-0.401S0
G1 X-0.262S700
G1 X-0.74S0
G1 X-0.264S700
G1 X-0.323S0
G1 X-1.437S700
G1 X-0.322S0
G1 X-0.241S700
G1 X-0.837S0
G1 X-0.271S700
G1 X-0.314S0
G1 X-0.264S700
G1 X-0.351S0
G1 X-0.301S700
G1 X-1.405S0
G1 X-0.282S700
G1 X-1.57S0
G1 X-0.263S700
G1 X-1.543S0
G1 X-0.372S700
G1 X-1.158S0
G1 X-0.264S700
G1 X-0.987S0
G1 X-0.276S700
G1 X-0.838S0
G1 X-0.289S700
G1 X-0.813S0
G1 X-0.38S700
G1 X-1.667S0
G1 X0.058Y0.05S0
G1 X1.667S0
G1 X0.381S700
G1 X0.75S0
G1 X0.307S700
G1 X0.812S0
G1 X0.276S700
G1 X0.999S0
G1 X0.264S700
G1 X1.216S0
G1 X0.373S700
G1 X1.484S0
G1 X0.263S700
G1 X1.559S0
G1 X0.278S700
G1 X1.429S0
G1 X0.302S700
G1 X0.341S0
G1 X0.264S700
G1 X0.315S0
G1 X0.269S700
G1 X0.838S0
G1 X0.241S700
G1 X0.325S0
G1 X1.434S700
G1 X0.323S0
G1 X0.264S700
G1 X0.738S0
G1 X0.263S700
G1 X0.402S0
G1 X0.242S700
G1 X0.838S0
G1 X0.274S700
G1 X0.307S0
G1 X0.267S700
G1 X0.734S0
G1 X0.263S700
G1 X0.41S0
G1 X0.264S700
G1 X0.635S0
G1 X0.264S700
G1 X0.871S0
G1 X0.246S700
G1 X1.666S0
G1 Y0.05S0
G1 X-1.667S0
G1 X-0.248S700
G1 X-0.865S0
G1 X-0.267S700
G1 X-0.632S0
G1 X-0.267S700
G1 X-0.41S0
G1 X-0.263S700
G1 X-0.734S0
G1 X-0.268S700
G1 X-0.307S0
G1 X-0.277S700
G1 X-0.833S0
G1 X-0.243S700
G1 X-0.403S0
G1 X-0.264S700
G1 X-0.736S0
G1 X-0.264S700
G1 X-0.322S0
G1 X-1.431S700
G1 X-0.329S0
G1 X-0.242S700
G1 X-0.838S0
G1 X-0.266S700
G1 X-0.317S0
G1 X-0.264S700
G1 X-0.33S0
G1 X-0.304S700
G1 X-1.441S0
G1 X-0.286S700
G1 X-1.548S0
G1 X-0.263S700
G1 X-1.425S0
G1 X-0.375S700
G1 X-1.273S0
G1 X-0.264S700
G1 X-1.011S0
G1 X-0.277S700
G1 X-0.782S0
G1 X-0.328S700
G1 X-0.687S0
G1 X-0.383S700
G1 X-1.667S0
G1 X0.057Y0.05S0
G1 X1.667S0
G1 X0.385S700
G1 X0.624S0
G1 X0.35S700
G1 X0.742S0
G1 X0.287S700
G1 X1.023S0
G1 X0.264S700
G1 X1.329S0
G1 X0.374S700
G1 X1.37S0
G1 X0.263S700
G1 X1.537S0
G1 X0.293S700
G1 X1.451S0
G1 X0.3S700
G1 X0.328S0
G1 X0.264S700
G1 X0.318S0
G1 X0.264S700
G1 X0.836S0
G1 X0.245S700
G1 X0.333S0
G1 X1.427S700
G1 X0.322S0
G1 X0.267S700
G1 X0.732S0
G1 X0.265S700
G1 X0.403S0
G1 X0.244S700
G1 X0.827S0
G1 X0.274S700
G1 X0.314S0
G1 X0.269S700
G1 X0.734S0
G1 X0.263S700
G1 X0.41S0
G1 X0.271S700
G1 X0.632S0
G1 X0.27S700
G1 X0.85S0
G1 X0.256S700
G1 X1.666S0
G1 Y0.05S0
G1 X-1.667S0
G1 X-0.263S700
G1 X-0.834S0
G1 X-0.268S700
G1 X-0.639S0
G1 X-0.274S700
G1 X-0.41S0
G1 X-0.263S700
G1 X-0.734S0
G1 X-0.269S700
G1 X-0.323S0
G1 X-0.269S700
G1 X-0.818S0
G1 X-0.249S700
G1 X-0.404S0
G1 X-0.266S700
G1 X-0.727S0
G1 X-0.27S700
G1 X-0.332S0
G1 X-0.276S700
G1 X-0.856S0
G1 X-0.275S700
G1 X-0.343S0
G1 X-0.256S700
G1 X-0.815S0
G1 X-0.27S700
G1 X-0.322S0
G1 X-0.264S700
G1 X-0.327S0
G1 X-0.297S700
G1 X-1.458S0
G1 X-0.296S700
G1 X-1.531S0
G1 X-0.263S700
G1 X-1.318S0
G1 X-0.369S700
G1 X-1.386S0
G1 X-0.264S700
G1 X-1.035S0
G1 X-0.308S700
G1 X-0.691S0
G1 X-0.372S700
G1 X-0.576S0
G1 X-0.373S700
G1 X-1.666S0
G1 X0.056Y0.05S0
G1 X1.667S0
G1 X0.36S700
G1 X0.528S0
G1 X0.421S700
G1 X0.613S0
G1 X0.319S700
G1 X1.057S0
G1 X0.264S700
G1 X1.443S0
G1 X0.36S700
G1 X1.27S0
G1 X0.263S700
G1 X1.532S0
G1 X0.292S700
G1 X1.466S0
G1 X0.292S700
G1 X0.327S0
G1 X0.264S700
G1 X0.334S0
G1 X0.269S700
G1 X0.792S0
G1 X0.268S700
G1 X0.355S0
G1 X0.27S700
G1 X0.84S0
G1 X0.272S700
G1 X0.345S0
G1 X0.278S700
G1 X0.717S0
G1 X0.267S700
G1 X0.405S0
G1 X0.265S700
G1 X0.789S0
G1 X0.274S700
G1 X0.33S0
G1 X0.27S700
G1 X0.734S0
G1 X0.263S700
G1 X0.41S0
G1 X0.279S700
G1 X0.643S0
G1 X0.27S700
G1 X0.81S0
G1 X0.276S700
G1 X1.666S0
G1 Y0.05S0
G1 X-1.667S0
G1 X-0.297S700
G1 X-0.766S0
G1 X-0.281S700
G1 X-0.649S0
G1 X-0.284S700
G1 X-0.41S0
G1 X-0.263S700
G1 X-0.734S0
G1 X-0.269S700
G1 X-0.34S0
G1 X-0.288S700
G1 X-0.75S0
G1 X-0.281S700
G1 X-0.405S0
G1 X-0.268S700
G1 X-0.705S0
G1 X-0.289S700
G1 X-0.357S0
G1 X-0.27S700
G1 X-0.813S0
G1 X-0.274S700
G1 X-0.368S0
G1 X-0.285S700
G1 X-0.762S0
G1 X-0.27S700
G1 X-0.346S0
G1 X-0.264S700
G1 X-0.326S0
G1 X-0.288S700
G1 X-1.473S0
G1 X-0.29S700
G1 X-1.532S0
G1 X-0.263S700
G1 X-1.221S0
G1 X-0.353S700
G1 X-1.499S0
G1 X-0.264S700
G1 X-1.091S0
G1 X-0.342S700
G1 X-0.51S0
G1 X-0.468S700
G1 X-0.483S0
G1 X-0.348S700
G1 X-1.666S0
G1 X0.055Y0.05S0
G1 X1.666S0
G1 X0.326S700
G1 X0.455S0
G1 X0.259S700
G1 X0.291
G1 X0.359S0
G1 X0.373S700
G1 X1.124S0
G1 X0.264S700
G1 X1.554S0
G1 X0.346S700
G1 X1.173S0
G1 X0.263S700
G1 X1.532S0
G1 X0.291S700
G1 X1.476S0
G1 X0.284S700
G1 X0.326S0
G1 X0.264S700
G1 X0.359S0
G1 X0.282S700
G1 X0.713S0
G1 X0.309S700
G1 X0.385S0
G1 X0.276S700
G1 X0.779S0
G1 X0.272S700
G1 X0.37S0
G1 X0.301S700
G1 X0.685S0
G1 X0.274S700
G1 X0.407S0
G1 X0.302S700
G1 X0.707S0
G1 X0.289S700
G1 X0.361S0
G1 X0.269S700
G1 X0.734S0
G1 X0.263S700
G1 X0.41S0
G1 X0.301S700
G1 X0.651S0
G1 X0.283S700
G1 X0.724S0
G1 X0.318S700
G1 X1.666S0
G1 Y0.05S0
G1 X-1.667S0
G1 X-0.343S700
G1 X-0.673S0
G1 X-0.289S700
G1 X-0.649S0
G1 X-0.322S700
G1 X-0.41S0
G1 X-0.263S700
G1 X-0.734S0
G1 X-0.268S700
G1 X-0.384S0
G1 X-0.289S700
G1 X-0.652S0
G1 X-0.335S700
G1 X-0.414S0
G1 X-0.28S700
G1 X-0.646S0
G1 X-0.327S700
G1 X-0.393S0
G1 X-0.276S700
G1 X-0.733S0
G1 X-0.273S700
G1 X-0.407S0
G1 X-0.333S700
G1 X-0.665S0
G1 X-0.286S700
G1 X-0.379S0
G1 X-0.264S700
G1 X-0.326S0
G1 X-0.29S700
G1 X-1.47S0
G1 X-0.29S700
G1 X-1.533S0
G1 X-0.263S700
G1 X-1.145S0
G1 X-0.322S700
G1 X-1.606S0
G1 X-0.264S700
G1 X-1.157S0
G1 X-0.937S700
G1 X-0.053S0
G1 X-0.254S700
G1 X-0.429S0
G1 X-0.305S700
G1 X-1.667S0
G1 X0.037Y0.05S0
G1 X1.666S0
G1 X0.301S700
G1 X0.402S0
G1 X0.249S700
G1 X0.099S0
G1 X0.844S700
G1 X1.204S0
G1 X0.264S700
G1 X1.642S0
G1 X0.314S700
G1 X1.117S0
G1 X0.263S700
G1 X1.533S0
G1 X0.29S700
G1 X1.462S0
G1 X0.297S700
G1 X0.327S0
G1 X0.264S700
G1 X0.404S0
G1 X0.297S700
G1 X0.591S0
G1 X0.371S700
G1 X0.429S0
G1 X0.294S700
G1 X0.663S0
G1 X0.275S700
G1 X0.421S0
G1 X0.363S700
G1 X0.589S0
G1 X0.294S700
G1 X0.421S0
G1 X0.369S700
G1 X0.596S0
G1 X0.289S700
G1 X0.406S0
G1 X0.268S700
G1 X0.734S0
G1 X0.263S700
G1 X0.41S0
G1 X0.361S700
G1 X0.629S0
G1 X0.309S700
G1 X0.594S0
G1 X0.382S700
G1 X1.667S0
G1 Y0.05S0
G1 X-1.667S0
G1 X-0.422S700
G1 X-0.515S0
G1 X-0.318S700
G1 X-0.264S0
G1 X-0.011S700
G1 X-0.33S0
G1 X-0.415S700
G1 X-0.41S0
G1 X-0.263S700
G1 X-0.734S0
G1 X-0.267S700
G1 X-0.43S0
G1 X-0.311S700
G1 X-0.501S0
G1 X-0.419S700
G1 X-0.429S0
G1 X-0.324S700
G1 X-0.51S0
G1 X-0.404S700
G1 X-0.449S0
G1 X-0.298S700
G1 X-0.568S0
G1 X-0.31S700
G1 X-0.457S0
G1 X-0.41S700
G1 X-0.51S0
G1 X-0.315S700
G1 X-0.428S0
G1 X-0.264S700
G1 X-0.329S0
G1 X-0.303S700
G1 X-1.446S0
G1 X-0.291S700
G1 X-1.54S0
G1 X-0.263S700
G1 X-1.089S0
G1 X-0.305S700
G1 X-1.679S0
G1 X-0.264S700
G1 X-1.272S0
G1 X-0.73S700
G1 X-0.145S0
G1 X-0.244S700
G1 X-0.379S0
G1 X-0.292S700
G1 X-1.667S0
G1 X0.027Y0.05S0
G1 X1.666S0
G1 X0.288S700
G1 X0.362S0
G1 X0.239S700
G1 X0.239S0
G1 X0.567S700
G1 X1.341S0
G1 X0.264S700
G1 X1.705S0
G1 X0.299S700
G1 X1.069S0
G1 X0.263S700
G1 X1.552S0
G1 X0.289S700
G1 X1.428S0
G1 X0.302S700
G1 X0.338S0
G1 X0.264S700
G1 X0.459S0
G1 X0.348S700
G1 X0.38S0
G1 X0.476S700
G1 X0.489S0
G1 X0.355S700
G1 X0.425S0
G1 X0.337S700
G1 X0.476S0
G1 X0.486S700
G1 X0.366S0
G1 X0.364S700
G1 X0.451S0
G1 X0.48S700
G1 X0.386S0
G1 X0.331S700
G1 X0.464S0
G1 X0.267S700
G1 X0.734S0
G1 X0.263S700
G1 X0.41S0
G1 X0.774S700
G1 X0.276S0
G1 X0.352S700
G1 X0.386S0
G1 X0.486S700
G1 X1.667S0
G1 Y0.05S0
G1 X-1.667S0
G1 X-0.632S700
G1 X-0.094S0
G1 X-0.467S700
G1 X-0.288S0
G1 X-0.528S700
G1 X-0.028S0
G1 X-0.237S700
G1 X-0.41S0
G1 X-0.263S700
G1 X-0.734S0
G1 X-0.266S700
G1 X-0.505S0
G1 X-0.42S700
G1 X-0.133S0
G1 X-0.604S700
G1 X-0.48S0
G1 X-0.922S700
G1 X-0.028S0
G1 X-0.237S700
G1 X-0.524S0
G1 X-0.437S700
G1 X-0.12S0
G1 X-0.479S700
G1 X-0.522S0
G1 X-0.619S700
G1 X-0.092S0
G1 X-0.454S700
G1 X-0.498S0
G1 X-0.264S700
G1 X-0.347S0
G1 X-0.302S700
G1 X-1.409S0
G1 X-0.287S700
G1 X-1.564S0
G1 X-0.263S700
G1 X-1.056S0
G1 X-0.289S700
G1 X-1.728S0
G1 X-0.264S700
G1 X-1.472S0
G1 X-0.338S700
G1 X-0.326S0
G1 X-0.245S700
G1 X-0.345S0
G1 X-0.287S700
G1 X-1.666S0
G1 X0.023Y0.05S0
G1 X1.666S0
G1 X0.286S700
G1 X0.33S0
G1 X0.25S700
G1 X1.597S0
G1 X0.107S700
G1 X0.42S0
G1 X0.264S700
G1 X1.751S0
G1 X0.279S700
G1 X0.515S0
G1 X0.108S700
G1 X0.42S0
G1 X0.263S700
G1 X1.576S0
G1 X0.287S700
G1 X1.375S0
G1 X0.314S700
G1 X0.357S0
G1 X0.264S700
G1 X0.537S0
G1 X0.829S700
G1 X0.034S0
G1 X0.263S700
G1 X0.585S0
G1 X0.926S700
G1 X0.571S0
G1 X0.237S700
G1 X0.074S0
G1 X0.847S700
G1 X0.509S0
G1 X0.264S700
G1 X0.032S0
G1 X0.821S700
G1 X0.545S0
G1 X0.266S700
G1 X0.734S0
G1 X0.263S700
G1 X0.41S0
G1 X0.237S700
G1 X0.058S0
G1 X0.516S700
G1 X0.33S0
G1 X0.842S700
G1 X0.046S0
G1 X0.244S700
G1 X1.667S0
G1 Y0.05S0
G1 X-1.667S0
G1 X-0.244S700
G1 X-0.095S0
G1 X-0.733S700
G1 X-0.371S0
G1 X-0.495S700
G1 X-0.098S0
G1 X-0.237S700
G1 X-0.41S0
G1 X-0.263S700
G1 X-0.734S0
G1 X-0.265S700
G1 X-0.587S0
G1 X-0.731S700
G1 X-0.081S0
G1 X-0.264S700
G1 X-0.565S0
G1 X-0.745S700
G1 X-0.12S0
G1 X-0.237S700
G1 X-0.619S0
G1 X-0.808S700
G1 X-0.655S0
G1 X-0.263S700
G1 X-0.082S0
G1 X-0.718S700
G1 X-0.6S0
G1 X-0.264S700
G1 X-0.373S0
G1 X-0.319S700
G1 X-1.333S0
G1 X-0.297S700
G1 X-1.587S0
G1 X-0.263S700
G1 X-0.318S0
G1 X-0.21S700
G1 X-0.502S0
G1 X-0.28S700
G1 X-1.763S0
G1 X-0.264S700
G1 X-0.318S0
G1 X-0.209S700
G1 X-1.586S0
G1 X-0.247S700
G1 X-0.334S0
G1 X-0.284S700
G1 X-1.666S0
G1 X-0.875Y0.05S0
G1 X1.666S0
G1 X0.075S700
G1 X0.812S0
G1 X0.276S700
G1 X0.344S0
G1 X0.245S700
G1 X1.574S0
G1 X0.3S700
G1 X0.227S0
G1 X0.264S700
G1 X0.888S0
G1 X0.075S700
G1 X0.812S0
G1 X0.272S700
G1 X0.498S0
G1 X0.301S700
G1 X0.227S0
G1 X0.263S700
G1 X1.599S0
G1 X0.307S700
G1 X1.29S0
G1 X0.322S700
G1 X0.391S0
G1 X0.264S700
G1 X0.68S0
G1 X0.544S700
G1 X0.176S0
G1 X0.263S700
G1 X0.725S0
G1 X0.632S700
G1 X0.725S0
G1 X0.237S700
G1 X0.205S0
G1 X0.599S700
G1 X0.626S0
G1 X0.264S700
G1 X0.17S0
G1 X0.551S700
G1 X0.678S0
G1 X0.265S700
G1 X0.734S0
G1 X0.263S700
G1 X0.41S0
G1 X0.237S700
G1 X0.146S0
G1 X0.447S700
G1 X0.432S0
G1 X0.571S700
G1 X0.196S0
G1 X0.243S700
G1 X1.667S0
G1 X-0.541Y0.05S0
G1 X-1.667S0
G1 X-0.317S700
G1 X-0.671S0
G1 X-0.27S700
G1 X-2.94S0
G1 X-0.329S700
G1 X-0.275S0
G1 X-0.264S700
G1 X-0.759S0
G1 X-0.355S700
G1 X-1.393S0
G1 X-0.356S700
G1 X-0.886S0
G1 X-0.263S700
G1 X-0.285S0
G1 X-0.3S700
G1 X-0.815S0
G1 X-0.264S700
G1 X-0.409S0
G1 X-0.325S700
G1 X-1.248S0
G1 X-0.306S700
G1 X-1.621S0
G1 X-0.263S700
G1 X-0.159S0
G1 X-0.369S700
G1 X-0.498S0
G1 X-0.26S700
G1 X-0.821S0
G1 X-0.271S700
G1 X-0.695S0
G1 X-0.264S700
G1 X-0.158S0
G1 X-0.369S700
G1 X-1.551S0
G1 X-0.254S700
G1 X-0.355S0
G1 X-0.267S700
G1 X-0.82S0
G1 X-0.27S700
G1 X-1.667S0
G1 X0.01Y0.05S0
G1 X1.667S0
G1 X0.267S700
G1 X0.802S0
G1 X0.281S700
G1 X0.366S0
G1 X0.265S700
G1 X0.756S0
G1 X0.184S700
G1 X0.586S0
G1 X0.438S700
G1 X0.089S0
G1 X0.264S700
G1 X0.701S0
G1 X0.273S700
G1 X0.802S0
G1 X0.271S700
G1 X0.498S0
G1 X0.438S700
G1 X0.09S0
G1 X0.263S700
G1 X1.644S0
G1 X0.314S700
G1 X1.184S0
G1 X0.335S700
G1 X0.432S0
G1 X0.264S700
G1 X1.4S0
G1 X0.263S700
G1 X3.749S0
G1 X0.264S700
G1 X1.666S0
G1 Y0.05S0
G1 X-1.666S0
G1 X-0.264S700
G1 X-3.749S0
G1 X-0.263S700
G1 X-1.4S0
G1 X-0.264S700
G1 X-0.461S0
G1 X-0.343S700
G1 X-1.113S0
G1 X-0.325S700
G1 X-1.667S0
G1 X-0.263S700
G1 X-0.021S0
G1 X-0.427S700
G1 X-0.579S0
G1 X-0.281S700
G1 X-0.774S0
G1 X-0.283S700
G1 X-0.708S0
G1 X-0.264S700
G1 X-0.021S0
G1 X-0.426S700
G1 X-0.592S0
G1 X-0.274S700
G1 X-0.716S0
G1 X-0.275S700
G1 X-0.392S0
G1 X-0.28S700
G1 X-0.774S0
G1 X-0.274S700
G1 X-1.667S0
G1 X0.01Y0.05S0
G1 X1.667S0
G1 X0.281S700
G1 X0.746S0
G1 X0.279S700
G1 X0.419S0
G1 X0.287S700
G1 X0.672S0
G1 X0.28S700
G1 X0.687S0
G1 X0.627S700
G1 X0.725S0
G1 X0.283S700
G1 X0.746S0
G1 X0.278S700
G1 X0.677S0
G1 X0.627S700
G1 X1.694S0
G1 X0.333S700
G1 X1.04S0
G1 X0.353S700
G1 X0.489S0
G1 X0.264S700
G1 X1.4S0
G1 X0.263S700
G1 X3.749S0
G1 X0.264S700
G1 X1.666S0
G1 Y0.05S0
G1 X-1.666S0
G1 X-0.264S700
G1 X-3.749S0
G1 X-0.263S700
G1 X-1.4S0
G1 X-0.264S700
G1 X-0.524S0
G1 X-0.356S700
G1 X-0.942S0
G1 X-0.356S700
G1 X-1.731S0
G1 X-0.542S700
G1 X-0.784S0
G1 X-0.292S700
G1 X-0.682S0
G1 X-0.294S700
G1 X-0.742S0
G1 X-0.543S700
G1 X-0.782S0
G1 X-0.292S700
G1 X-0.608S0
G1 X-0.307S700
G1 X-0.453S0
G1 X-0.302S700
G1 X-0.681S0
G1 X-0.29S700
G1 X-1.666S0
G1 X0.025Y0.05S0
G1 X1.666S0
G1 X0.307S700
G1 X0.603S0
G1 X0.316S700
G1 X0.51S0
G1 X0.312S700
G1 X0.525S0
G1 X0.314S700
G1 X0.87S0
G1 X0.476S700
G1 X0.766S0
G1 X0.313S700
G1 X0.603S0
G1 X0.306S700
G1 X0.872S0
G1 X0.476S700
G1 X1.767S0
G1 X0.395S700
G1 X0.786S0
G1 X0.396S700
G1 X0.565S0
G1 X0.264S700
G1 X1.4S0
G1 X0.263S700
G1 X3.749S0
G1 X0.264S700
G1 X1.666S0
G1 Y0.05S0
G1 X-1.666S0
G1 X-0.264S700
G1 X-3.749S0
G1 X-0.263S700
G1 X-1.4S0
G1 X-0.264S700
G1 X-0.605S0
G1 X-0.446S700
G1 X-0.621S0
G1 X-0.431S700
G1 X-1.806S0
G1 X-0.422S700
G1 X-0.948S0
G1 X-0.344S700
G1 X-0.487S0
G1 X-0.34S700
G1 X-0.795S0
G1 X-0.423S700
G1 X-0.951S0
G1 X-0.328S700
G1 X-0.442S0
G1 X-0.319S700
G1 X-0.575S0
G1 X-0.345S700
G1 X-0.487S0
G1 X-0.338S700
G1 X-1.666S0
G1 X0.03Y0.05S0
G1 X1.666S0
G1 X0.4S700
G1 X0.311S0
G1 X0.398S700
G1 X0.641S0
G1 X0.376S700
G1 X0.258S0
G1 X0.392S700
G1 X1.032S0
G1 X0.37S700
G1 X0.829S0
G1 X0.398S700
G1 X0.311S0
G1 X0.391S700
G1 X1.038S0
G1 X0.369S700
G1 X1.86S0
G1 X0.543S700
G1 X0.314S0
G1 X0.533S700
G1 X0.659S0
G1 X0.264S700
G1 X1.4S0
G1 X0.263S700
G1 X3.749S0
G1 X0.264S700
G1 X1.666S0
G1 Y0.05S0
G1 X-1.666S0
G1 X-0.264S700
G1 X-3.749S0
G1 X-0.263S700
G1 X-1.4S0
G1 X-0.264S700
G1 X-0.716S0
G1 X-1.279S700
G1 X-1.914S0
G1 X-0.316S700
G1 X-1.14S0
G1 X-1.005S700
G1 X-0.875S0
G1 X-0.316S700
G1 X-1.13S0
G1 X-0.946S700
G1 X-0.721S0
G1 X-1.001S700
G1 X-1.666S0
G1 X0.064Y0.05S0
G1 X1.666S0
G1 X0.878S700
G1 X0.855S0
G1 X0.82S700
G1 X1.234S0
G1 X0.263S700
G1 X0.929S0
G1 X0.903S700
G1 X1.241S0
G1 X0.263S700
G1 X1.983S0
G1 X1.141S700
G1 X0.785S0
G1 X0.264S700
G1 X1.4S0
G1 X0.263S700
G1 X3.749S0
G1 X0.264S700
G1 X1.666S0
G1 Y0.05S0
G1 X-1.666S0
G1 X-0.264S700
G1 X-3.749S0
G1 X-0.263S700
G1 X-1.4S0
G1 X-0.264S700
G1 X-0.868S0
G1 X-0.979S700
G1 X-2.062S0
G1 X-0.23S700
G1 X-1.348S0
G1 X-0.759S700
G1 X-0.999S0
G1 X-0.23S700
G1 X-1.337S0
G1 X-0.675S700
G1 X-0.998S0
G1 X-0.745S700
G1 X-1.667S0
G1 X0.138Y0.05S0
G1 X1.667S0
G1 X0.47S700
G1 X1.238S0
G1 X0.477S700
G1 X1.465S0
G1 X0.197S700
G1 X1.103S0
G1 X0.551S700
G1 X1.485S0
G1 X0.197S700
G1 X2.17S0
G1 X0.761S700
G1 X0.978S0
G1 X0.264S700
G1 X1.4S0
G1 X0.263S700
G1 X3.749S0
G1 X0.264S700
G1 X1.666S0
G1 X-7.081Y0.05S0
G1 X-1.667S0
G1 X-0.441S700
G1 X-1.667S0
G1 X3.549Y0.7S0
G1 X1.667S0
G1 X0.569S700
G1 X1.667S0
G1 X0.104Y0.05S0
G1 X-1.667S0
G1 X-0.802S700
G1 X-1.667S0
G1 X-0.077Y0.05S0
G1 X1.667S0
G1 X0.952S700
G1 X1.667S0
G1 X0.054Y0.05S0
G1 X-1.667S0
G1 X-1.048S700
G1 X-1.666S0
G1 X-0.041Y0.05S0
G1 X1.667S0
G1 X0.377S700
G1 X0.353S0
G1 X0.4S700
G1 X1.667S0
G1 X0.035Y0.05S0
G1 X-1.667S0
G1 X-0.336S700
G1 X-0.543S0
G1 X-0.306S700
G1 X-1.667S0
G1 X-0.02Y0.05S0
G1 X1.667S0
G1 X0.282S700
G1 X0.643S0
G1 X0.307S700
G1 X1.667S0
G1 X0.022Y0.05S0
G1 X-1.667S0
G1 X-0.286S700
G1 X-0.713S0
G1 X-0.266S700
G1 X-1.666S0
G1 Y0.05S0
G1 X1.663S0
G1 X0.257S700
G1 X0.74S0
G1 X0.289S700
G1 X1.667S0
G1 X0.011Y0.05S0
G1 X-1.667S0
G1 X-0.284S700
G1 X-0.975S0
G1 X-0.041S700
G1 X-1.667S0
G1 X1.032Y0.05S0
G1 X1.666S0
G1 X0.28S700
G1 X1.666S0
G1 Y0.05S0
G1 X-1.665S0
G1 X-0.265S700
G1 X-2.028S0
G1 X-0.051S700
G1 X-4.782S0
G1 X-0.052S700
G1 X-3.205S0
G1 X-0.015S700
G1 X-1.667S0
G1 X-3.997Y0.05S0
G1 X1.667S0
G1 X1.602S700
G1 X0.609S0
G1 X0.593S700
G1 X1.005S0
G1 X0.536S700
G1 X0.616S0
G1 X0.263S700
G1 X0.741S0
G1 X0.263S700
G1 X0.777S0
G1 X0.562S700
G1 X0.728S0
G1 X0.263S700
G1 X1.021S0
G1 X0.284S700
G1 X0.614S0
G1 X0.283S700
G1 X1.078S0
G1 X0.562S700
G1 X1.181S0
G1 X0.204S700
G1 X0.347S0
G1 X0.264S700
G1 X1.132S0
G1 X1.417S700
G1 X1.667S0
G1 Y0.05S0
G1 X-1.667S0
G1 X-1.411S700
G1 X-1.137S0
G1 X-0.265S700
G1 X-0.191S0
G1 X-0.52S700
G1 X-0.922S0
G1 X-0.776S700
G1 X-0.948S0
G1 X-0.311S700
G1 X-0.588S0
G1 X-0.313S700
G1 X-1.005S0
G1 X-0.263S700
G1 X-0.617S0
G1 X-0.789S700
G1 X-0.661S0
G1 X-0.263S700
G1 X-0.741S0
G1 X-0.263S700
G1 X-0.523S0
G1 X-0.713S700
G1 X-0.817S0
G1 X-0.808S700
G1 X-0.498S0
G1 X-1.602S700
G1 X-1.667S0
G1 Y0.05S0
G1 X1.667S0
G1 X1.602S700
G1 X0.44S0
G1 X0.947S700
G1 X0.657S0
G1 X0.862S700
G1 X0.453S0
G1 X0.263S700
G1 X0.741S0
G1 X0.263S700
G1 X0.594S0
G1 X0.919S700
G1 X0.554S0
G1 X0.263S700
G1 X0.99S0
G1 X0.341S700
G1 X0.562S0
G1 X0.34S700
G1 X0.864S0
G1 X0.922S700
G1 X0.753S0
G1 X0.711S700
G1 X0.091S0
G1 X0.265S700
G1 X1.143S0
G1 X1.405S700
G1 X1.667S0
G1 Y0.05S0
G1 X-1.667S0
G1 X-1.391S700
G1 X-1.156S0
G1 X-0.266S700
G1 X-0.039S0
G1 X-0.82S700
G1 X-0.643S0
G1 X-1.042S700
G1 X-0.781S0
G1 X-0.369S700
G1 X-0.536S0
G1 X-0.369S700
G1 X-0.975S0
G1 X-0.263S700
G1 X-0.494S0
G1 X-1.046S700
G1 X-0.527S0
G1 X-0.263S700
G1 X-0.741S0
G1 X-0.263S700
G1 X-0.402S0
G1 X-0.965S700
G1 X-0.564S0
G1 X-1.045S700
G1 X-0.383S0
G1 X-1.602S700
G1 X-1.667S0
G1 Y0.05S0
G1 X1.667S0
G1 X1.602S700
G1 X0.35S0
G1 X0.393S700
G1 X0.37S0
G1 X0.354S700
G1 X0.483S0
G1 X0.387S700
G1 X0.292S0
G1 X0.377S700
G1 X0.353S0
G1 X0.263S700
G1 X0.741S0
G1 X0.263S700
G1 X0.487S0
G1 X0.412S700
G1 X0.296S0
G1 X0.418S700
G1 X0.454S0
G1 X0.263S700
G1 X0.959S0
G1 X0.398S700
G1 X0.509S0
G1 X0.398S700
G1 X0.727S0
G1 X0.411S700
G1 X0.297S0
G1 X0.414S700
G1 X0.56S0
G1 X1.168S700
G1 X1.171S0
G1 X1.375S700
G1 X1.667S0
G1 X-1.046Y0.05S0
G1 X-1.667S0
G1 X-0.31S700
G1 X-1.189S0
G1 X-0.493S700
G1 X-0.364S0
G1 X-0.353S700
G1 X-0.478S0
G1 X-0.356S700
G1 X-0.501S0
G1 X-0.339S700
G1 X-0.678S0
G1 X-0.427S700
G1 X-0.482S0
G1 X-0.427S700
G1 X-0.944S0
G1 X-0.263S700
G1 X-0.418S0
G1 X-0.354S700
G1 X-0.502S0
G1 X-0.338S700
G1 X-0.455S0
G1 X-0.263S700
G1 X-0.741S0
G1 X-0.263S700
G1 X-0.325S0
G1 X-0.318S700
G1 X-0.476S0
G1 X-0.332S700
G1 X-0.41S0
G1 X-0.305S700
G1 X-0.541S0
G1 X-0.333S700
G1 X-1.637S0
G1 X-0.284S700
G1 X-1.667S0
G1 Y0.05S0
G1 X1.667S0
G1 X0.284S700
G1 X1.61S0
G1 X0.313S700
G1 X0.629S0
G1 X0.279S700
G1 X0.365S0
G1 X0.309S700
G1 X0.582S0
G1 X0.294S700
G1 X0.296S0
G1 X0.263S700
G1 X0.741S0
G1 X0.263S700
G1 X0.423S0
G1 X0.32S700
G1 X0.607S0
G1 X0.332S700
G1 X0.385S0
G1 X0.263S700
G1 X0.929S0
G1 X0.455S700
G1 X0.456S0
G1 X0.456S700
G1 X0.63S0
G1 X0.321S700
G1 X0.606S0
G1 X0.328S700
G1 X0.423S0
G1 X0.312S700
G1 X0.512S0
G1 X0.415S700
G1 X1.216S0
G1 X0.317S700
G1 X1.667S0
G1 X0.048Y0.05S0
G1 X-1.667S0
G1 X-0.338S700
G1 X-1.242S0
G1 X-0.366S700
G1 X-0.61S0
G1 X-0.292S700
G1 X-0.375S0
G1 X-0.298S700
G1 X-0.701S0
G1 X-0.297S700
G1 X-0.594S0
G1 X-0.237S700
G1 X-0.248
G1 X-0.429S0
G1 X-0.225S700
G1 X-0.022S0
G1 X-0.236S700
G1 X-0.914S0
G1 X-0.263S700
G1 X-0.366S0
G1 X-0.302S700
G1 X-0.7S0
G1 X-0.298S700
G1 X-0.401S0
G1 X-0.263S700
G1 X-0.741S0
G1 X-0.263S700
G1 X-0.268S0
G1 X-0.285S700
G1 X-0.666S0
G1 X-0.28S700
G1 X-0.331S0
G1 X-0.27S700
G1 X-0.701S0
G1 X-0.279S700
G1 X-1.597S0
G1 X-0.284S700
G1 X-1.667S0
G1 Y0.05S0
G1 X1.667S0
G1 X0.284S700
G1 X1.584S0
G1 X0.271S700
G1 X0.734S0
G1 X0.271S700
G1 X0.3S0
G1 X0.272S700
G1 X0.714S0
G1 X0.275S700
G1 X0.256S0
G1 X0.263S700
G1 X0.741S0
G1 X0.263S700
G1 X0.38S0
G1 X0.287S700
G1 X0.757S0
G1 X0.295S700
G1 X0.348S0
G1 X0.263S700
G1 X0.898S0
G1 X0.239S700
G1 X0.048S0
G1 X0.225S700
G1 X0.403S0
G1 X0.243S700
G1 X0.033S0
G1 X0.238S700
G1 X0.556S0
G1 X0.288S700
G1 X0.756S0
G1 X0.294S700
G1 X0.327S0
G1 X0.279S700
G1 X0.69S0
G1 X0.327S700
G1 X1.283S0
G1 X0.348S700
G1 X1.666S0
G1 X0.051Y0.05S0
G1 X-1.666S0
G1 X-0.357S700
G1 X-1.324S0
G1 X-0.299S700
G1 X-0.744S0
G1 X-0.271S700
G1 X-0.29S0
G1 X-0.289S700
G1 X-0.811S0
G1 X-0.279S700
G1 X-0.519S0
G1 X-0.239S700
G1 X-0.061S0
G1 X-0.243S700
G1 X-0.377S0
G1 X-0.225S700
G1 X-0.075S0
G1 X-0.24S700
G1 X-0.883S0
G1 X-0.263S700
G1 X-0.329S0
G1 X-0.29S700
G1 X-0.81S0
G1 X-0.279S700
G1 X-0.359S0
G1 X-0.263S700
G1 X-0.741S0
G1 X-0.263S700
G1 X-0.243S0
G1 X-0.266S700
G1 X-0.762S0
G1 X-0.264S700
G1 X-0.286S0
G1 X-0.273S700
G1 X-0.742S0
G1 X-0.267S700
G1 X-1.574S0
G1 X-0.284S700
G1 X-1.667S0
G1 Y0.05S0
G1 X1.667S0
G1 X0.284S700
G1 X2.561S0
G1 X0.291S700
G1 X0.272S0
G1 X0.268S700
G1 X0.789S0
G1 X0.265S700
G1 X0.231S0
G1 X0.263S700
G1 X0.741S0
G1 X0.263S700
G1 X0.346S0
G1 X0.275S700
G1 X1.446S0
G1 X0.263S700
G1 X0.868S0
G1 X0.241S700
G1 X0.102S0
G1 X0.225S700
G1 X0.351S0
G1 X0.243S700
G1 X0.089S0
G1 X0.239S700
G1 X0.492S0
G1 X0.274S700
G1 X1.389S0
G1 X0.266S700
G1 X0.786S0
G1 X0.281S700
G1 X1.37S0
G1 X0.36S700
G1 X1.667S0
G1 X0.051Y0.05S0
G1 X-1.667S0
G1 X-0.363S700
G1 X-1.417S0
G1 X-0.267S700
G1 X-0.815S0
G1 X-0.269S700
G1 X-1.389S0
G1 X-0.27S700
G1 X-0.463S0
G1 X-0.241S700
G1 X-0.116S0
G1 X-0.244S700
G1 X-0.323S0
G1 X-0.227S700
G1 X-0.128S0
G1 X-0.243S700
G1 X-0.852S0
G1 X-0.263S700
G1 X-1.463S0
G1 X-0.27S700
G1 X-0.334S0
G1 X-0.263S700
G1 X-0.741S0
G1 X-0.263S700
G1 X-0.446S0
G1 X-0.04S700
G1 X-0.806S0
G1 X-0.268S700
G1 X-0.268S0
G1 X-0.332S700
G1 X-2.517S0
G1 X-0.284S700
G1 X-1.667S0
G1 Y0.05S0
G1 X1.667S0
G1 X0.284S700
G1 X2.402S0
G1 X0.426S700
G1 X0.283S0
G1 X0.266S700
G1 X1.3S0
G1 X0.263S700
G1 X0.741S0
G1 X0.263S700
G1 X0.322S0
G1 X0.273S700
G1 X1.472S0
G1 X0.263S700
G1 X0.837S0
G1 X0.244S700
G1 X0.155S0
G1 X0.227S700
G1 X0.297S0
G1 X0.244S700
G1 X0.144S0
G1 X0.241S700
G1 X0.436S0
G1 X0.273S700
G1 X1.389S0
G1 X0.27S700
G1 X0.828S0
G1 X0.263S700
G1 X1.464S0
G1 X0.366S700
G1 X1.666S0
G1 X0.06Y0.05S0
G1 X-1.667S0
G1 X-0.368S700
G1 X-1.521S0
G1 X-0.258S700
G1 X-0.84S0
G1 X-0.271S700
G1 X-1.385S0
G1 X-0.273S700
G1 X-0.416S0
G1 X-0.242S700
G1 X-0.172S0
G1 X-0.244S700
G1 X-0.271S0
G1 X-0.227S700
G1 X-0.181S0
G1 X-0.246S700
G1 X-0.822S0
G1 X-0.263S700
G1 X-1.477S0
G1 X-0.273S700
G1 X-0.317S0
G1 X-0.263S700
G1 X-0.741S0
G1 X-0.263S700
G1 X-1.306S0
G1 X-0.267S700
G1 X-0.306S0
G1 X-0.577S700
G1 X-2.221S0
G1 X-0.284S700
G1 X-1.667S0
G1 Y0.05S0
G1 X1.667S0
G1 X0.284S700
G1 X2.043S0
G1 X0.716S700
G1 X0.338S0
G1 X0.269S700
G1 X1.311S0
G1 X0.263S700
G1 X0.741S0
G1 X0.263S700
G1 X0.313S0
G1 X1.433S700
G1 X0.321S0
G1 X0.263S700
G1 X0.807S0
G1 X0.247S700
G1 X0.208S0
G1 X0.227S700
G1 X0.244S0
G1 X0.245S700
G1 X0.2S0
G1 X0.243S700
G1 X0.396S0
G1 X1.432S700
G1 X0.222S0
G1 X0.273S700
G1 X0.851S0
G1 X0.254S700
G1 X1.578S0
G1 X0.369S700
G1 X1.667S0
G1 X0.059Y0.05S0
G1 X-1.666S0
G1 X-0.372S700
G1 X-1.634S0
G1 X-0.25S700
G1 X-0.861S0
G1 X-0.27S700
G1 X-0.219S0
G1 X-1.437S700
G1 X-0.377S0
G1 X-0.243S700
G1 X-0.228S0
G1 X-0.245S700
G1 X-0.218S0
G1 X-0.227S700
G1 X-0.235S0
G1 X-0.249S700
G1 X-0.791S0
G1 X-0.263S700
G1 X-0.321S0
G1 X-1.437S700
G1 X-0.309S0
G1 X-0.263S700
G1 X-0.741S0
G1 X-0.263S700
G1 X-1.316S0
G1 X-0.267S700
G1 X-0.385S0
G1 X-0.827S700
G1 X-1.882S0
G1 X-0.284S700
G1 X-1.667S0
G1 Y0.05S0
G1 X1.667S0
G1 X0.284S700
G1 X1.802S0
G1 X0.832S700
G1 X0.464S0
G1 X0.262S700
G1 X1.317S0
G1 X0.263S700
G1 X0.741S0
G1 X0.263S700
G1 X0.312S0
G1 X1.435S700
G1 X0.32S0
G1 X0.263S700
G1 X0.776S0
G1 X0.25S700
G1 X0.261S0
G1 X0.228S700
G1 X0.192S0
G1 X0.246S700
G1 X0.255S0
G1 X0.244S700
G1 X0.363S0
G1 X1.435S700
G1 X0.219S0
G1 X0.265S700
G1 X0.871S0
G1 X0.246S700
G1 X1.691S0
G1 X0.373S700
G1 X1.667S0
G1 X0.059Y0.05S0
G1 X-1.667S0
G1 X-0.375S700
G1 X-1.749S0
G1 X-0.249S700
G1 X-0.865S0
G1 X-0.266S700
G1 X-0.22S0
G1 X-1.431S700
G1 X-0.351S0
G1 X-0.246S700
G1 X-0.282S0
G1 X-0.246S700
G1 X-0.166S0
G1 X-0.228S700
G1 X-0.288S0
G1 X-0.251S700
G1 X-0.757S0
G1 X-0.267S700
G1 X-0.32S0
G1 X-1.431S700
G1 X-0.316S0
G1 X-0.263S700
G1 X-0.74S0
G1 X-0.264S700
G1 X-1.312S0
G1 X-0.263S700
G1 X-0.595S0
G1 X-0.763S700
G1 X-1.744S0
G1 X-0.284S700
G1 X-1.667S0
G1 Y0.05S0
G1 X1.667S0
G1 X0.284S700
G1 X1.697S0
G1 X0.642S700
G1 X0.767S0
G1 X0.264S700
G1 X1.307S0
G1 X0.268S700
G1 X0.736S0
G1 X0.263S700
G1 X0.32S0
G1 X1.427S700
G1 X0.32S0
G1 X0.27S700
G1 X0.738S0
G1 X0.254S700
G1 X0.314S0
G1 X0.229S700
G1 X0.138S0
G1 X0.247S700
G1 X0.31S0
G1 X0.246S700
G1 X0.341S0
G1 X1.427S700
G1 X0.223S0
G1 X0.27S700
G1 X0.849S0
G1 X0.256S700
G1 X1.807S0
G1 X0.373S700
G1 X1.666S0
G1 X0.052Y0.05S0
G1 X-1.666S0
G1 X-0.368S700
G1 X-1.864S0
G1 X-0.263S700
G1 X-0.834S0
G1 X-0.268S700
G1 X-0.243S0
G1 X-0.276S700
G1 X-0.856S0
G1 X-0.276S700
G1 X-0.334S0
G1 X-0.247S700
G1 X-0.338S0
G1 X-0.246S700
G1 X-0.113S0
G1 X-0.229S700
G1 X-0.341S0
G1 X-0.255S700
G1 X-0.72S0
G1 X-0.273S700
G1 X-0.33S0
G1 X-0.275S700
G1 X-0.856S0
G1 X-0.276S700
G1 X-0.33S0
G1 X-0.263S700
G1 X-0.733S0
G1 X-0.271S700
G1 X-1.298S0
G1 X-0.27S700
G1 X-0.945S0
G1 X-0.497S700
G1 X-1.667S0
G1 X-0.284S700
G1 X-1.667S0
G1 Y0.05S0
G1 X1.667S0
G1 X1.472S700
G1 X0.452S0
G1 X0.357S700
G1 X1.123S0
G1 X0.274S700
G1 X1.283S0
G1 X0.274S700
G1 X0.728S0
G1 X0.266S700
G1 X0.341S0
G1 X0.271S700
G1 X0.839S0
G1 X0.273S700
G1 X0.342S0
G1 X0.278S700
G1 X0.7S0
G1 X0.256S700
G1 X0.369S0
G1 X0.228S700
G1 X0.089S0
G1 X0.244S700
G1 X0.366S0
G1 X0.248S700
G1 X0.331S0
G1 X0.27S700
G1 X0.839S0
G1 X0.273S700
G1 X0.265S0
G1 X0.27S700
G1 X0.81S0
G1 X0.275S700
G1 X1.921S0
G1 X0.361S700
G1 X1.666S0
G1 X0.049Y0.05S0
G1 X-1.667S0
G1 X-0.352S700
G1 X-1.978S0
G1 X-0.297S700
G1 X-0.766S0
G1 X-0.281S700
G1 X-0.289S0
G1 X-0.27S700
G1 X-0.812S0
G1 X-0.275S700
G1 X-0.328S0
G1 X-0.248S700
G1 X-0.394S0
G1 X-0.242S700
G1 X-0.065S0
G1 X-0.227S700
G1 X-0.397S0
G1 X-0.258S700
G1 X-0.679S0
G1 X-0.283S700
G1 X-0.355S0
G1 X-0.27S700
G1 X-0.813S0
G1 X-0.274S700
G1 X-0.351S0
G1 X-0.272S700
G1 X-0.709S0
G1 X-0.29S700
G1 X-0.468S0
G1 X-0.041S700
G1 X-0.759S0
G1 X-0.274S700
G1 X-1.216S0
G1 X-0.293S700
G1 X-0.438S0
G1 X-1.472S700
G1 X-1.667S0
G1 Y0.05S0
G1 X1.667S0
G1 X1.472S700
G1 X0.433S0
G1 X0.272S700
G1 X1.257S0
G1 X0.279S700
G1 X0.725S0
G1 X0.268S700
G1 X0.255S0
G1 X0.305S700
G1 X0.684S0
G1 X0.282S700
G1 X0.369S0
G1 X0.275S700
G1 X0.779S0
G1 X0.272S700
G1 X0.368S0
G1 X0.3S700
G1 X0.647S0
G1 X0.259S700
G1 X0.425S0
G1 X0.226S700
G1 X0.04S0
G1 X0.241S700
G1 X0.422S0
G1 X0.249S700
G1 X0.33S0
G1 X0.276S700
G1 X0.778S0
G1 X0.272S700
G1 X0.321S0
G1 X0.283S700
G1 X0.723S0
G1 X0.318S700
G1 X2.034S0
G1 X0.345S700
G1 X1.667S0
G1 X0.028Y0.05S0
G1 X-1.667S0
G1 X-0.322S700
G1 X-2.085S0
G1 X-0.343S700
G1 X-0.674S0
G1 X-0.288S700
G1 X-0.363S0
G1 X-0.275S700
G1 X-0.733S0
G1 X-0.273S700
G1 X-0.337S0
G1 X-0.25S700
G1 X-0.449S0
G1 X-0.239S700
G1 X-0.016S0
G1 X-0.225S700
G1 X-0.452S0
G1 X-0.261S700
G1 X-0.611S0
G1 X-0.321S700
G1 X-0.391S0
G1 X-0.275S700
G1 X-0.734S0
G1 X-0.273S700
G1 X-0.398S0
G1 X-0.286S700
G1 X-0.652S0
G1 X-0.325S700
G1 X-0.269S0
G1 X-0.273S700
G1 X-0.679S0
G1 X-0.291S700
G1 X-0.363S0
G1 X-0.269S700
G1 X-0.66S0
G1 X-0.257S700
G1 X-0.428S0
G1 X-1.472S700
G1 X-1.667S0
G1 Y0.05S0
G1 X1.667S0
G1 X1.472S700
G1 X0.438S0
G1 X0.256S700
G1 X0.635S0
G1 X0.275S700
G1 X0.389S0
G1 X0.302S700
G1 X0.623S0
G1 X0.287S700
G1 X0.284S0
G1 X0.365S700
G1 X0.59S0
G1 X0.299S700
G1 X0.429S0
G1 X0.294S700
G1 X0.664S0
G1 X0.274S700
G1 X0.419S0
G1 X0.361S700
G1 X0.556S0
G1 X0.262S700
G1 X0.48S0
G1 X0.453S700
G1 X0.477S0
G1 X0.251S700
G1 X0.342S0
G1 X0.295S700
G1 X0.663S0
G1 X0.275S700
G1 X0.409S0
G1 X0.309S700
G1 X0.594S0
G1 X0.382S700
G1 X2.123S0
G1 X0.313S700
G1 X1.667S0
G1 X0.028Y0.05S0
G1 X-1.667S0
G1 X-0.305S700
G1 X-2.159S0
G1 X-0.422S700
G1 X-0.515S0
G1 X-0.318S700
G1 X-0.467S0
G1 X-0.299S700
G1 X-0.568S0
G1 X-0.31S700
G1 X-0.354S0
G1 X-0.252S700
G1 X-0.505S0
G1 X-0.427S700
G1 X-0.507S0
G1 X-0.264S700
G1 X-0.146S0
G1 X-0.01S700
G1 X-0.331S0
G1 X-0.414S700
G1 X-0.446S0
G1 X-0.299S700
G1 X-0.568S0
G1 X-0.31S700
G1 X-0.474S0
G1 X-0.32S700
G1 X-0.513S0
G1 X-0.404S700
G1 X-0.303S0
G1 X-0.31S700
G1 X-0.533S0
G1 X-0.312S700
G1 X-0.438S0
G1 X-0.301S700
G1 X-0.574S0
G1 X-0.27S700
G1 X-1.636S0
G1 X-0.284S700
G1 X-1.667S0
G1 Y0.05S0
G1 X1.667S0
G1 X0.284S700
G1 X1.657S0
G1 X0.295S700
G1 X0.476S0
G1 X0.331S700
G1 X0.498S0
G1 X0.338S700
G1 X0.411S0
G1 X0.337S700
G1 X0.334S0
G1 X0.487S700
G1 X0.368S0
G1 X0.362S700
G1 X0.527S0
G1 X0.354S700
G1 X0.425S0
G1 X0.337S700
G1 X0.474S0
G1 X0.774S700
G1 X0.112S0
G1 X0.265S700
G1 X0.535S0
G1 X0.4S700
G1 X0.533S0
G1 X0.252S700
G1 X0.372S0
G1 X0.355S700
G1 X0.424S0
G1 X0.337S700
G1 X0.525S0
G1 X0.352S700
G1 X0.386S0
G1 X0.486S700
G1 X2.187S0
G1 X0.298S700
G1 X1.667S0
G1 X0.013Y0.05S0
G1 X-1.667S0
G1 X-0.288S700
G1 X-2.21S0
G1 X-0.631S700
G1 X-0.095S0
G1 X-0.467S700
G1 X-0.603S0
G1 X-0.438S700
G1 X-0.12S0
G1 X-0.478S700
G1 X-0.389S0
G1 X-0.253S700
G1 X-0.561S0
G1 X-0.373S700
G1 X-0.563S0
G1 X-0.266S700
G1 X-0.079S0
G1 X-0.528S700
G1 X-0.027S0
G1 X-0.237S700
G1 X-0.522S0
G1 X-0.437S700
G1 X-0.12S0
G1 X-0.479S700
G1 X-0.585S0
G1 X-1.191S700
G1 X-0.366S0
G1 X-0.438S700
G1 X-0.132S0
G1 X-0.446S700
G1 X-0.564S0
G1 X-0.429S700
G1 X-0.22S0
G1 X-0.398S700
G1 X-1.684S0
G1 X-0.284S700
G1 X-1.667S0
G1 Y0.05S0
G1 X1.667S0
G1 X0.284S700
G1 X1.722S0
G1 X0.97S700
G1 X0.641S0
G1 X0.932S700
G1 X0.412S0
G1 X0.263S700
G1 X0.04S0
G1 X0.854S700
G1 X0.683S0
G1 X0.925S700
G1 X0.569S0
G1 X0.237S700
G1 X0.058S0
G1 X0.516S700
G1 X0.044S0
G1 X0.269S700
G1 X0.59S0
G1 X0.346S700
G1 X0.589S0
G1 X0.254S700
G1 X0.436S0
G1 X0.925S700
G1 X0.711S0
G1 X0.842S700
G1 X0.046S0
G1 X0.244S700
G1 X2.234S0
G1 X0.278S700
G1 X1.667S0
G1 X0.013Y0.05S0
G1 X-1.666S0
G1 X-0.28S700
G1 X-2.246S0
G1 X-0.244S700
G1 X-0.095S0
G1 X-0.733S700
G1 X-0.819S0
G1 X-0.807S700
G1 X-0.491S0
G1 X-0.255S700
G1 X-0.616S0
G1 X-0.319S700
G1 X-0.618S0
G1 X-0.27S700
G1 X-0.01S0
G1 X-0.495S700
G1 X-0.098S0
G1 X-0.237S700
G1 X-0.617S0
G1 X-0.808S700
G1 X-0.809S0
G1 X-0.744S700
G1 X-0.093S0
G1 X-0.263S700
G1 X-0.468S0
G1 X-0.798S700
G1 X-0.771S0
G1 X-0.866S700
G1 X-1.774S0
G1 X-0.284S700
G1 X-1.667S0
G1 Y0.05S0
G1 X1.667S0
G1 X0.284S700
G1 X1.866S0
G1 X0.689S700
G1 X0.936S0
G1 X0.637S700
G1 X0.549S0
G1 X0.263S700
G1 X0.187S0
G1 X0.567S700
G1 X0.962S0
G1 X0.632S700
G1 X0.723S0
G1 X0.237S700
G1 X0.146S0
G1 X0.713S700
G1 X0.646S0
G1 X0.292S700
G1 X0.644S0
G1 X0.256S700
G1 X0.545S0
G1 X0.631S700
G1 X0.986S0
G1 X0.571S700
G1 X0.196S0
G1 X0.243S700
G1 X1.373S0
G1 X0.073S700
G1 X0.812S0
G1 X0.272S700
G1 X1.667S0
G1 Y0.05S0
G1 X-1.667S0
G1 X-0.26S700
G1 X-0.82S0
G1 X-0.272S700
G1 X-1.719S0
G1 X-0.317S700
G1 X-1.252S0
G1 X-0.356S700
G1 X-2.907S0
G1 X-0.263S700
G1 X-1.307S0
G1 X-0.357S700
G1 X-1.253S0
G1 X-0.337S700
G1 X-0.287S0
G1 X-0.263S700
G1 X-0.681S0
G1 X-0.369S700
G1 X-1.219S0
G1 X-0.406S700
G1 X-2.002S0
G1 X-0.284S700
G1 X-1.667S0
G1 Y0.05S0
G1 X1.667S0
G1 X0.284S700
G1 X4.677S0
G1 X0.263S700
G1 X10.362S0
G1 X0.272S700
G1 X0.802S0
G1 X0.271S700
G1 X1.667S0
G1 Y0.05S0
G1 X-1.667S0
G1 X-0.282S700
G1 X-0.774S0
G1 X-0.283S700
G1 X-10.368S0
G1 X-0.263S700
G1 X-4.677S0
G1 X-0.284S700
G1 X-1.667S0
G1 Y0.05S0
G1 X1.667S0
G1 X0.284S700
G1 X4.677S0
G1 X0.263S700
G1 X10.385S0
G1 X0.283S700
G1 X0.746S0
G1 X0.278S700
G1 X1.667S0
G1 X-0.022Y0.05S0
G1 X-1.667S0
G1 X-0.291S700
G1 X-0.682S0
G1 X-0.295S700
G1 X-10.402S0
G1 X-0.263S700
G1 X-4.677S0
G1 X-0.284S700
G1 X-1.667S0
G1 Y0.05S0
G1 X1.667S0
G1 X0.284S700
G1 X4.677S0
G1 X0.263S700
G1 X10.426S0
G1 X0.313S700
G1 X0.604S0
G1 X0.305S700
G1 X1.667S0
G1 X-0.022Y0.05S0
G1 X-1.666S0
G1 X-0.345S700
G1 X-0.487S0
G1 X-0.339S700
G1 X-10.456S0
G1 X-0.263S700
G1 X-4.677S0
G1 X-0.284S700
G1 X-1.667S0
G1 Y0.05S0
G1 X1.667S0
G1 X1.552S700
G1 X3.409S0
G1 X0.263S700
G1 X10.49S0
G1 X0.397S700
G1 X0.312S0
G1 X0.39S700
G1 X1.667S0
G1 X-0.049Y0.05S0
G1 X-1.666S0
G1 X-1.006S700
G1 X-10.535S0
G1 X-0.263S700
G1 X-3.409S0
G1 X-1.552S700
G1 X-1.667S0
G1 Y0.05S0
G1 X1.667S0
G1 X1.552S700
G1 X3.409S0
G1 X0.263S700
G1 X10.589S0
G1 X0.903S700
G1 X1.667S0
G1 X-0.074Y0.05S0
G1 X-1.667S0
G1 X-0.759S700
G1 X-10.659S0
G1 X-0.263S700
G1 X-3.409S0
G1 X-1.552S700
G1 X-1.667S0
G1 Y0.05S0
G1 X1.667S0
G1 X1.552S700
G1 X3.409S0
G1 X0.263S700
G1 X10.764S0
G1 X0.55S700
G1 X1.667S0
G1 X1.113Y10.2S0
G1 X-1.667S0
G1 X-0.373S700
G1 X-1.666S0
G1 X-0.182Y0.05S0
G1 X1.666S0
G1 X0.71S700
G1 X1.667S0
G1 X0.082Y0.05S0
G1 X-1.666S0
G1 X-0.876S700
G1 X-1.666S0
G1 X-0.06Y0.05S0
G1 X1.666S0
G1 X0.995S700
G1 X1.667S0
G1 X0.052Y0.05S0
G1 X-1.667S0
G1 X-0.492S700
G1 X-0.117S0
G1 X-0.479S700
G1 X-1.667S0
G1 X-0.031Y0.05S0
G1 X1.667S0
G1 X0.33S700
G1 X0.459S0
G1 X0.366S700
G1 X1.667S0
G1 X0.034Y0.05S0
G1 X-1.667S0
G1 X-0.326S700
G1 X-0.594S0
G1 X-0.289S700
G1 X-1.667S0
G1 X-0.019Y0.05S0
G1 X1.666S0
G1 X0.277S700
G1 X0.682S0
G1 X0.292S700
G1 X1.667S0
G1 X0.022Y0.05S0
G1 X-1.667S0
G1 X-0.289S700
G1 X-0.725S0
G1 X-0.262S700
G1 X-1.667S0
G1 Y0.05S0
G1 X1.664S0
G1 X0.226S700
G1 X0.779S0
G1 X0.287S700
G1 X1.667S0
G1 X0.01Y0.05S0
G1 X-1.666S0
G1 X-0.282S700
G1 X-1.667S0
G1 X0.016Y0.05S0
G1 X1.666S0
G1 X0.274S700
G1 X1.666S0
G1 X8.074Y0.05S0
G1 X-1.667S0
G1 X-0.372S700
G1 X-2.628S0
G1 X-0.373S700
G1 X-0.776S0
G1 X-0.218S700
G1 X-1.035S0
G1 X-0.41S700
G1 X-1.09S0
G1 X-0.41S700
G1 X-0.76S0
G1 X-0.264S700
G1 X-3.648S0
G1 X-0.325S700
G1 X-2.197S0
G1 X-0.372S700
G1 X-4.405S0
G1 X-0.312S700
G1 X-2.295S0
G1 X-0.361S700
G1 X-1.307S0
G1 X-0.362S700
G1 X-1.666S0
G1 X-2.405Y0.05S0
G1 X1.667S0
G1 X0.284S700
G1 X1.09S0
G1 X0.374S700
G1 X0.526S0
G1 X0.664S700
G1 X1.004S0
G1 X0.664S700
G1 X0.707S0
G1 X0.263S700
G1 X1.053S0
G1 X0.522S700
G1 X0.173S0
G1 X0.244S700
G1 X0.416S0
G1 X0.264S700
G1 X0.401S0
G1 X0.263S700
G1 X0.738S0
G1 X0.263S700
G1 X0.405S0
G1 X0.264S700
G1 X0.725S0
G1 X0.67S700
G1 X0.672S0
G1 X0.263S700
G1 X0.963S0
G1 X0.585S700
G1 X0.21S0
G1 X0.236S700
G1 X0.412S0
G1 X0.264S700
G1 X0.738S0
G1 X0.263S700
G1 X0.744S0
G1 X0.415S700
G1 X0.246S0
G1 X0.264S700
G1 X0.602S0
G1 X0.723S700
G1 X0.777S0
G1 X0.723S700
G1 X0.763S0
G1 X0.423S700
G1 X0.55S0
G1 X0.67S700
G1 X0.668S0
G1 X0.264S700
G1 X0.402S0
G1 X0.264S700
G1 X0.732S0
G1 X0.67S700
G1 X1.37S0
G1 X1.698S700
G1 X0.306S0
G1 X1.087S700
G1 X1.127S0
G1 X0.284S700
G1 X0.499S0
G1 X0.272S700
G1 X1.103S0
G1 X0.316S700
G1 X1.667S0
G1 Y0.05S0
G1 X-1.667S0
G1 X-0.35S700
G1 X-1.069S0
G1 X-0.272S700
G1 X-0.499S0
G1 X-0.284S700
G1 X-0.958S0
G1 X-1.256S700
G1 X-0.306S0
G1 X-1.698S700
G1 X-1.293S0
G1 X-0.841S700
G1 X-0.638S0
G1 X-0.264S700
G1 X-0.402S0
G1 X-0.264S700
G1 X-0.591S0
G1 X-0.842S700
G1 X-0.463S0
G1 X-0.479S700
G1 X-0.624S0
G1 X-0.884S700
G1 X-0.616S0
G1 X-0.884S700
G1 X-0.515S0
G1 X-0.265S700
G1 X-0.146S0
G1 X-0.606S700
G1 X-0.652S0
G1 X-0.263S700
G1 X-0.739S0
G1 X-0.264S700
G1 X-0.412S0
G1 X-0.236S700
G1 X-0.133S0
G1 X-0.722S700
G1 X-0.903S0
G1 X-0.263S700
G1 X-0.594S0
G1 X-0.842S700
G1 X-0.631S0
G1 X-0.264S700
G1 X-0.404S0
G1 X-0.263S700
G1 X-0.739S0
G1 X-0.263S700
G1 X-0.401S0
G1 X-0.264S700
G1 X-0.416S0
G1 X-0.244S700
G1 X-0.101S0
G1 X-0.681S700
G1 X-0.966S0
G1 X-0.263S700
G1 X-0.63S0
G1 X-0.823S700
G1 X-0.845S0
G1 X-0.823S700
G1 X-0.481S0
G1 X-0.372S700
G1 X-1.055S0
G1 X-0.284S700
G1 X-1.667S0
G1 Y0.05S0
G1 X1.667S0
G1 X0.284S700
G1 X1.02S0
G1 X0.37S700
G1 X0.455S0
G1 X0.951S700
G1 X0.718S0
G1 X0.95S700
G1 X0.565S0
G1 X0.263S700
G1 X0.898S0
G1 X0.795S700
G1 X0.055S0
G1 X0.244S700
G1 X0.416S0
G1 X0.264S700
G1 X0.401S0
G1 X0.263S700
G1 X0.74S0
G1 X0.262S700
G1 X0.404S0
G1 X0.264S700
G1 X0.564S0
G1 X0.981S700
G1 X0.522S0
G1 X0.263S700
G1 X0.843S0
G1 X0.84S700
G1 X0.075S0
G1 X0.236S700
G1 X0.412S0
G1 X0.264S700
G1 X0.74S0
G1 X0.262S700
G1 X0.569S0
G1 X0.768S700
G1 X0.067S0
G1 X0.266S700
G1 X0.457S0
G1 X0.994S700
G1 X0.506S0
G1 X0.994S700
G1 X0.55S0
G1 X0.492S700
G1 X0.404S0
G1 X0.982S700
G1 X0.518S0
G1 X0.264S700
G1 X0.402S0
G1 X0.264S700
G1 X0.571S0
G1 X0.981S700
G1 X1.22S0
G1 X1.698S700
G1 X0.306S0
G1 X1.339S700
G1 X0.875S0
G1 X0.284S700
G1 X0.499S0
G1 X0.272S700
G1 X1.036S0
G1 X0.383S700
G1 X1.667S0
G1 Y0.05S0
G1 X-1.667S0
G1 X-0.416S700
G1 X-1.003S0
G1 X-0.272S700
G1 X-0.499S0
G1 X-0.284S700
G1 X-0.792S0
G1 X-1.422S700
G1 X-0.306S0
G1 X-1.698S700
G1 X-1.178S0
G1 X-0.467S700
G1 X-0.04S0
G1 X-0.575S700
G1 X-0.512S0
G1 X-0.264S700
G1 X-0.402S0
G1 X-0.264S700
G1 X-0.477S0
G1 X-0.466S700
G1 X-0.04S0
G1 X-0.575S700
G1 X-0.354S0
G1 X-0.504S700
G1 X-0.487S0
G1 X-0.443S700
G1 X-0.186S0
G1 X-0.455S700
G1 X-0.416S0
G1 X-0.443S700
G1 X-0.186S0
G1 X-0.455S700
G1 X-0.409S0
G1 X-0.266S700
G1 X-0.017S0
G1 X-0.861S700
G1 X-0.527S0
G1 X-0.261S700
G1 X-0.741S0
G1 X-0.264S700
G1 X-0.412S0
G1 X-0.236S700
G1 X-0.033S0
G1 X-0.911S700
G1 X-0.814S0
G1 X-0.263S700
G1 X-0.48S0
G1 X-0.467S700
G1 X-0.039S0
G1 X-0.576S700
G1 X-0.505S0
G1 X-0.264S700
G1 X-0.403S0
G1 X-0.262S700
G1 X-0.741S0
G1 X-0.263S700
G1 X-0.401S0
G1 X-0.264S700
G1 X-0.416S0
G1 X-0.244S700
G1 X-0.358
G1 X-0.069S0
G1 X-0.467S700
G1 X-0.854S0
G1 X-0.263S700
G1 X-0.5S0
G1 X-0.473S700
G1 X-0.122S0
G1 X-0.474S700
G1 X-0.599S0
G1 X-0.5S700
G1 X-0.08S0
G1 X-0.489S700
G1 X-0.438S0
G1 X-0.369S700
G1 X-0.985S0
G1 X-0.284S700
G1 X-1.667S0
G1 Y0.05S0
G1 X1.667S0
G1 X0.284S700
G1 X0.95S0
G1 X0.367S700
G1 X0.435S0
G1 X0.362S700
G1 X0.419S0
G1 X0.364S700
G1 X0.523S0
G1 X0.363S700
G1 X0.42S0
G1 X0.362S700
G1 X0.464S0
G1 X0.263S700
G1 X0.81S0
G1 X0.345S700
G1 X0.367S0
G1 X0.47S700
G1 X0.416S0
G1 X0.264S700
G1 X0.401S0
G1 X0.263S700
G1 X0.742S0
G1 X0.261S700
G1 X0.403S0
G1 X0.264S700
G1 X0.473S0
G1 X0.375S700
G1 X0.408S0
G1 X0.372S700
G1 X0.439S0
G1 X0.263S700
G1 X0.786S0
G1 X0.367S700
G1 X0.362S0
G1 X0.479S700
G1 X0.412S0
G1 X0.264S700
G1 X0.742S0
G1 X0.261S700
G1 X0.484S0
G1 X0.396S700
G1 X0.227S0
G1 X0.564S700
G1 X0.377S0
G1 X0.363S700
G1 X0.46S0
G1 X0.321S700
G1 X0.356S0
G1 X0.363S700
G1 X0.46S0
G1 X0.321S700
G1 X0.437S0
G1 X0.335S700
G1 X0.511S0
G1 X0.376S700
G1 X0.407S0
G1 X0.372S700
G1 X0.436S0
G1 X0.264S700
G1 X0.402S0
G1 X0.264S700
G1 X0.48S0
G1 X0.375S700
G1 X0.408S0
G1 X0.372S700
G1 X1.137S0
G1 X1.698S700
G1 X0.306S0
G1 X1.477S700
G1 X0.737S0
G1 X0.284S700
G1 X0.499S0
G1 X0.272S700
G1 X0.969S0
G1 X0.45S700
G1 X1.667S0
G1 Y0.05S0
G1 X-1.667S0
G1 X-0.483S700
G1 X-0.936S0
G1 X-0.272S700
G1 X-0.499S0
G1 X-0.284S700
G1 X-0.694S0
G1 X-0.454S700
G1 X-0.782S0
G1 X-0.284S700
G1 X-1.648S0
G1 X-0.338S700
G1 X-1.116S0
G1 X-0.348S700
G1 X-0.548S0
G1 X-0.33S700
G1 X-0.448S0
G1 X-0.264S700
G1 X-0.402S0
G1 X-0.264S700
G1 X-0.397S0
G1 X-0.347S700
G1 X-0.549S0
G1 X-0.33S700
G1 X-0.538S0
G1 X-0.285S700
G1 X-0.403S0
G1 X-0.289S700
G1 X-0.586S0
G1 X-0.325S700
G1 X-0.3S0
G1 X-0.289S700
G1 X-0.586S0
G1 X-0.325S700
G1 X-0.346S0
G1 X-0.456S700
G1 X-0.432S0
G1 X-0.334S700
G1 X-0.449S0
G1 X-0.26S700
G1 X-0.743S0
G1 X-0.264S700
G1 X-0.412S0
G1 X-0.414S700
G1 X-0.491S0
G1 X-0.328S700
G1 X-0.761S0
G1 X-0.263S700
G1 X-0.4S0
G1 X-0.348S700
G1 X-0.548S0
G1 X-0.331S700
G1 X-0.44S0
G1 X-0.264S700
G1 X-0.403S0
G1 X-0.26S700
G1 X-0.743S0
G1 X-0.263S700
G1 X-0.401S0
G1 X-0.264S700
G1 X-0.416S0
G1 X-0.409S700
G1 X-0.488S0
G1 X-0.329S700
G1 X-0.766S0
G1 X-0.263S700
G1 X-0.433S0
G1 X-0.33S700
G1 X-0.549S0
G1 X-0.332S700
G1 X-0.457S0
G1 X-0.319S700
G1 X-0.56S0
G1 X-0.332S700
G1 X-0.437S0
G1 X-0.366S700
G1 X-0.914S0
G1 X-0.284S700
G1 X-1.667S0
G1 Y0.05S0
G1 X1.667S0
G1 X0.284S700
G1 X0.879S0
G1 X0.364S700
G1 X0.444S0
G1 X0.308S700
G1 X0.662S0
G1 X0.302S700
G1 X0.396S0
G1 X0.317S700
G1 X0.628S0
G1 X0.327S700
G1 X0.402S0
G1 X0.263S700
G1 X0.739S0
G1 X0.303S700
G1 X0.591S0
G1 X0.359S700
G1 X0.416S0
G1 X0.264S700
G1 X0.401S0
G1 X0.263S700
G1 X0.744S0
G1 X0.26S700
G1 X0.402S0
G1 X0.264S700
G1 X0.413S0
G1 X0.308S700
G1 X0.653S0
G1 X0.313S700
G1 X0.38S0
G1 X0.263S700
G1 X0.753S0
G1 X0.3S700
G1 X0.583S0
G1 X0.358S700
G1 X0.412S0
G1 X0.264S700
G1 X0.744S0
G1 X0.26S700
G1 X0.419S0
G1 X0.299S700
G1 X0.562S0
G1 X0.391S700
G1 X0.325S0
G1 X0.298S700
G1 X0.664S0
G1 X0.274S700
G1 X0.264S0
G1 X0.298S700
G1 X0.664S0
G1 X0.274S700
G1 X0.386S0
G1 X0.268S700
G1 X0.529S0
G1 X0.307S700
G1 X0.654S0
G1 X0.312S700
G1 X0.377S0
G1 X0.264S700
G1 X0.402S0
G1 X0.264S700
G1 X0.42S0
G1 X0.308S700
G1 X0.653S0
G1 X0.313S700
G1 X1.136S0
G1 X0.341S700
G1 X1.605S0
G1 X0.284S700
G1 X0.894S0
G1 X0.384S700
G1 X0.652S0
G1 X0.284S700
G1 X0.499S0
G1 X0.272S700
G1 X0.902S0
G1 X0.517S700
G1 X1.667S0
G1 Y0.05S0
G1 X-1.667S0
G1 X-0.55S700
G1 X-0.869S0
G1 X-0.272S700
G1 X-0.499S0
G1 X-0.284S700
G1 X-0.609S0
G1 X-0.364S700
G1 X-0.957S0
G1 X-0.284S700
G1 X-1.562S0
G1 X-0.345S700
G1 X-1.156S0
G1 X-0.296S700
G1 X-0.725S0
G1 X-0.293S700
G1 X-0.399S0
G1 X-0.264S700
G1 X-0.402S0
G1 X-0.264S700
G1 X-0.357S0
G1 X-0.296S700
G1 X-0.726S0
G1 X-0.293S700
G1 X-0.513S0
G1 X-0.262S700
G1 X-0.374S0
G1 X-0.269S700
G1 X-0.717S0
G1 X-0.274S700
G1 X-0.24S0
G1 X-0.269S700
G1 X-0.717S0
G1 X-0.274S700
G1 X-0.312S0
G1 X-0.345S700
G1 X-0.649S0
G1 X-0.287S700
G1 X-0.391S0
G1 X-0.259S700
G1 X-0.745S0
G1 X-0.264S700
G1 X-0.412S0
G1 X-0.327S700
G1 X-0.638S0
G1 X-0.284S700
G1 X-0.745S0
G1 X-0.263S700
G1 X-0.36S0
G1 X-0.297S700
G1 X-0.725S0
G1 X-0.293S700
G1 X-0.392S0
G1 X-0.264S700
G1 X-0.402S0
G1 X-0.259S700
G1 X-0.745S0
G1 X-0.263S700
G1 X-0.401S0
G1 X-0.264S700
G1 X-0.416S0
G1 X-0.326S700
G1 X-0.657S0
G1 X-0.29S700
G1 X-0.719S0
G1 X-0.263S700
G1 X-0.371S0
G1 X-0.325S700
G1 X-0.7S0
G1 X-0.299S700
G1 X-0.344S0
G1 X-0.294S700
G1 X-0.725S0
G1 X-0.305S700
G1 X-0.46S0
G1 X-0.362S700
G1 X-0.844S0
G1 X-0.284S700
G1 X-1.667S0
G1 Y0.05S0
G1 X1.667S0
G1 X0.284S700
G1 X0.809S0
G1 X0.361S700
G1 X0.474S0
G1 X0.303S700
G1 X0.779S0
G1 X0.281S700
G1 X0.305S0
G1 X0.295S700
G1 X0.759S0
G1 X0.309S700
G1 X0.354S0
G1 X0.263S700
G1 X0.698S0
G1 X0.278S700
G1 X0.723S0
G1 X0.293S700
G1 X0.416S0
G1 X0.264S700
G1 X0.401S0
G1 X0.263S700
G1 X0.746S0
G1 X0.259S700
G1 X0.401S0
G1 X0.264S700
G1 X0.37S0
G1 X0.284S700
G1 X0.781S0
G1 X0.292S700
G1 X0.34S0
G1 X0.263S700
G1 X0.738S0
G1 X0.273S700
G1 X0.681S0
G1 X0.302S700
G1 X0.412S0
G1 X0.264S700
G1 X0.746S0
G1 X0.259S700
G1 X0.368S0
G1 X0.273S700
G1 X0.716S0
G1 X0.315S700
G1 X0.298S0
G1 X0.268S700
G1 X0.744S0
G1 X0.266S700
G1 X0.222S0
G1 X0.268S700
G1 X0.744S0
G1 X0.266S700
G1 X0.369S0
G1 X0.262S700
G1 X0.492S0
G1 X0.283S700
G1 X0.781S0
G1 X0.292S700
G1 X0.337S0
G1 X0.264S700
G1 X0.402S0
G1 X0.264S700
G1 X0.377S0
G1 X0.283S700
G1 X0.782S0
G1 X0.291S700
G1 X1.175S0
G1 X0.347S700
G1 X1.521S0
G1 X0.284S700
G1 X1.01S0
G1 X0.338S700
G1 X0.582S0
G1 X0.284S700
G1 X0.499S0
G1 X0.272S700
G1 X0.835S0
G1 X0.584S700
G1 X1.667S0
G1 Y0.05S0
G1 X-1.667S0
G1 X-0.272S700
G1 X-0.017S0
G1 X-0.328S700
G1 X-0.802S0
G1 X-0.272S700
G1 X-0.499S0
G1 X-0.284S700
G1 X-0.562S0
G1 X-0.32S700
G1 X-1.048S0
G1 X-0.284S700
G1 X-1.48S0
G1 X-0.348S700
G1 X-1.363S0
G1 X-0.119S700
G1 X-0.829S0
G1 X-0.277S700
G1 X-0.36S0
G1 X-0.264S700
G1 X-0.402S0
G1 X-0.264S700
G1 X-0.486S0
G1 X-0.118S700
G1 X-0.829S0
G1 X-0.277S700
G1 X-0.475S0
G1 X-0.262S700
G1 X-0.367S0
G1 X-0.282S700
G1 X-0.741S0
G1 X-0.119S700
G1 X-0.358S0
G1 X-0.282S700
G1 X-0.741S0
G1 X-0.119S700
G1 X-0.435S0
G1 X-0.29S700
G1 X-0.764S0
G1 X-0.269S700
G1 X-0.35S0
G1 X-0.258S700
G1 X-0.747S0
G1 X-0.264S700
G1 X-0.412S0
G1 X-0.284S700
G1 X-0.71S0
G1 X-0.264S700
G1 X-0.736S0
G1 X-0.263S700
G1 X-0.489S0
G1 X-0.119S700
G1 X-0.829S0
G1 X-0.277S700
G1 X-0.353S0
G1 X-0.264S700
G1 X-0.401S0
G1 X-0.258S700
G1 X-0.747S0
G1 X-0.263S700
G1 X-0.401S0
G1 X-0.264S700
G1 X-0.416S0
G1 X-0.274S700
G1 X-0.765S0
G1 X-0.276S700
G1 X-0.677S0
G1 X-0.263S700
G1 X-0.344S0
G1 X-0.287S700
G1 X-0.818S0
G1 X-0.281S700
G1 X-0.282S0
G1 X-0.271S700
G1 X-0.822S0
G1 X-0.293S700
G1 X-0.498S0
G1 X-0.359S700
G1 X-0.774S0
G1 X-0.284S700
G1 X-1.667S0
G1 Y0.05S0
G1 X1.667S0
G1 X0.284S700
G1 X0.739S0
G1 X0.357S700
G1 X0.525S0
G1 X0.279S700
G1 X0.863S0
G1 X0.263S700
G1 X0.263S0
G1 X0.275S700
G1 X0.846S0
G1 X0.284S700
G1 X0.335S0
G1 X0.263S700
G1 X0.66S0
G1 X0.278S700
G1 X0.796S0
G1 X0.258S700
G1 X0.416S0
G1 X0.264S700
G1 X0.401S0
G1 X0.263S700
G1 X0.748S0
G1 X0.258S700
G1 X0.4S0
G1 X0.264S700
G1 X0.341S0
G1 X0.272S700
G1 X1.454S0
G1 X0.263S700
G1 X0.735S0
G1 X0.262S700
G1 X0.726S0
G1 X0.271S700
G1 X0.412S0
G1 X0.264S700
G1 X0.748S0
G1 X0.257S700
G1 X0.333S0
G1 X0.264S700
G1 X0.802S0
G1 X0.275S700
G1 X1.263S0
G1 X0.307S700
G1 X1.193S0
G1 X0.307S700
G1 X0.373S0
G1 X0.262S700
G1 X0.462S0
G1 X0.273S700
G1 X1.45S0
G1 X0.264S700
G1 X0.402S0
G1 X0.264S700
G1 X0.348S0
G1 X0.272S700
G1 X2.367S0
G1 X0.349S700
G1 X1.44S0
G1 X0.284S700
G1 X1.08S0
G1 X0.308S700
G1 X0.542S0
G1 X0.284S700
G1 X0.499S0
G1 X0.272S700
G1 X0.769S0
G1 X0.327S700
G1 X0.051S0
G1 X0.272S700
G1 X1.667S0
G1 Y0.05S0
G1 X-1.667S0
G1 X-0.272S700
G1 X-0.084S0
G1 X-0.328S700
G1 X-0.735S0
G1 X-0.272S700
G1 X-0.499S0
G1 X-0.284S700
G1 X-0.522S0
G1 X-0.308S700
G1 X-1.1S0
G1 X-0.284S700
G1 X-1.399S0
G1 X-0.351S700
G1 X-2.421S0
G1 X-0.269S700
G1 X-0.336S0
G1 X-0.264S700
G1 X-0.402S0
G1 X-0.264S700
G1 X-1.466S0
G1 X-0.269S700
G1 X-0.45S0
G1 X-0.262S700
G1 X-0.382S0
G1 X-0.356S700
G1 X-1.144S0
G1 X-0.356S700
G1 X-1.205S0
G1 X-0.265S700
G1 X-0.82S0
G1 X-0.27S700
G1 X-0.319S0
G1 X-0.258S700
G1 X-0.747S0
G1 X-0.264S700
G1 X-0.412S0
G1 X-0.263S700
G1 X-0.734S0
G1 X-0.263S700
G1 X-0.734S0
G1 X-0.263S700
G1 X-1.469S0
G1 X-0.27S700
G1 X-0.328S0
G1 X-0.264S700
G1 X-0.401S0
G1 X-0.258S700
G1 X-0.747S0
G1 X-0.263S700
G1 X-0.401S0
G1 X-0.264S700
G1 X-0.416S0
G1 X-0.243S700
G1 X-0.826S0
G1 X-0.267S700
G1 X-0.656S0
G1 X-0.263S700
G1 X-0.325S0
G1 X-0.281S700
G1 X-0.872S0
G1 X-0.272S700
G1 X-0.244S0
G1 X-0.266S700
G1 X-0.886S0
G1 X-0.273S700
G1 X-0.551S0
G1 X-0.356S700
G1 X-0.703S0
G1 X-0.284S700
G1 X-1.667S0
G1 Y0.05S0
G1 X1.667S0
G1 X0.284S700
G1 X0.668S0
G1 X0.354S700
G1 X0.583S0
G1 X0.273S700
G1 X0.897S0
G1 X0.27S700
G1 X0.229S0
G1 X0.265S700
G1 X0.896S0
G1 X0.278S700
G1 X0.316S0
G1 X0.263S700
G1 X0.653S0
G1 X0.262S700
G1 X0.836S0
G1 X0.241S700
G1 X0.416S0
G1 X0.264S700
G1 X0.401S0
G1 X0.263S700
G1 X0.745S0
G1 X0.259S700
G1 X0.402S0
G1 X0.264S700
G1 X0.319S0
G1 X0.274S700
G1 X1.474S0
G1 X0.263S700
G1 X0.733S0
G1 X0.264S700
G1 X0.737S0
G1 X0.26S700
G1 X0.412S0
G1 X0.264S700
G1 X0.745S0
G1 X0.259S700
G1 X0.312S0
G1 X0.27S700
G1 X0.833S0
G1 X0.261S700
G1 X1.043S0
G1 X0.488S700
G1 X1.012S0
G1 X0.488S700
G1 X0.411S0
G1 X0.262S700
G1 X0.441S0
G1 X0.273S700
G1 X1.471S0
G1 X0.264S700
G1 X0.402S0
G1 X0.264S700
G1 X0.327S0
G1 X0.273S700
G1 X2.466S0
G1 X0.351S700
G1 X1.359S0
G1 X0.284S700
G1 X1.12S0
G1 X0.308S700
G1 X0.502S0
G1 X0.284S700
G1 X0.499S0
G1 X0.272S700
G1 X0.702S0
G1 X0.327S700
G1 X0.118S0
G1 X0.272S700
G1 X1.667S0
G1 Y0.05S0
G1 X-1.667S0
G1 X-0.272S700
G1 X-0.151S0
G1 X-0.328S700
G1 X-0.668S0
G1 X-0.272S700
G1 X-0.499S0
G1 X-0.284S700
G1 X-0.489S0
G1 X-0.301S700
G1 X-1.14S0
G1 X-0.284S700
G1 X-1.318S0
G1 X-0.353S700
G1 X-2.51S0
G1 X-0.272S700
G1 X-0.323S0
G1 X-0.264S700
G1 X-0.402S0
G1 X-0.264S700
G1 X-1.475S0
G1 X-0.273S700
G1 X-0.437S0
G1 X-0.262S700
G1 X-0.44S0
G1 X-0.647S700
G1 X-0.853S0
G1 X-0.647S700
G1 X-0.854S0
G1 X-0.256S700
G1 X-0.845S0
G1 X-0.272S700
G1 X-0.304S0
G1 X-0.261S700
G1 X-0.743S0
G1 X-0.264S700
G1 X-0.412S0
G1 X-0.262S700
G1 X-0.735S0
G1 X-0.265S700
G1 X-0.732S0
G1 X-0.263S700
G1 X-1.479S0
G1 X-0.272S700
G1 X-0.316S0
G1 X-0.264S700
G1 X-0.402S0
G1 X-0.261S700
G1 X-0.743S0
G1 X-0.263S700
G1 X-0.401S0
G1 X-0.264S700
G1 X-0.416S0
G1 X-0.241S700
G1 X-0.837S0
G1 X-0.265S700
G1 X-0.649S0
G1 X-0.263S700
G1 X-0.31S0
G1 X-0.272S700
G1 X-0.909S0
G1 X-0.269S700
G1 X-0.218S0
G1 X-0.271S700
G1 X-0.907S0
G1 X-0.272S700
G1 X-0.615S0
G1 X-0.353S700
G1 X-0.633S0
G1 X-0.284S700
G1 X-1.667S0
G1 Y0.05S0
G1 X1.667S0
G1 X0.284S700
G1 X0.598S0
G1 X0.351S700
G1 X0.648S0
G1 X0.272S700
G1 X0.916S0
G1 X0.269S700
G1 X0.211S0
G1 X0.272S700
G1 X0.921S0
G1 X0.264S700
G1 X0.307S0
G1 X0.263S700
G1 X0.646S0
G1 X0.268S700
G1 X0.837S0
G1 X0.241S700
G1 X0.416S0
G1 X0.264S700
G1 X0.401S0
G1 X0.263S700
G1 X0.741S0
G1 X0.262S700
G1 X0.403S0
G1 X0.264S700
G1 X0.312S0
G1 X1.434S700
G1 X0.321S0
G1 X0.263S700
G1 X0.731S0
G1 X0.266S700
G1 X0.733S0
G1 X0.264S700
G1 X0.412S0
G1 X0.264S700
G1 X0.741S0
G1 X0.262S700
G1 X0.298S0
G1 X0.273S700
G1 X0.856S0
G1 X0.252S700
G1 X0.683S0
G1 X0.768S700
G1 X0.732S0
G1 X0.768S700
G1 X0.489S0
G1 X0.262S700
G1 X0.433S0
G1 X1.435S700
G1 X0.317S0
G1 X0.264S700
G1 X0.402S0
G1 X0.264S700
G1 X0.319S0
G1 X1.434S700
G1 X1.391S0
G1 X0.354S700
G1 X1.278S0
G1 X0.284S700
G1 X1.153S0
G1 X0.298S700
G1 X0.479S0
G1 X0.284S700
G1 X0.499S0
G1 X0.272S700
G1 X0.635S0
G1 X0.327S700
G1 X0.185S0
G1 X0.272S700
G1 X1.667S0
G1 Y0.05S0
G1 X-1.667S0
G1 X-0.272S700
G1 X-0.218S0
G1 X-0.327S700
G1 X-0.602S0
G1 X-0.272S700
G1 X-0.499S0
G1 X-0.284S700
G1 X-0.469S0
G1 X-0.296S700
G1 X-1.165S0
G1 X-0.284S700
G1 X-1.237S0
G1 X-0.355S700
G1 X-1.431S0
G1 X-1.436S700
G1 X-0.317S0
G1 X-0.264S700
G1 X-0.402S0
G1 X-0.264S700
G1 X-0.317S0
G1 X-1.437S700
G1 X-0.431S0
G1 X-0.262S700
G1 X-0.546S0
G1 X-0.834S700
G1 X-0.666S0
G1 X-0.834S700
G1 X-0.559S0
G1 X-0.248S700
G1 X-0.866S0
G1 X-0.268S700
G1 X-0.299S0
G1 X-0.262S700
G1 X-0.74S0
G1 X-0.264S700
G1 X-0.412S0
G1 X-0.264S700
G1 X-0.733S0
G1 X-0.267S700
G1 X-0.73S0
G1 X-0.263S700
G1 X-0.32S0
G1 X-1.437S700
G1 X-0.31S0
G1 X-0.264S700
G1 X-0.404S0
G1 X-0.262S700
G1 X-0.74S0
G1 X-0.263S700
G1 X-0.401S0
G1 X-0.264S700
G1 X-0.416S0
G1 X-0.241S700
G1 X-0.838S0
G1 X-0.269S700
G1 X-0.644S0
G1 X-0.263S700
G1 X-0.304S0
G1 X-0.272S700
G1 X-0.917S0
G1 X-0.275S700
G1 X-0.204S0
G1 X-0.267S700
G1 X-0.926S0
G1 X-0.272S700
G1 X-0.68S0
G1 X-0.349S700
G1 X-0.519S0
G1 X-0.328S700
G1 X-1.667S0
G1 Y0.05S0
G1 X1.667S0
G1 X0.38S700
G1 X0.432S0
G1 X0.347S700
G1 X0.718S0
G1 X0.271S700
G1 X0.927S0
G1 X0.269S700
G1 X0.201S0
G1 X0.276S700
G1 X0.911S0
G1 X0.281S700
G1 X0.3S0
G1 X0.265S700
G1 X0.643S0
G1 X0.267S700
G1 X0.839S0
G1 X0.241S700
G1 X0.416S0
G1 X0.264S700
G1 X0.401S0
G1 X0.263S700
G1 X0.738S0
G1 X0.263S700
G1 X0.405S0
G1 X0.264S700
G1 X0.314S0
G1 X1.433S700
G1 X0.32S0
G1 X0.265S700
G1 X0.727S0
G1 X0.267S700
G1 X0.734S0
G1 X0.264S700
G1 X0.412S0
G1 X0.264S700
G1 X0.738S0
G1 X0.263S700
G1 X0.301S0
G1 X0.262S700
G1 X0.874S0
G1 X0.244S700
G1 X0.484S0
G1 X0.827S700
G1 X0.673S0
G1 X0.827S700
G1 X0.629S0
G1 X0.262S700
G1 X0.435S0
G1 X1.433S700
G1 X0.317S0
G1 X0.264S700
G1 X0.402S0
G1 X0.264S700
G1 X0.321S0
G1 X1.433S700
G1 X1.469S0
G1 X0.356S700
G1 X1.197S0
G1 X0.284S700
G1 X1.177S0
G1 X0.294S700
G1 X0.459S0
G1 X0.284S700
G1 X0.499S0
G1 X0.272S700
G1 X0.568S0
G1 X0.327S700
G1 X0.252S0
G1 X0.272S700
G1 X1.667S0
G1 Y0.05S0
G1 X-1.667S0
G1 X-0.272S700
G1 X-0.285S0
G1 X-0.327S700
G1 X-0.535S0
G1 X-0.272S700
G1 X-0.499S0
G1 X-0.284S700
G1 X-0.449S0
G1 X-0.294S700
G1 X-1.187S0
G1 X-0.284S700
G1 X-1.156S0
G1 X-0.358S700
G1 X-1.508S0
G1 X-1.429S700
G1 X-0.325S0
G1 X-0.264S700
G1 X-0.402S0
G1 X-0.264S700
G1 X-0.316S0
G1 X-1.43S700
G1 X-0.439S0
G1 X-0.262S700
G1 X-0.793S0
G1 X-0.71S700
G1 X-0.79S0
G1 X-0.71S700
G1 X-0.437S0
G1 X-0.252S700
G1 X-0.858S0
G1 X-0.27S700
G1 X-0.301S0
G1 X-0.265S700
G1 X-0.734S0
G1 X-0.266S700
G1 X-0.412S0
G1 X-0.264S700
G1 X-0.734S0
G1 X-0.268S700
G1 X-0.723S0
G1 X-0.268S700
G1 X-0.32S0
G1 X-1.429S700
G1 X-0.318S0
G1 X-0.264S700
G1 X-0.405S0
G1 X-0.265S700
G1 X-0.734S0
G1 X-0.265S700
G1 X-0.401S0
G1 X-0.264S700
G1 X-0.416S0
G1 X-0.241S700
G1 X-0.839S0
G1 X-0.265S700
G1 X-0.642S0
G1 X-0.268S700
G1 X-0.305S0
G1 X-0.281S700
G1 X-0.906S0
G1 X-0.268S700
G1 X-0.213S0
G1 X-0.273S700
G1 X-0.907S0
G1 X-0.275S700
G1 X-0.763S0
G1 X-0.346S700
G1 X-0.345S0
G1 X-0.431S700
G1 X-1.667S0
G1 Y0.05S0
G1 X1.667S0
G1 X0.482S700
G1 X0.259S0
G1 X0.344S700
G1 X0.807S0
G1 X0.281S700
G1 X0.886S0
G1 X0.273S700
G1 X0.229S0
G1 X0.261S700
G1 X0.9S0
G1 X0.278S700
G1 X0.313S0
G1 X0.271S700
G1 X0.641S0
G1 X0.267S700
G1 X0.827S0
G1 X0.249S700
G1 X0.416S0
G1 X0.264S700
G1 X0.401S0
G1 X0.268S700
G1 X0.729S0
G1 X0.266S700
G1 X0.406S0
G1 X0.264S700
G1 X0.323S0
G1 X0.279S700
G1 X0.865S0
G1 X0.277S700
G1 X0.323S0
G1 X0.271S700
G1 X0.72S0
G1 X0.268S700
G1 X0.734S0
G1 X0.264S700
G1 X0.412S0
G1 X0.269S700
G1 X0.729S0
G1 X0.266S700
G1 X0.31S0
G1 X0.27S700
G1 X0.842S0
G1 X0.259S700
G1 X0.397S0
G1 X0.583S700
G1 X0.917S0
G1 X0.583S700
G1 X0.961S0
G1 X0.262S700
G1 X0.444S0
G1 X0.279S700
G1 X0.865S0
G1 X0.278S700
G1 X0.319S0
G1 X0.264S700
G1 X0.402S0
G1 X0.264S700
G1 X0.33S0
G1 X0.279S700
G1 X0.865S0
G1 X0.277S700
G1 X1.551S0
G1 X0.358S700
G1 X1.116S0
G1 X0.284S700
G1 X1.191S0
G1 X0.3S700
G1 X0.439S0
G1 X0.284S700
G1 X0.499S0
G1 X0.272S700
G1 X0.501S0
G1 X0.327S700
G1 X0.319S0
G1 X0.272S700
G1 X1.667S0
G1 Y0.05S0
G1 X-1.667S0
G1 X-0.272S700
G1 X-0.352S0
G1 X-0.327S700
G1 X-0.468S0
G1 X-0.272S700
G1 X-0.499S0
G1 X-0.284S700
G1 X-0.438S0
G1 X-0.296S700
G1 X-1.196S0
G1 X-0.284S700
G1 X-1.075S0
G1 X-0.36S700
G1 X-1.602S0
G1 X-0.275S700
G1 X-0.848S0
G1 X-0.274S700
G1 X-0.342S0
G1 X-0.264S700
G1 X-0.402S0
G1 X-0.264S700
G1 X-0.332S0
G1 X-0.274S700
G1 X-0.849S0
G1 X-0.273S700
G1 X-0.457S0
G1 X-0.262S700
G1 X-1.143S0
G1 X-0.428S700
G1 X-1.072S0
G1 X-0.428S700
G1 X-0.37S0
G1 X-0.267S700
G1 X-0.827S0
G1 X-0.267S700
G1 X-0.321S0
G1 X-0.266S700
G1 X-0.725S0
G1 X-0.272S700
G1 X-0.412S0
G1 X-0.264S700
G1 X-0.734S0
G1 X-0.269S700
G1 X-0.715S0
G1 X-0.275S700
G1 X-0.335S0
G1 X-0.275S700
G1 X-0.848S0
G1 X-0.274S700
G1 X-0.335S0
G1 X-0.264S700
G1 X-0.407S0
G1 X-0.266S700
G1 X-0.725S0
G1 X-0.271S700
G1 X-0.401S0
G1 X-0.264S700
G1 X-0.416S0
G1 X-0.261S700
G1 X-0.804S0
G1 X-0.27S700
G1 X-0.645S0
G1 X-0.275S700
G1 X-0.321S0
G1 X-0.275S700
G1 X-0.881S0
G1 X-0.268S700
G1 X-0.244S0
G1 X-0.273S700
G1 X-0.866S0
G1 X-0.285S700
G1 X-0.851S0
G1 X-0.343S700
G1 X-0.173S0
G1 X-0.533S700
G1 X-1.667S0
G1 Y0.05S0
G1 X1.667S0
G1 X0.585S700
G1 X0.086S0
G1 X0.341S700
G1 X0.897S0
G1 X0.288S700
G1 X0.833S0
G1 X0.286S700
G1 X0.261S0
G1 X0.275S700
G1 X0.841S0
G1 X0.291S700
G1 X0.329S0
G1 X0.28S700
G1 X0.652S0
G1 X0.269S700
G1 X0.781S0
G1 X0.273S700
G1 X0.416S0
G1 X0.264S700
G1 X0.401S0
G1 X0.282S700
G1 X0.712S0
G1 X0.267S700
G1 X0.408S0
G1 X0.264S700
G1 X0.348S0
G1 X0.271S700
G1 X0.828S0
G1 X0.272S700
G1 X0.348S0
G1 X0.28S700
G1 X0.71S0
G1 X0.269S700
G1 X0.734S0
G1 X0.264S700
G1 X0.412S0
G1 X0.283S700
G1 X0.712S0
G1 X0.267S700
G1 X0.331S0
G1 X0.276S700
G1 X0.791S0
G1 X0.284S700
G1 X0.346S0
G1 X0.332S700
G1 X1.168S0
G1 X0.332S700
G1 X1.264S0
G1 X0.262S700
G1 X0.469S0
G1 X0.271S700
G1 X0.829S0
G1 X0.271S700
G1 X0.345S0
G1 X0.264S700
G1 X0.402S0
G1 X0.264S700
G1 X0.355S0
G1 X0.271S700
G1 X0.828S0
G1 X0.272S700
G1 X1.655S0
G1 X0.36S700
G1 X1.035S0
G1 X0.284S700
G1 X1.2S0
G1 X0.291S700
G1 X0.439S0
G1 X0.284S700
G1 X0.499S0
G1 X0.272S700
G1 X0.434S0
G1 X0.328S700
G1 X0.385S0
G1 X0.272S700
G1 X1.667S0
G1 Y0.05S0
G1 X-1.667S0
G1 X-0.272S700
G1 X-0.419S0
G1 X-0.327S700
G1 X-0.401S0
G1 X-0.272S700
G1 X-0.499S0
G1 X-0.284S700
G1 X-0.44S0
G1 X-0.289S700
G1 X-1.201S0
G1 X-0.284S700
G1 X-0.994S0
G1 X-0.36S700
G1 X-1.709S0
G1 X-0.268S700
G1 X-0.8S0
G1 X-0.278S700
G1 X-0.367S0
G1 X-0.264S700
G1 X-0.402S0
G1 X-0.264S700
G1 X-0.358S0
G1 X-0.268S700
G1 X-0.8S0
G1 X-0.277S700
G1 X-0.482S0
G1 X-0.262S700
G1 X-1.322S0
G1 X-0.28S700
G1 X-1.22S0
G1 X-0.28S700
G1 X-0.34S0
G1 X-0.306S700
G1 X-0.748S0
G1 X-0.282S700
G1 X-0.346S0
G1 X-0.269S700
G1 X-0.698S0
G1 X-0.295S700
G1 X-0.412S0
G1 X-0.264S700
G1 X-0.734S0
G1 X-0.269S700
G1 X-0.702S0
G1 X-0.288S700
G1 X-0.361S0
G1 X-0.268S700
G1 X-0.8S0
G1 X-0.278S700
G1 X-0.36S0
G1 X-0.264S700
G1 X-0.408S0
G1 X-0.269S700
G1 X-0.698S0
G1 X-0.294S700
G1 X-0.401S0
G1 X-0.264S700
G1 X-0.416S0
G1 X-0.295S700
G1 X-0.74S0
G1 X-0.275S700
G1 X-0.657S0
G1 X-0.288S700
G1 X-0.348S0
G1 X-0.296S700
G1 X-0.801S0
G1 X-0.271S700
G1 X-0.3S0
G1 X-0.289S700
G1 X-0.791S0
G1 X-0.288S700
G1 X-0.954S0
G1 X-0.686S700
G1 X-0.289
G1 X-1.667S0
G1 Y0.05S0
G1 X1.667S0
G1 X0.284S700
G1 X0.055S0
G1 X0.599S700
G1 X1.012S0
G1 X0.3S700
G1 X0.735S0
G1 X0.292S700
G1 X0.341S0
G1 X0.28S700
G1 X0.748S0
G1 X0.3S700
G1 X0.367S0
G1 X0.31S700
G1 X0.649S0
G1 X0.286S700
G1 X0.691S0
G1 X0.319S700
G1 X0.416S0
G1 X0.264S700
G1 X0.401S0
G1 X0.306S700
G1 X0.673S0
G1 X0.278S700
G1 X0.412S0
G1 X0.264S700
G1 X0.382S0
G1 X0.275S700
G1 X0.758S0
G1 X0.276S700
G1 X0.376S0
G1 X0.309S700
G1 X0.682S0
G1 X0.268S700
G1 X0.734S0
G1 X0.264S700
G1 X0.412S0
G1 X0.307S700
G1 X0.673S0
G1 X0.278S700
G1 X0.369S0
G1 X0.285S700
G1 X0.704S0
G1 X0.327S700
G1 X0.336S0
G1 X0.265S700
G1 X0.657S0
G1 X0.137S700
G1 X0.441S0
G1 X0.265S700
G1 X0.657S0
G1 X0.137S700
G1 X0.548S0
G1 X0.262S700
G1 X0.504S0
G1 X0.274S700
G1 X0.759S0
G1 X0.276S700
G1 X0.372S0
G1 X0.264S700
G1 X0.402S0
G1 X0.264S700
G1 X0.389S0
G1 X0.275S700
G1 X0.758S0
G1 X0.276S700
G1 X1.765S0
G1 X0.359S700
G1 X0.954S0
G1 X0.284S700
G1 X1.198S0
G1 X0.292S700
G1 X0.44S0
G1 X0.284S700
G1 X0.499S0
G1 X0.272S700
G1 X0.368S0
G1 X0.327S700
G1 X0.452S0
G1 X0.272S700
G1 X1.667S0
G1 Y0.05S0
G1 X-1.667S0
G1 X-0.272S700
G1 X-0.486S0
G1 X-0.327S700
G1 X-0.334S0
G1 X-0.272S700
G1 X-0.499S0
G1 X-0.284S700
G1 X-0.441S0
G1 X-0.294S700
G1 X-1.195S0
G1 X-0.284S700
G1 X-0.913S0
G1 X-0.359S700
G1 X-1.834S0
G1 X-0.274S700
G1 X-0.703S0
G1 X-0.282S700
G1 X-0.411S0
G1 X-0.264S700
G1 X-0.402S0
G1 X-0.264S700
G1 X-0.4S0
G1 X-0.275S700
G1 X-0.702S0
G1 X-0.283S700
G1 X-0.525S0
G1 X-0.262S700
G1 X-0.428S0
G1 X-0.272S700
G1 X-0.652S0
G1 X-0.253S700
G1 X-0.323S0
G1 X-0.272S700
G1 X-0.652S0
G1 X-0.253S700
G1 X-0.338S0
G1 X-0.361S700
G1 X-0.638S0
G1 X-0.298S700
G1 X-0.396S0
G1 X-0.283S700
G1 X-0.624S0
G1 X-0.343S700
G1 X-0.412S0
G1 X-0.264S700
G1 X-0.734S0
G1 X-0.268S700
G1 X-0.654S0
G1 X-0.337S700
G1 X-0.403S0
G1 X-0.275S700
G1 X-0.703S0
G1 X-0.282S700
G1 X-0.404S0
G1 X-0.264S700
G1 X-0.42S0
G1 X-0.283S700
G1 X-0.624S0
G1 X-0.342S700
G1 X-0.401S0
G1 X-0.264S700
G1 X-0.416S0
G1 X-0.348S700
G1 X-0.636S0
G1 X-0.288S700
G1 X-0.646S0
G1 X-0.337S700
G1 X-0.387S0
G1 X-0.304S700
G1 X-0.689S0
G1 X-0.295S700
G1 X-0.381S0
G1 X-0.307S700
G1 X-0.667S0
G1 X-0.313S700
G1 X-1.069S0
G1 X-0.512S700
G1 X-0.105S0
G1 X-0.284S700
G1 X-1.667S0
G1 Y0.05S0
G1 X1.667S0
G1 X0.284S700
G1 X0.156S0
G1 X0.425S700
G1 X1.125S0
G1 X0.327S700
G1 X0.592S0
G1 X0.324S700
G1 X0.426S0
G1 X0.311S700
G1 X0.618S0
G1 X0.313S700
G1 X0.412S0
G1 X0.38S700
G1 X0.627S0
G1 X0.305S700
G1 X0.555S0
G1 X0.388S700
G1 X0.416S0
G1 X0.264S700
G1 X0.401S0
G1 X0.379S700
G1 X0.556S0
G1 X0.307S700
G1 X0.427S0
G1 X0.264S700
G1 X0.426S0
G1 X0.304S700
G1 X0.621S0
G1 X0.285S700
G1 X0.431S0
G1 X0.38S700
G1 X0.612S0
G1 X0.267S700
G1 X0.734S0
G1 X0.264S700
G1 X0.412S0
G1 X0.38S700
G1 X0.555S0
G1 X0.308S700
G1 X0.427S0
G1 X0.313S700
G1 X0.559S0
G1 X0.4S700
G1 X0.349S0
G1 X0.257S700
G1 X0.615S0
G1 X0.284S700
G1 X0.344S0
G1 X0.257S700
G1 X0.615S0
G1 X0.284S700
G1 X0.439S0
G1 X0.262S700
G1 X0.547S0
G1 X0.304S700
G1 X0.621S0
G1 X0.285S700
G1 X0.428S0
G1 X0.264S700
G1 X0.402S0
G1 X0.264S700
G1 X0.433S0
G1 X0.304S700
G1 X0.621S0
G1 X0.285S700
G1 X1.902S0
G1 X0.358S700
G1 X0.873S0
G1 X0.284S700
G1 X1.192S0
G1 X0.297S700
G1 X0.441S0
G1 X0.284S700
G1 X0.499S0
G1 X0.272S700
G1 X0.301S0
G1 X0.327S700
G1 X0.519S0
G1 X0.272S700
G1 X1.667S0
G1 Y0.05S0
G1 X-1.667S0
G1 X-0.272S700
G1 X-0.553S0
G1 X-0.327S700
G1 X-0.267S0
G1 X-0.272S700
G1 X-0.499S0
G1 X-0.284S700
G1 X-0.452S0
G1 X-0.292S700
G1 X-1.186S0
G1 X-0.284S700
G1 X-0.833S0
G1 X-0.357S700
G1 X-1.971S0
G1 X-0.309S700
G1 X-0.517S0
G1 X-0.324S700
G1 X-0.465S0
G1 X-0.264S700
G1 X-0.402S0
G1 X-0.264S700
G1 X-0.455S0
G1 X-0.31S700
G1 X-0.516S0
G1 X-0.324S700
G1 X-0.58S0
G1 X-0.262S700
G1 X-0.452S0
G1 X-0.312S700
G1 X-0.54S0
G1 X-0.28S700
G1 X-0.368S0
G1 X-0.312S700
G1 X-0.54S0
G1 X-0.28S700
G1 X-0.36S0
G1 X-0.44S700
G1 X-0.479S0
G1 X-0.323S700
G1 X-0.468S0
G1 X-0.335S700
G1 X-0.456S0
G1 X-0.441S700
G1 X-0.412S0
G1 X-0.264S700
G1 X-0.734S0
G1 X-0.267S700
G1 X-0.229S0
G1 X-0.076S700
G1 X-0.238S0
G1 X-0.449S700
G1 X-0.459S0
G1 X-0.309S700
G1 X-0.517S0
G1 X-0.323S700
G1 X-0.459S0
G1 X-0.264S700
G1 X-0.438S0
G1 X-0.335S700
G1 X-0.456S0
G1 X-0.44S700
G1 X-0.401S0
G1 X-0.264S700
G1 X-0.416S0
G1 X-0.427S700
G1 X-0.474S0
G1 X-0.323S700
G1 X-0.268S0
G1 X-0.076S700
G1 X-0.238S0
G1 X-0.449S700
G1 X-0.446S0
G1 X-0.339S700
G1 X-0.493S0
G1 X-0.34S700
G1 X-0.496S0
G1 X-0.331S700
G1 X-0.518S0
G1 X-0.323S700
G1 X-1.182S0
G1 X-0.355S700
G1 X-0.206S0
G1 X-0.284S700
G1 X-1.667S0
G1 Y0.05S0
G1 X1.667S0
G1 X0.284S700
G1 X0.256S0
G1 X0.357S700
G1 X1.166S0
G1 X0.383S700
G1 X0.326S0
G1 X0.392S700
G1 X0.567S0
G1 X0.373S700
G1 X0.333S0
G1 X0.396S700
G1 X0.48S0
G1 X0.237S700
G1 X0.01S0
G1 X0.535S700
G1 X0.287S0
G1 X0.372S700
G1 X0.299S0
G1 X0.515S700
G1 X0.416S0
G1 X0.264S700
G1 X0.401S0
G1 X0.237S700
G1 X0.285
G1 X0.291S0
G1 X0.389S700
G1 X0.467S0
G1 X0.264S700
G1 X0.491S0
G1 X0.38S700
G1 X0.34S0
G1 X0.361S700
G1 X0.495S0
G1 X0.237S700
G1 X0.01S0
G1 X0.535S700
G1 X0.211S0
G1 X0.266S700
G1 X0.734S0
G1 X0.264S700
G1 X0.412S0
G1 X0.238S700
G1 X0.285
G1 X0.29S0
G1 X0.39S700
G1 X0.528S0
G1 X0.38S700
G1 X0.303S0
G1 X0.527S700
G1 X0.388S0
G1 X0.314S700
G1 X0.401S0
G1 X0.362S700
G1 X0.423S0
G1 X0.314S700
G1 X0.401S0
G1 X0.362S700
G1 X0.48S0
G1 X0.261S700
G1 X0.614S0
G1 X0.38S700
G1 X0.339S0
G1 X0.361S700
G1 X0.492S0
G1 X0.264S700
G1 X0.402S0
G1 X0.264S700
G1 X0.498S0
G1 X0.38S700
G1 X0.339S0
G1 X0.362S700
G1 X2.048S0
G1 X0.357S700
G1 X0.792S0
G1 X0.284S700
G1 X1.179S0
G1 X0.288S700
G1 X0.463S0
G1 X0.284S700
G1 X0.499S0
G1 X0.272S700
G1 X0.234S0
G1 X0.327S700
G1 X0.586S0
G1 X0.272S700
G1 X1.667S0
G1 Y0.05S0
G1 X-1.667S0
G1 X-0.272S700
G1 X-0.62S0
G1 X-0.326S700
G1 X-0.201S0
G1 X-0.272S700
G1 X-0.499S0
G1 X-0.284S700
G1 X-0.474S0
G1 X-0.283S700
G1 X-1.173S0
G1 X-0.284S700
G1 X-0.752S0
G1 X-0.356S700
G1 X-2.137S0
G1 X-0.991S700
G1 X-0.54S0
G1 X-0.264S700
G1 X-0.402S0
G1 X-0.264S700
G1 X-0.54S0
G1 X-0.99S700
G1 X-0.39S0
G1 X-0.721S700
G1 X-0.313S0
G1 X-1.022S700
G1 X-0.478S0
G1 X-1.022S700
G1 X-0.416S0
G1 X-0.245S700
G1 X-0.019S0
G1 X-0.902S700
G1 X-0.6S0
G1 X-0.889S700
G1 X-0.048S0
G1 X-0.238S700
G1 X-0.412S0
G1 X-0.264S700
G1 X-0.734S0
G1 X-0.266S700
G1 X-0.192S0
G1 X-0.523S700
G1 X-0.041S0
G1 X-0.237S700
G1 X-0.543S0
G1 X-0.99S700
G1 X-0.534S0
G1 X-0.264S700
G1 X-0.495S0
G1 X-0.889S700
G1 X-0.048S0
G1 X-0.237S700
G1 X-0.401S0
G1 X-0.264S700
G1 X-0.416S0
G1 X-0.262S700
G1 X-0.885
G1 X-0.307S0
G1 X-0.523S700
G1 X-0.041S0
G1 X-0.237S700
G1 X-0.518S0
G1 X-1.028S700
G1 X-0.64S0
G1 X-1.028S700
G1 X-1.15S0
G1 X-0.359S700
G1 X-0.306S0
G1 X-0.284S700
G1 X-1.667S0
G1 Y0.05S0
G1 X1.667S0
G1 X0.284S700
G1 X0.356S0
G1 X0.361S700
G1 X1.148S0
G1 X0.915S700
G1 X0.754S0
G1 X0.914S700
G1 X0.581S0
G1 X0.237S700
G1 X0.072S0
G1 X0.51S700
G1 X0.33S0
G1 X0.789S700
G1 X0.055S0
G1 X0.262S700
G1 X0.416S0
G1 X0.264S700
G1 X0.401S0
G1 X0.237S700
G1 X0.094S0
G1 X0.804S700
G1 X0.534S0
G1 X0.264S700
G1 X0.603S0
G1 X0.873S700
G1 X0.591S0
G1 X0.237S700
G1 X0.071S0
G1 X0.511S700
G1 X0.175S0
G1 X0.265S700
G1 X0.734S0
G1 X0.264S700
G1 X0.412S0
G1 X0.238S700
G1 X0.094S0
G1 X0.804S700
G1 X0.699S0
G1 X0.793S700
G1 X0.068S0
G1 X0.244S700
G1 X0.466S0
G1 X0.923S700
G1 X0.577S0
G1 X0.923S700
G1 X0.363S0
G1 X0.721S700
G1 X0.46S0
G1 X0.873S700
G1 X0.587S0
G1 X0.264S700
G1 X0.402S0
G1 X0.264S700
G1 X0.61S0
G1 X0.873S700
G1 X2.226S0
G1 X0.356S700
G1 X0.711S0
G1 X0.284S700
G1 X1.166S0
G1 X0.279S700
G1 X0.485S0
G1 X0.284S700
G1 X0.499S0
G1 X0.272S700
G1 X0.167S0
G1 X0.327S700
G1 X0.653S0
G1 X0.272S700
G1 X1.667S0
G1 Y0.05S0
G1 X-1.667S0
G1 X-0.272S700
G1 X-0.687S0
G1 X-0.326S700
G1 X-0.134S0
G1 X-0.272S700
G1 X-0.499S0
G1 X-0.284S700
G1 X-0.496S0
G1 X-0.287S700
G1 X-1.147S0
G1 X-0.284S700
G1 X-0.671S0
G1 X-0.355S700
G1 X-2.336S0
G1 X-0.734S700
G1 X-0.68S0
G1 X-0.264S700
G1 X-0.402S0
G1 X-0.264S700
G1 X-0.656S0
G1 X-0.734S700
G1 X-0.53S0
G1 X-0.721S700
G1 X-0.422S0
G1 X-0.807S700
G1 X-0.693S0
G1 X-0.807S700
G1 X-0.524S0
G1 X-0.243S700
G1 X-0.139S0
G1 X-0.662S700
G1 X-0.82S0
G1 X-0.681S700
G1 X-0.156S0
G1 X-0.238S700
G1 X-0.412S0
G1 X-0.264S700
G1 X-0.734S0
G1 X-0.265S700
G1 X-0.156S0
G1 X-0.482S700
G1 X-0.119S0
G1 X-0.237S700
G1 X-0.66S0
G1 X-0.734S700
G1 X-0.673S0
G1 X-0.264S700
G1 X-0.595S0
G1 X-0.681S700
G1 X-0.156S0
G1 X-0.237S700
G1 X-0.401S0
G1 X-0.264S700
G1 X-0.416S0
G1 X-0.262S700
G1 X-0.124S0
G1 X-0.641S700
G1 X-0.39S0
G1 X-0.482S700
G1 X-0.119S0
G1 X-0.237S700
G1 X-0.655S0
G1 X-0.767S700
G1 X-0.902S0
G1 X-0.766S700
G1 X-1.171S0
G1 X-0.362S700
G1 X-0.406S0
G1 X-0.284S700
G1 X-1.667S0
G1 Y0.05S0
G1 X1.667S0
G1 X0.284S700
G1 X0.456S0
G1 X0.364S700
G1 X1.224S0
G1 X0.563S700
G1 X1.105S0
G1 X0.563S700
G1 X0.754S0
G1 X0.237S700
G1 X0.167S0
G1 X0.387S700
G1 X0.516S0
G1 X0.468S700
G1 X0.218S0
G1 X0.262S700
G1 X0.416S0
G1 X0.264S700
G1 X0.401S0
G1 X0.237S700
G1 X0.243S0
G1 X0.512S700
G1 X0.677S0
G1 X0.264S700
G1 X0.775S0
G1 X0.518S700
G1 X0.774S0
G1 X0.237S700
G1 X0.167S0
G1 X0.387S700
G1 X0.204S0
G1 X0.264S700
G1 X0.734S0
G1 X0.264S700
G1 X0.412S0
G1 X0.238S700
G1 X0.243S0
G1 X0.512S700
G1 X1.001S0
G1 X0.461S700
G1 X0.241S0
G1 X0.243S700
G1 X0.639S0
G1 X0.594S700
G1 X0.906S0
G1 X0.594S700
G1 X0.52S0
G1 X0.721S700
G1 X0.631S0
G1 X0.518S700
G1 X0.771S0
G1 X0.264S700
G1 X0.402S0
G1 X0.264S700
G1 X0.782S0
G1 X0.518S700
G1 X2.491S0
G1 X0.355S700
G1 X0.63S0
G1 X0.284S700
G1 X1.122S0
G1 X0.298S700
G1 X0.51S0
G1 X0.284S700
G1 X0.499S0
G1 X0.272S700
G1 X0.1S0
G1 X0.327S700
G1 X0.72S0
G1 X0.272S700
G1 X1.667S0
G1 Y0.05S0
G1 X-1.667S0
G1 X-0.272S700
G1 X-0.753S0
G1 X-0.327S700
G1 X-0.067S0
G1 X-0.272S700
G1 X-0.499S0
G1 X-0.284S700
G1 X-0.532S0
G1 X-0.3S700
G1 X-1.098S0
G1 X-0.284S700
G1 X-0.59S0
G1 X-0.354S700
G1 X-2.823S0
G1 X-0.05S700
G1 X-0.959S0
G1 X-0.264S700
G1 X-0.402S0
G1 X-0.264S700
G1 X-1.062S0
G1 X-0.049S700
G1 X-1.075S0
G1 X-0.261S700
G1 X-0.936S0
G1 X-0.171S700
G1 X-1.329S0
G1 X-0.171S700
G1 X-1.617S0
G1 X-0.011S700
G1 X-1.382S0
G1 X-0.115S700
G1 X-2.679S0
G1 X-0.056S700
G1 X-1.653S0
G1 X-0.05S700
G1 X-2.117S0
G1 X-0.115S700
G1 X-1.734S0
G1 X-0.262S700
G1 X-0.449S0
G1 X-0.033S700
G1 X-0.867S0
G1 X-0.056S700
G1 X-1.558S0
G1 X-0.137S700
G1 X-1.531S0
G1 X-0.137S700
G1 X-1.382S0
G1 X-0.366S700
G1 X-0.506S0
G1 X-0.284S700
G1 X-1.667S0
G1 Y0.05S0
G1 X1.667S0
G1 X0.284S700
G1 X0.556S0
G1 X0.368S700
G1 X6.098S0
G1 X0.262S700
G1 X14.136S0
G1 X0.261S700
G1 X2.186S0
G1 X0.264S700
G1 X0.402S0
G1 X0.264S700
G1 X3.873S0
G1 X0.354S700
G1 X0.549S0
G1 X0.284S700
G1 X1.071S0
G1 X0.304S700
G1 X0.555S0
G1 X0.284S700
G1 X0.499S0
G1 X0.272S700
G1 X0.033S0
G1 X0.327S700
G1 X0.787S0
G1 X0.272S700
G1 X1.667S0
G1 Y0.05S0
G1 X-1.667S0
G1 X-0.272S700
G1 X-0.82S0
G1 X-0.327S700
G1 X-0.272
G1 X-0.499S0
G1 X-0.284S700
G1 X-0.578S0
G1 X-0.33S700
G1 X-1.022S0
G1 X-0.284S700
G1 X-0.509S0
G1 X-0.353S700
G1 X-3.914S0
G1 X-0.264S700
G1 X-0.402S0
G1 X-0.264S700
G1 X-2.186S0
G1 X-0.261S700
G1 X-14.136S0
G1 X-0.262S700
G1 X-6.046S0
G1 X-0.37S700
G1 X-0.606S0
G1 X-0.284S700
G1 X-1.667S0
G1 Y0.05S0
G1 X1.667S0
G1 X0.284S700
G1 X0.656S0
G1 X0.371S700
G1 X5.995S0
G1 X0.262S700
G1 X14.136S0
G1 X0.261S700
G1 X2.186S0
G1 X0.264S700
G1 X0.402S0
G1 X0.264S700
G1 X3.955S0
G1 X0.353S700
G1 X0.468S0
G1 X0.284S700
G1 X0.973S0
G1 X0.356S700
G1 X0.601S0
G1 X0.284S700
G1 X0.499S0
G1 X0.565S700
G1 X0.854S0
G1 X0.272S700
G1 X1.667S0
G1 Y0.05S0
G1 X-1.667S0
G1 X-0.272S700
G1 X-0.887S0
G1 X-0.532S700
G1 X-0.499S0
G1 X-0.284S700
G1 X-0.623S0
G1 X-0.394S700
G1 X-0.913S0
G1 X-0.284S700
G1 X-0.428S0
G1 X-0.351S700
G1 X-3.997S0
G1 X-0.264S700
G1 X-0.402S0
G1 X-0.264S700
G1 X-2.186S0
G1 X-0.261S700
G1 X-14.136S0
G1 X-0.262S700
G1 X-5.943S0
G1 X-0.373S700
G1 X-0.706S0
G1 X-0.284S700
G1 X-1.667S0
G1 Y0.05S0
G1 X1.667S0
G1 X0.284S700
G1 X0.756S0
G1 X0.375S700
G1 X5.891S0
G1 X0.262S700
G1 X14.136S0
G1 X0.261S700
G1 X2.186S0
G1 X0.264S700
G1 X0.402S0
G1 X0.264S700
G1 X4.043S0
G1 X0.346S700
G1 X0.387S0
G1 X0.284S700
G1 X0.815S0
G1 X0.453S700
G1 X0.662S0
G1 X0.284S700
G1 X0.499S0
G1 X0.498S700
G1 X0.921S0
G1 X0.272S700
G1 X1.667S0
G1 Y0.05S0
G1 X-1.667S0
G1 X-0.272S700
G1 X-0.954S0
G1 X-0.465S700
G1 X-0.499S0
G1 X-0.284S700
G1 X-0.705S0
G1 X-0.672S700
G1 X-0.553S0
G1 X-0.284S700
G1 X-0.347S0
G1 X-0.34S700
G1 X-4.089S0
G1 X-0.264S700
G1 X-0.402S0
G1 X-0.264S700
G1 X-2.186S0
G1 X-0.261S700
G1 X-11.122S0
G1 X-0.264S700
G1 X-2.07S0
G1 X-0.264S700
G1 X-0.416S0
G1 X-0.262S700
G1 X-5.839S0
G1 X-0.377S700
G1 X-0.806S0
G1 X-0.284S700
G1 X-1.667S0
G1 Y0.05S0
G1 X1.667S0
G1 X0.284S700
G1 X0.856S0
G1 X0.378S700
G1 X5.788S0
G1 X0.262S700
G1 X0.416S0
G1 X0.264S700
G1 X2.07S0
G1 X0.264S700
G1 X11.122S0
G1 X0.261S700
G1 X2.186S0
G1 X0.264S700
G1 X0.402S0
G1 X0.264S700
G1 X2.897S0
G1 X1.538S700
G1 X0.341S0
G1 X1.465S700
G1 X0.749S0
G1 X0.284S700
G1 X0.499S0
G1 X0.431S700
G1 X0.988S0
G1 X0.272S700
G1 X1.667S0
G1 Y0.05S0
G1 X-1.667S0
G1 X-0.272S700
G1 X-1.021S0
G1 X-0.398S700
G1 X-0.499S0
G1 X-0.284S700
G1 X-0.818S0
G1 X-1.396S700
G1 X-0.341S0
G1 X-1.538S700
G1 X-2.897S0
G1 X-0.264S700
G1 X-0.402S0
G1 X-0.264S700
G1 X-2.186S0
G1 X-0.185S700
G1 X-11.198S0
G1 X-0.264S700
G1 X-2.07S0
G1 X-0.264S700
G1 X-0.416S0
G1 X-0.262S700
G1 X-5.736S0
G1 X-0.38S700
G1 X-0.906S0
G1 X-0.284S700
G1 X-1.667S0
G1 Y0.05S0
G1 X1.667S0
G1 X0.284S700
G1 X0.956S0
G1 X0.382S700
G1 X5.684S0
G1 X0.262S700
G1 X0.416S0
G1 X0.264S700
G1 X2.07S0
G1 X0.264S700
G1 X11.281S0
G1 X0.102S700
G1 X2.186S0
G1 X0.264S700
G1 X0.402S0
G1 X0.264S700
G1 X2.897S0
G1 X1.538S700
G1 X0.341S0
G1 X1.326S700
G1 X0.888S0
G1 X0.284S700
G1 X0.499S0
G1 X0.364S700
G1 X1.055S0
G1 X0.272S700
G1 X1.667S0
G1 Y0.05S0
G1 X-1.667S0
G1 X-0.272S700
G1 X-1.088S0
G1 X-0.331S700
G1 X-0.499S0
G1 X-0.284S700
G1 X-1.004S0
G1 X-1.21S700
G1 X-0.341S0
G1 X-1.538S700
G1 X-2.897S0
G1 X-0.264S700
G1 X-0.402S0
G1 X-0.264S700
G1 X-2.186S0
G1 X-0.019S700
G1 X-11.364S0
G1 X-0.264S700
G1 X-2.07S0
G1 X-0.264S700
G1 X-0.416S0
G1 X-0.262S700
G1 X-5.632S0
G1 X-0.383S700
G1 X-1.007S0
G1 X-0.284S700
G1 X-1.667S0
G1 Y0.05S0
G1 X1.667S0
G1 X0.284S700
G1 X1.057S0
G1 X0.384S700
G1 X5.581S0
G1 X0.262S700
G1 X0.416S0
G1 X0.264S700
G1 X2.07S0
G1 X0.264S700
G1 X13.569S0
G1 X0.264S700
G1 X0.402S0
G1 X0.264S700
G1 X2.897S0
G1 X1.538S700
G1 X0.341S0
G1 X0.977S700
G1 X1.237S0
G1 X0.284S700
G1 X0.499S0
G1 X0.297S700
G1 X1.122S0
G1 X0.272S700
G1 X1.667S0
G1 X-9.873Y1.3S0
G1 X-1.667S0
G1 X-0.218S700
G1 X-1.35S0
G1 X-0.376S700
G1 X-4.623S0
G1 X-0.362S700
G1 X-6.571S0
G1 X-0.326S700
G1 X-2.345S0
G1 X-0.218S700
G1 X-1.28S0
G1 X-0.325S700
G1 X-0.678S0
G1 X-0.219S700
G1 X-1.281S0
G1 X-0.218S700
G1 X-1.036S0
G1 X-0.409S700
G1 X-1.666S0
G1 X-2.777Y0.05S0
G1 X1.666S0
G1 X0.284S700
G1 X0.468S0
G1 X0.263S700
G1 X0.738S0
G1 X0.263S700
G1 X0.603S0
G1 X0.722S700
G1 X0.764S0
G1 X0.423S700
G1 X0.227S0
G1 X0.264S700
G1 X0.586S0
G1 X0.423S700
G1 X0.45S0
G1 X0.585S700
G1 X0.209S0
G1 X0.236S700
G1 X0.599S0
G1 X0.422S700
G1 X1.122S0
G1 X0.263S700
G1 X0.733S0
G1 X0.584S700
G1 X0.21S0
G1 X0.236S700
G1 X0.41S0
G1 X0.264S700
G1 X1.653S0
G1 X0.284S700
G1 X0.468S0
G1 X0.263S700
G1 X0.738S0
G1 X0.263S700
G1 X0.467S0
G1 X0.262S700
G1 X0.803S0
G1 X0.664S700
G1 X0.707S0
G1 X0.263S700
G1 X0.739S0
G1 X0.263S700
G1 X0.661S0
G1 X0.263S700
G1 X0.659S0
G1 X0.261S700
G1 X0.521S0
G1 X0.634S700
G1 X0.29S0
G1 X0.273S700
G1 X0.527S0
G1 X0.423S700
G1 X0.226S0
G1 X0.264S700
G1 X0.403S0
G1 X0.264S700
G1 X0.675S0
G1 X0.325S700
G1 X1.666S0
G1 X-0.033Y0.05S0
G1 X-1.667S0
G1 X-0.323S700
G1 X-0.643S0
G1 X-0.264S700
G1 X-0.403S0
G1 X-0.264S700
G1 X-0.234S0
G1 X-0.48S700
G1 X-0.485S0
G1 X-0.269S700
G1 X-0.171S0
G1 X-0.801S700
G1 X-0.454S0
G1 X-0.26S700
G1 X-0.66S0
G1 X-0.263S700
G1 X-0.661S0
G1 X-0.263S700
G1 X-0.739S0
G1 X-0.263S700
G1 X-0.63S0
G1 X-0.823S700
G1 X-0.721S0
G1 X-0.262S700
G1 X-0.467S0
G1 X-0.262S700
G1 X-0.739S0
G1 X-0.263S700
G1 X-0.468S0
G1 X-0.284S700
G1 X-1.653S0
G1 X-0.264S700
G1 X-0.41S0
G1 X-0.236S700
G1 X-0.132S0
G1 X-0.723S700
G1 X-0.672S0
G1 X-0.263S700
G1 X-1.13S0
G1 X-0.479S700
G1 X-0.534S0
G1 X-0.236S700
G1 X-0.132S0
G1 X-0.722S700
G1 X-0.399S0
G1 X-0.479S700
G1 X-0.521S0
G1 X-0.264S700
G1 X-0.235S0
G1 X-0.479S700
G1 X-0.625S0
G1 X-0.883S700
G1 X-0.516S0
G1 X-0.263S700
G1 X-0.739S0
G1 X-0.263S700
G1 X-0.468S0
G1 X-0.284S700
G1 X-1.666S0
G1 Y0.05S0
G1 X1.666S0
G1 X0.284S700
G1 X0.468S0
G1 X0.263S700
G1 X0.74S0
G1 X0.262S700
G1 X0.459S0
G1 X0.994S700
G1 X0.55S0
G1 X0.492S700
G1 X0.243S0
G1 X0.264S700
G1 X0.501S0
G1 X0.491S700
G1 X0.347S0
G1 X0.84S700
G1 X0.074S0
G1 X0.236S700
G1 X0.513S0
G1 X0.492S700
G1 X1.138S0
G1 X0.263S700
G1 X0.612S0
G1 X0.84S700
G1 X0.075S0
G1 X0.236S700
G1 X0.41S0
G1 X0.264S700
G1 X1.653S0
G1 X0.284S700
G1 X0.468S0
G1 X0.263S700
G1 X0.74S0
G1 X0.262S700
G1 X0.466S0
G1 X0.262S700
G1 X0.659S0
G1 X0.95S700
G1 X0.565S0
G1 X0.263S700
G1 X0.739S0
G1 X0.263S700
G1 X0.661S0
G1 X0.263S700
G1 X0.66S0
G1 X0.26S700
G1 X0.405S0
G1 X0.923S700
G1 X0.089S0
G1 X0.267S700
G1 X0.476S0
G1 X0.491S700
G1 X0.243S0
G1 X0.264S700
G1 X0.403S0
G1 X0.264S700
G1 X0.611S0
G1 X0.322S700
G1 X1.667S0
G1 X-0.034Y0.05S0
G1 X-1.667S0
G1 X-0.321S700
G1 X-0.578S0
G1 X-0.264S700
G1 X-0.403S0
G1 X-0.264S700
G1 X-0.251S0
G1 X-0.504S700
G1 X-0.464S0
G1 X-0.267S700
G1 X-0.372
G1 X-0.261S0
G1 X-0.406S700
G1 X-0.369S0
G1 X-0.259S700
G1 X-0.661S0
G1 X-0.263S700
G1 X-0.661S0
G1 X-0.263S700
G1 X-0.739S0
G1 X-0.263S700
G1 X-0.499S0
G1 X-0.475S700
G1 X-0.12S0
G1 X-0.474S700
G1 X-0.606S0
G1 X-0.262S700
G1 X-0.466S0
G1 X-0.261S700
G1 X-0.741S0
G1 X-0.263S700
G1 X-0.468S0
G1 X-0.284S700
G1 X-1.653S0
G1 X-0.264S700
G1 X-0.41S0
G1 X-0.236S700
G1 X-0.033S0
G1 X-0.91S700
G1 X-0.584S0
G1 X-0.263S700
G1 X-1.146S0
G1 X-0.504S700
G1 X-0.493S0
G1 X-0.236S700
G1 X-0.032S0
G1 X-0.911S700
G1 X-0.326S0
G1 X-0.504S700
G1 X-0.48S0
G1 X-0.264S700
G1 X-0.252S0
G1 X-0.504S700
G1 X-0.486S0
G1 X-0.444S700
G1 X-0.185S0
G1 X-0.456S700
G1 X-0.411S0
G1 X-0.261S700
G1 X-0.741S0
G1 X-0.263S700
G1 X-0.468S0
G1 X-0.284S700
G1 X-1.666S0
G1 Y0.05S0
G1 X1.666S0
G1 X0.284S700
G1 X0.468S0
G1 X0.263S700
G1 X0.742S0
G1 X0.261S700
G1 X0.379S0
G1 X0.364S700
G1 X0.46S0
G1 X0.321S700
G1 X0.437S0
G1 X0.335S700
G1 X0.441S0
G1 X0.264S700
G1 X0.459S0
G1 X0.336S700
G1 X0.486S0
G1 X0.368S700
G1 X0.361S0
G1 X0.479S700
G1 X0.472S0
G1 X0.335S700
G1 X1.336S0
G1 X0.263S700
G1 X0.555S0
G1 X0.368S700
G1 X0.361S0
G1 X0.479S700
G1 X0.41S0
G1 X0.264S700
G1 X1.653S0
G1 X0.284S700
G1 X0.468S0
G1 X0.263S700
G1 X0.742S0
G1 X0.261S700
G1 X0.465S0
G1 X0.262S700
G1 X0.565S0
G1 X0.37S700
G1 X0.413S0
G1 X0.362S700
G1 X0.464S0
G1 X0.263S700
G1 X0.739S0
G1 X0.263S700
G1 X0.661S0
G1 X0.263S700
G1 X0.662S0
G1 X0.258S700
G1 X0.335S0
G1 X0.337S700
G1 X0.49S0
G1 X0.504S700
G1 X0.453S0
G1 X0.335S700
G1 X0.44S0
G1 X0.264S700
G1 X0.403S0
G1 X0.264S700
G1 X0.546S0
G1 X0.32S700
G1 X1.667S0
G1 X-0.034Y0.05S0
G1 X-1.666S0
G1 X-0.319S700
G1 X-0.514S0
G1 X-0.264S700
G1 X-0.403S0
G1 X-0.264S700
G1 X-0.499S0
G1 X-0.286S700
G1 X-0.452S0
G1 X-0.427S700
G1 X-0.603S0
G1 X-0.302S700
G1 X-0.325S0
G1 X-0.257S700
G1 X-0.663S0
G1 X-0.263S700
G1 X-0.661S0
G1 X-0.263S700
G1 X-0.739S0
G1 X-0.263S700
G1 X-0.433S0
G1 X-0.33S700
G1 X-0.54S0
G1 X-0.341S700
G1 X-0.53S0
G1 X-0.262S700
G1 X-0.465S0
G1 X-0.26S700
G1 X-0.743S0
G1 X-0.263S700
G1 X-0.468S0
G1 X-0.284S700
G1 X-1.653S0
G1 X-0.264S700
G1 X-0.41S0
G1 X-0.414S700
G1 X-0.491S0
G1 X-0.328S700
G1 X-0.53S0
G1 X-0.263S700
G1 X-1.395S0
G1 X-0.285S700
G1 X-0.463S0
G1 X-0.413S700
G1 X-0.492S0
G1 X-0.328S700
G1 X-0.521S0
G1 X-0.285S700
G1 X-0.45S0
G1 X-0.264S700
G1 X-0.5S0
G1 X-0.285S700
G1 X-0.404S0
G1 X-0.288S700
G1 X-0.586S0
G1 X-0.326S700
G1 X-0.348S0
G1 X-0.26S700
G1 X-0.743S0
G1 X-0.263S700
G1 X-0.468S0
G1 X-0.284S700
G1 X-1.666S0
G1 Y0.05S0
G1 X1.666S0
G1 X0.284S700
G1 X0.468S0
G1 X0.263S700
G1 X0.744S0
G1 X0.26S700
G1 X0.328S0
G1 X0.298S700
G1 X0.664S0
G1 X0.273S700
G1 X0.387S0
G1 X0.268S700
G1 X0.518S0
G1 X0.264S700
G1 X0.45S0
G1 X0.267S700
G1 X0.532S0
G1 X0.299S700
G1 X0.584S0
G1 X0.357S700
G1 X0.462S0
G1 X0.268S700
G1 X1.413S0
G1 X0.263S700
G1 X0.522S0
G1 X0.3S700
G1 X0.583S0
G1 X0.358S700
G1 X0.41S0
G1 X0.264S700
G1 X1.653S0
G1 X0.284S700
G1 X0.468S0
G1 X0.263S700
G1 X0.744S0
G1 X0.259S700
G1 X0.465S0
G1 X0.262S700
G1 X0.5S0
G1 X0.316S700
G1 X0.629S0
G1 X0.327S700
G1 X0.402S0
G1 X0.263S700
G1 X0.739S0
G1 X0.263S700
G1 X0.661S0
G1 X0.263S700
G1 X0.664S0
G1 X0.256S700
G1 X0.315S0
G1 X0.286S700
G1 X0.682S0
G1 X0.372S700
G1 X0.454S0
G1 X0.268S700
G1 X0.517S0
G1 X0.264S700
G1 X0.403S0
G1 X0.264S700
G1 X0.481S0
G1 X0.318S700
G1 X1.667S0
G1 X-0.034Y0.05S0
G1 X-1.666S0
G1 X-0.317S700
G1 X-0.449S0
G1 X-0.264S700
G1 X-0.403S0
G1 X-0.264S700
G1 X-0.523S0
G1 X-0.262S700
G1 X-0.455S0
G1 X-0.341S700
G1 X-0.728S0
G1 X-0.28S700
G1 X-0.305S0
G1 X-0.255S700
G1 X-0.665S0
G1 X-0.263S700
G1 X-0.661S0
G1 X-0.263S700
G1 X-0.739S0
G1 X-0.263S700
G1 X-0.371S0
G1 X-0.325S700
G1 X-0.697S0
G1 X-0.302S700
G1 X-0.479S0
G1 X-0.262S700
G1 X-0.464S0
G1 X-0.259S700
G1 X-0.745S0
G1 X-0.263S700
G1 X-0.468S0
G1 X-0.284S700
G1 X-1.653S0
G1 X-0.264S700
G1 X-0.41S0
G1 X-0.327S700
G1 X-0.638S0
G1 X-0.283S700
G1 X-0.515S0
G1 X-0.263S700
G1 X-1.419S0
G1 X-0.262S700
G1 X-0.462S0
G1 X-0.327S700
G1 X-0.638S0
G1 X-0.283S700
G1 X-0.529S0
G1 X-0.263S700
G1 X-0.449S0
G1 X-0.264S700
G1 X-0.524S0
G1 X-0.262S700
G1 X-0.374S0
G1 X-0.27S700
G1 X-0.716S0
G1 X-0.275S700
G1 X-0.315S0
G1 X-0.259S700
G1 X-0.745S0
G1 X-0.263S700
G1 X-0.468S0
G1 X-0.284S700
G1 X-1.666S0
G1 Y0.05S0
G1 X1.666S0
G1 X0.284S700
G1 X0.468S0
G1 X0.263S700
G1 X0.746S0
G1 X0.259S700
G1 X0.301S0
G1 X0.269S700
G1 X0.743S0
G1 X0.266S700
G1 X0.369S0
G1 X0.262S700
G1 X0.525S0
G1 X0.264S700
G1 X0.449S0
G1 X0.262S700
G1 X0.522S0
G1 X0.274S700
G1 X0.68S0
G1 X0.302S700
G1 X0.462S0
G1 X0.262S700
G1 X1.419S0
G1 X0.263S700
G1 X0.507S0
G1 X0.274S700
G1 X0.68S0
G1 X0.302S700
G1 X0.41S0
G1 X0.264S700
G1 X1.653S0
G1 X0.284S700
G1 X0.468S0
G1 X0.263S700
G1 X0.746S0
G1 X0.258S700
G1 X0.464S0
G1 X0.262S700
G1 X0.457S0
G1 X0.289S700
G1 X0.765S0
G1 X0.31S700
G1 X0.353S0
G1 X0.263S700
G1 X0.739S0
G1 X0.263S700
G1 X0.661S0
G1 X0.263S700
G1 X0.666S0
G1 X0.254S700
G1 X0.307S0
G1 X0.28S700
G1 X0.753S0
G1 X0.313S700
G1 X0.455S0
G1 X0.263S700
G1 X0.523S0
G1 X0.264S700
G1 X0.403S0
G1 X0.264S700
G1 X0.417S0
G1 X0.315S700
G1 X1.667S0
G1 X-0.034Y0.05S0
G1 X-1.666S0
G1 X-0.315S700
G1 X-0.384S0
G1 X-0.264S700
G1 X-0.403S0
G1 X-0.264S700
G1 X-0.523S0
G1 X-0.263S700
G1 X-0.456S0
G1 X-0.294S700
G1 X-0.761S0
G1 X-0.28S700
G1 X-0.317S0
G1 X-0.253S700
G1 X-0.667S0
G1 X-0.263S700
G1 X-0.661S0
G1 X-0.263S700
G1 X-0.739S0
G1 X-0.263S700
G1 X-0.344S0
G1 X-0.287S700
G1 X-0.82S0
G1 X-0.279S700
G1 X-0.444S0
G1 X-0.262S700
G1 X-0.463S0
G1 X-0.258S700
G1 X-0.747S0
G1 X-0.263S700
G1 X-0.468S0
G1 X-0.284S700
G1 X-1.653S0
G1 X-0.264S700
G1 X-0.41S0
G1 X-0.284S700
G1 X-0.71S0
G1 X-0.264S700
G1 X-0.505S0
G1 X-0.263S700
G1 X-1.419S0
G1 X-0.263S700
G1 X-0.461S0
G1 X-0.283S700
G1 X-0.71S0
G1 X-0.265S700
G1 X-0.52S0
G1 X-0.262S700
G1 X-0.449S0
G1 X-0.264S700
G1 X-0.525S0
G1 X-0.262S700
G1 X-0.366S0
G1 X-0.282S700
G1 X-0.741S0
G1 X-0.119S700
G1 X-0.44S0
G1 X-0.258S700
G1 X-0.747S0
G1 X-0.263S700
G1 X-0.468S0
G1 X-0.284S700
G1 X-1.666S0
G1 Y0.05S0
G1 X1.666S0
G1 X0.284S700
G1 X0.468S0
G1 X0.263S700
G1 X0.748S0
G1 X0.257S700
G1 X1.269S0
G1 X0.307S700
G1 X0.372S0
G1 X0.262S700
G1 X0.525S0
G1 X0.264S700
G1 X0.449S0
G1 X0.262S700
G1 X0.519S0
G1 X0.262S700
G1 X0.727S0
G1 X0.27S700
G1 X0.461S0
G1 X0.263S700
G1 X1.419S0
G1 X0.263S700
G1 X0.504S0
G1 X0.262S700
G1 X0.726S0
G1 X0.271S700
G1 X0.41S0
G1 X0.264S700
G1 X1.653S0
G1 X0.284S700
G1 X0.468S0
G1 X0.263S700
G1 X0.747S0
G1 X0.258S700
G1 X0.463S0
G1 X0.262S700
G1 X0.434S0
G1 X0.273S700
G1 X0.849S0
G1 X0.283S700
G1 X0.335S0
G1 X0.263S700
G1 X0.739S0
G1 X0.263S700
G1 X0.661S0
G1 X0.263S700
G1 X0.667S0
G1 X0.253S700
G1 X0.327S0
G1 X0.291S700
G1 X0.757S0
G1 X0.277S700
G1 X0.456S0
G1 X0.263S700
G1 X0.523S0
G1 X0.264S700
G1 X0.403S0
G1 X0.264S700
G1 X0.352S0
G1 X0.313S700
G1 X1.667S0
G1 X-0.033Y0.05S0
G1 X-1.667S0
G1 X-0.312S700
G1 X-0.32S0
G1 X-0.264S700
G1 X-0.403S0
G1 X-0.264S700
G1 X-0.523S0
G1 X-0.263S700
G1 X-0.456S0
G1 X-0.27S700
G1 X-0.713S0
G1 X-0.328S700
G1 X-0.341S0
G1 X-0.253S700
G1 X-0.667S0
G1 X-0.263S700
G1 X-0.661S0
G1 X-0.263S700
G1 X-0.739S0
G1 X-0.263S700
G1 X-0.325S0
G1 X-0.281S700
G1 X-0.877S0
G1 X-0.267S700
G1 X-0.424S0
G1 X-0.262S700
G1 X-0.463S0
G1 X-0.259S700
G1 X-0.746S0
G1 X-0.263S700
G1 X-0.468S0
G1 X-0.284S700
G1 X-1.653S0
G1 X-0.264S700
G1 X-0.41S0
G1 X-0.263S700
G1 X-0.734S0
G1 X-0.263S700
G1 X-0.503S0
G1 X-0.263S700
G1 X-1.419S0
G1 X-0.263S700
G1 X-0.461S0
G1 X-0.263S700
G1 X-0.734S0
G1 X-0.263S700
G1 X-0.518S0
G1 X-0.262S700
G1 X-0.449S0
G1 X-0.264S700
G1 X-0.525S0
G1 X-0.262S700
G1 X-0.381S0
G1 X-0.357S700
G1 X-1.21S0
G1 X-0.259S700
G1 X-0.746S0
G1 X-0.263S700
G1 X-0.468S0
G1 X-0.284S700
G1 X-1.666S0
G1 Y0.05S0
G1 X1.666S0
G1 X0.284S700
G1 X0.468S0
G1 X0.263S700
G1 X0.745S0
G1 X0.259S700
G1 X1.051S0
G1 X0.488S700
G1 X0.41S0
G1 X0.262S700
G1 X0.525S0
G1 X0.264S700
G1 X0.449S0
G1 X0.262S700
G1 X0.517S0
G1 X0.264S700
G1 X0.738S0
G1 X0.259S700
G1 X0.461S0
G1 X0.263S700
G1 X1.419S0
G1 X0.263S700
G1 X0.502S0
G1 X0.264S700
G1 X0.738S0
G1 X0.259S700
G1 X0.41S0
G1 X0.264S700
G1 X1.653S0
G1 X0.284S700
G1 X0.468S0
G1 X0.263S700
G1 X0.744S0
G1 X0.26S700
G1 X0.464S0
G1 X0.262S700
G1 X0.419S0
G1 X0.264S700
G1 X0.897S0
G1 X0.278S700
G1 X0.316S0
G1 X0.263S700
G1 X0.739S0
G1 X0.263S700
G1 X0.661S0
G1 X0.263S700
G1 X0.666S0
G1 X0.254S700
G1 X0.375S0
G1 X0.372S700
G1 X0.642S0
G1 X0.263S700
G1 X0.456S0
G1 X0.263S700
G1 X0.523S0
G1 X0.264S700
G1 X0.403S0
G1 X0.285S700
G1 X0.266S0
G1 X0.311S700
G1 X1.667S0
G1 X-0.033Y0.05S0
G1 X-1.667S0
