; LightBurn 1.2.01
; GRBL device profile, current position
; Bounds: X-1.67 Y0 to X2.26 Y2.86
G00 G17 G40 G21 G54
G91
M4
; Cut @ 5000 mm/min, 0% power
M8
G0 X0Y0
; Layer Lim
G1 X1S0F5000
; Scan @ 4000 mm/min, 70% power
M8
G0 X-2.643Y0.006
; Layer C02
G1 X1.667F4000S0
G1 X0.548S700
G1 X1.667S0
G1 Y0.05S0
G1 X-1.667S0
G1 X-0.548S700
G1 X-1.667S0
G1 Y0.05S0
G1 X1.667S0
G1 X0.548S700
G1 X1.667S0
G1 Y0.05S0
G1 X-1.667S0
G1 X-0.548S700
G1 X-1.667S0
G1 Y0.05S0
G1 X1.667S0
G1 X0.548S700
G1 X1.667S0
G1 Y0.05S0
G1 X-1.667S0
G1 X-0.548S700
G1 X-1.667S0
G1 Y0.05S0
G1 X1.667S0
G1 X0.548S700
G1 X1.667S0
G1 Y0.05S0
G1 X-1.667S0
G1 X-0.548S700
G1 X-1.667S0
G1 Y0.05S0
G1 X1.667S0
G1 X0.548S700
G1 X1.667S0
G1 Y0.05S0
G1 X-1.667S0
G1 X-0.548S700
G1 X-1.667S0
G1 Y0.05S0
G1 X1.667S0
G1 X0.548S700
G1 X1.667S0
G1 X-0.118Y0.25S0
G1 X-1.666S0
G1 X-0.314S700
G1 X-1.667S0
G1 Y0.05S0
G1 X1.662S0
G1 X0.323S700
G1 X1.667S0
G1 Y0.05S0
G1 X-1.662S0
G1 X-0.333S700
G1 X-1.667S0
G1 Y0.05S0
G1 X1.662S0
G1 X0.343S700
G1 X1.667S0
G1 Y0.05S0
G1 X-1.662S0
G1 X-0.353S700
G1 X-1.667S0
G1 Y0.05S0
G1 X1.662S0
G1 X0.363S700
G1 X1.666S0
G1 X0.005Y0.05S0
G1 X-1.666S0
G1 X-0.373S700
G1 X-1.667S0
G1 Y0.05S0
G1 X1.662S0
G1 X0.382S700
G1 X1.667S0
G1 Y0.05S0
G1 X-1.662S0
G1 X-0.392S700
G1 X-1.666S0
G1 X-0.005Y0.05S0
G1 X1.666S0
G1 X0.402S700
G1 X1.667S0
G1 Y0.05S0
G1 X-1.662S0
G1 X-0.411S700
G1 X-1.667S0
G1 X-0.005Y0.05S0
G1 X1.667S0
G1 X0.421S700
G1 X1.666S0
G1 X0.005Y0.05S0
G1 X-1.666S0
G1 X-0.431S700
G1 X-1.667S0
G1 Y0.05S0
G1 X1.662S0
G1 X0.44S700
G1 X1.667S0
G1 Y0.05S0
G1 X-1.662S0
G1 X-0.45S700
G1 X-1.667S0
G1 Y0.05S0
G1 X1.662S0
G1 X0.46S700
G1 X1.667S0
G1 Y0.05S0
G1 X-1.662S0
G1 X-0.47S700
G1 X-1.667S0
G1 Y0.05S0
G1 X1.662S0
G1 X0.48S700
G1 X1.666S0
G1 X0.005Y0.05S0
G1 X-1.666S0
G1 X-0.49S700
G1 X-1.666S0
G1 X-0.005Y0.05S0
G1 X1.666S0
G1 X0.499S700
G1 X1.667S0
G1 Y0.05S0
G1 X-1.662S0
G1 X-0.508S700
G1 X-1.667S0
G1 X-0.005Y0.05S0
G1 X1.667S0
G1 X0.518S700
G1 X1.667S0
G1 Y0.05S0
G1 X-1.662S0
G1 X-0.528S700
G1 X-1.667S0
G1 Y0.05S0
G1 X1.662S0
G1 X0.538S700
G1 X1.666S0
G1 X0.005Y0.05S0
G1 X-1.666S0
G1 X-0.548S700
G1 X-1.667S0
G1 Y0.05S0
G1 X1.662S0
G1 X0.557S700
G1 X1.667S0
G1 Y0.05S0
G1 X-1.662S0
G1 X-0.567S700
G1 X-1.667S0
G1 Y0.05S0
G1 X1.662S0
G1 X0.577S700
G1 X1.667S0
G1 Y0.05S0
G1 X-1.662S0
G1 X-0.587S700
G1 X-1.666S0
G1 Y0.05S0
G1 X1.663S0
G1 X0.593S700
G1 X1.667S0
G1 Y0.05S0
G1 X-1.667S0
G1 X-0.593S700
G1 X-1.667S0
G1 Y0.05S0
G1 X1.667S0
G1 X0.593S700
G1 X1.667S0
G1 Y0.05S0
G1 X-1.667S0
G1 X-0.593S700
G1 X-1.667S0
G1 Y0.05S0
G1 X1.667S0
G1 X0.593S700
G1 X1.667S0
G1 Y0.05S0
G1 X-1.667S0
G1 X-0.593S700
G1 X-1.667S0
G1 Y0.05S0
G1 X1.667S0
G1 X0.593S700
G1 X1.667S0
G1 Y0.05S0
G1 X-1.667S0
G1 X-0.593S700
G1 X-1.667S0
G1 Y0.05S0
G1 X1.667S0
G1 X0.593S700
G1 X1.667S0
G1 Y0.05S0
G1 X-1.667S0
G1 X-0.593S700
G1 X-1.667S0
G1 Y0.05S0
G1 X1.667S0
G1 X0.593S700
G1 X1.667S0
G1 Y0.05S0
G1 X-1.667S0
G1 X-0.593S700
G1 X-1.667S0
G1 Y0.05S0
G1 X1.667S0
G1 X0.593S700
G1 X1.667S0
G1 Y0.05S0
G1 X-1.667S0
G1 X-0.593S700
G1 X-1.667S0
M9
G1 S0
M5
; return to starting pos
G0 X1.667Y-2.856
M2
