; LightBurn 1.2.01
; GRBL device profile, current position
; Bounds: X-1.67 Y0 to X3.81 Y2.95
G00 G17 G40 G21 G54
G91
M4
; Cut @ 5000 mm/min, 0% power
M8
G0 X0Y0.049
; Layer Lim
G1 X1S0F5000
; Scan @ 4000 mm/min, 70% power
M8
G0 X-2.554Y-0.045
; Layer C02
G1 X1.666F4000S0
G1 X0.442S700
G1 X0.437S0
G1 X0.435S700
G1 X1.667S0
G1 X0.01Y0.05S0
G1 X-1.667S0
G1 X-0.435S700
G1 X-0.437S0
G1 X-0.442S700
G1 X-1.666S0
G1 X0.01Y0.05S0
G1 X1.666S0
G1 X0.442S700
G1 X0.436S0
G1 X0.436S700
G1 X1.667S0
G1 X0.01Y0.05S0
G1 X-1.667S0
G1 X-0.436S700
G1 X-0.436S0
G1 X-0.441S700
G1 X-1.667S0
G1 X0.01Y0.05S0
G1 X1.667S0
G1 X0.441S700
G1 X0.436S0
G1 X0.436S700
G1 X1.667S0
G1 X0.01Y0.05S0
G1 X-1.666S0
G1 X-0.437S700
G1 X-0.436S0
G1 X-0.441S700
G1 X-1.667S0
G1 X0.01Y0.05S0
G1 X1.667S0
G1 X0.441S700
G1 X0.436S0
G1 X0.437S700
G1 X1.666S0
G1 X0.01Y0.05S0
G1 X-1.666S0
G1 X-0.437S700
G1 X-0.435S0
G1 X-0.442S700
G1 X-1.667S0
G1 X0.01Y0.05S0
G1 X1.667S0
G1 X0.442S700
G1 X0.435S0
G1 X0.437S700
G1 X1.666S0
G1 X0.011Y0.05S0
G1 X-1.667S0
G1 X-0.438S700
G1 X-0.434S0
G1 X-0.442S700
G1 X-1.666S0
G1 X0.01Y0.05S0
G1 X1.666S0
G1 X0.442S700
G1 X0.434S0
G1 X0.438S700
G1 X1.667S0
G1 X0.01Y0.05S0
G1 X-1.667S0
G1 X-0.438S700
G1 X-0.434S0
G1 X-0.442S700
G1 X-1.666S0
G1 X0.01Y0.05S0
G1 X1.667S0
G1 X0.441S700
G1 X0.434S0
G1 X0.438S700
G1 X1.667S0
G1 X0.01Y0.05S0
G1 X-1.667S0
G1 X-0.438S700
G1 X-0.434S0
G1 X-0.441S700
G1 X-1.667S0
G1 X0.01Y0.05S0
G1 X1.667S0
G1 X0.441S700
G1 X0.434S0
G1 X0.438S700
G1 X1.667S0
G1 X0.01Y0.05S0
G1 X-1.667S0
G1 X-0.439S700
G1 X-0.432S0
G1 X-0.442S700
G1 X-1.667S0
G1 X-0.264Y0.05S0
G1 X1.667S0
G1 X2.141S700
G1 X1.667S0
G1 Y0.05S0
G1 X-1.667S0
G1 X-2.141S700
G1 X-1.667S0
G1 Y0.05S0
G1 X1.667S0
G1 X2.141S700
G1 X1.667S0
G1 Y0.05S0
G1 X-1.667S0
G1 X-2.141S700
G1 X-1.667S0
G1 Y0.05S0
G1 X1.667S0
G1 X2.141S700
G1 X1.667S0
G1 Y0.05S0
G1 X-1.667S0
G1 X-2.141S700
G1 X-1.667S0
G1 Y0.05S0
G1 X1.667S0
G1 X2.141S700
G1 X1.667S0
G1 Y0.05S0
G1 X-1.667S0
G1 X-2.141S700
G1 X-1.667S0
G1 X0.355Y0.05S0
G1 X1.666S0
G1 X0.441S700
G1 X0.434S0
G1 X0.441S700
G1 X1.666S0
G1 X0.011Y0.05S0
G1 X-1.667S0
G1 X-0.441S700
G1 X-0.434S0
G1 X-0.44S700
G1 X-1.667S0
G1 X0.01Y0.05S0
G1 X1.667S0
G1 X0.44S700
G1 X0.433S0
G1 X0.442S700
G1 X1.667S0
G1 X0.01Y0.05S0
G1 X-1.667S0
G1 X-0.442S700
G1 X-0.433S0
G1 X-0.44S700
G1 X-1.667S0
G1 X0.01Y0.05S0
G1 X1.667S0
G1 X0.44S700
G1 X0.433S0
G1 X0.443S700
G1 X1.666S0
G1 X0.01Y0.05S0
G1 X-1.666S0
G1 X-0.443S700
G1 X-0.433S0
G1 X-0.44S700
G1 X-1.667S0
G1 X0.011Y0.05S0
G1 X1.666S0
G1 X0.44S700
G1 X0.433S0
G1 X0.443S700
G1 X1.667S0
G1 X0.01Y0.05S0
G1 X-1.667S0
G1 X-0.444S700
G1 X-0.432S0
G1 X-0.44S700
G1 X-1.666S0
G1 X0.01Y0.05S0
G1 X1.667S0
G1 X0.439S700
G1 X0.432S0
G1 X0.444S700
G1 X1.667S0
G1 X0.01Y0.05S0
G1 X-1.666S0
G1 X-0.445S700
G1 X-0.432S0
G1 X-0.439S700
G1 X-1.667S0
G1 X0.01Y0.05S0
G1 X1.667S0
G1 X0.439S700
G1 X0.432S0
G1 X0.445S700
G1 X1.666S0
G1 X0.011Y0.05S0
G1 X-1.667S0
G1 X-0.445S700
G1 X-0.432S0
G1 X-0.439S700
G1 X-1.667S0
G1 X-0.466Y0.05S0
G1 X1.667S0
G1 X2.141S700
G1 X1.667S0
G1 Y0.05S0
G1 X-1.667S0
G1 X-2.141S700
G1 X-1.667S0
G1 Y0.05S0
G1 X1.667S0
G1 X2.141S700
G1 X1.667S0
G1 Y0.05S0
G1 X-1.667S0
G1 X-2.141S700
G1 X-1.667S0
G1 Y0.05S0
G1 X1.667S0
G1 X2.141S700
G1 X1.667S0
G1 Y0.05S0
G1 X-1.667S0
G1 X-2.141S700
G1 X-1.667S0
G1 Y0.05S0
G1 X1.667S0
G1 X2.141S700
G1 X1.667S0
G1 Y0.05S0
G1 X-1.667S0
G1 X-2.141S700
G1 X-1.667S0
G1 X0.558Y0.05S0
G1 X1.667S0
G1 X0.437S700
G1 X0.432S0
G1 X0.446S700
G1 X1.667S0
G1 X0.01Y0.05S0
G1 X-1.667S0
G1 X-0.447S700
G1 X-0.431S0
G1 X-0.437S700
G1 X-1.667S0
G1 X0.01Y0.05S0
G1 X1.667S0
G1 X0.437S700
G1 X0.431S0
G1 X0.448S700
G1 X1.666S0
G1 X0.011Y0.05S0
G1 X-1.667S0
G1 X-0.448S700
G1 X-0.431S0
G1 X-0.437S700
G1 X-1.666S0
G1 X0.01Y0.05S0
G1 X1.666S0
G1 X0.437S700
G1 X0.431S0
G1 X0.448S700
G1 X1.667S0
G1 X0.01Y0.05S0
G1 X-1.667S0
G1 X-0.448S700
G1 X-0.43S0
G1 X-0.437S700
G1 X-1.667S0
G1 X0.01Y0.05S0
G1 X1.667S0
G1 X0.437S700
G1 X0.43S0
G1 X0.449S700
G1 X1.666S0
G1 X0.011Y0.05S0
G1 X-1.667S0
G1 X-0.45S700
G1 X-0.429S0
G1 X-0.437S700
G1 X-1.667S0
G1 X0.01Y0.05S0
G1 X1.667S0
G1 X0.437S700
G1 X0.429S0
G1 X0.45S700
G1 X1.667S0
G1 X0.01Y0.05S0
G1 X-1.666S0
G1 X-0.451S700
G1 X-0.429S0
G1 X-0.437S700
G1 X-1.667S0
G1 X0.011Y0.05S0
G1 X1.666S0
G1 X0.437S700
G1 X0.429S0
G1 X0.451S700
G1 X1.666S0
G1 X0.011Y0.05S0
G1 X-1.667S0
G1 X-0.451S700
G1 X-0.429S0
G1 X-0.437S700
G1 X-1.666S0
G1 X0.01Y0.05S0
G1 X1.666S0
G1 X0.438S700
G1 X0.428S0
G1 X0.451S700
G1 X1.667S0
G1 X0.01Y0.05S0
G1 X-1.666S0
G1 X-0.452S700
G1 X-0.428S0
G1 X-0.437S700
G1 X-1.667S0
G1 X0.01Y0.05S0
G1 X1.667S0
G1 X0.437S700
G1 X0.427S0
G1 X0.453S700
G1 X1.667S0
G1 X0.01Y0.05S0
G1 X-1.667S0
G1 X-0.453S700
G1 X-0.427S0
G1 X-0.437S700
G1 X-1.667S0
M9
G1 S0
M5
; return to starting pos
G0 X0.957Y-2.954
M2
