; LightBurn 1.2.01
; GRBL device profile, current position
; Bounds: X-1.66 Y0.02 to X3.57 Y3.47
G00 G17 G40 G21 G54
G91
M4
; Cut @ 5000 mm/min, 0% power
M8
G0 X0Y0.401
; Layer Lim
G1 X1S0F5000
; Scan @ 4000 mm/min, 70% power
M8
G0 X-1.849Y-0.38
; Layer C02
G1 X1.667F4000S0
G1 X0.283S700
G1 X1.666S0
G1 Y0.05S0
G1 X-1.666S0
G1 X-0.283S700
G1 X-1.667S0
G1 Y0.05S0
G1 X1.667S0
G1 X0.283S700
G1 X1.666S0
G1 Y0.05S0
G1 X-1.666S0
G1 X-0.283S700
G1 X-1.667S0
G1 Y0.05S0
G1 X1.667S0
G1 X0.283S700
G1 X1.666S0
G1 Y0.05S0
G1 X-1.666S0
G1 X-0.283S700
G1 X-1.667S0
G1 Y0.05S0
G1 X1.667S0
G1 X0.283S700
G1 X1.666S0
G1 X0.025Y0.05S0
G1 X-1.666S0
G1 X-0.388S700
G1 X-1.667S0
G1 X-0.156Y0.05S0
G1 X1.667S0
G1 X0.759S700
G1 X1.667S0
G1 X0.095Y0.05S0
G1 X-1.667S0
G1 X-0.963S700
G1 X-1.667S0
G1 X-0.09Y0.05S0
G1 X1.666S0
G1 X1.15S700
G1 X1.667S0
G1 X0.056Y0.05S0
G1 X-1.666S0
G1 X-1.262S700
G1 X-1.666S0
G1 X-0.055Y0.05S0
G1 X1.667S0
G1 X1.37S700
G1 X1.667S0
G1 X0.054Y0.05S0
G1 X-1.667S0
G1 X-1.479S700
G1 X-1.667S0
G1 X-0.038Y0.05S0
G1 X1.666S0
G1 X1.554S700
G1 X1.667S0
G1 X0.031Y0.05S0
G1 X-1.666S0
G1 X-1.615S700
G1 X-1.666S0
G1 X-0.029Y0.05S0
G1 X1.666S0
G1 X0.98S700
G1 X0.085S0
G1 X0.61S700
G1 X1.667S0
G1 X0.031Y0.05S0
G1 X-1.667S0
G1 X-0.555S700
G1 X-0.171S0
G1 X-0.283S700
G1 X-0.071S0
G1 X-0.654S700
G1 X-1.667S0
G1 X-0.029Y0.05S0
G1 X1.667S0
G1 X0.624S700
G1 X0.13S0
G1 X0.283S700
G1 X0.228S0
G1 X0.517S700
G1 X1.667S0
G1 X0.015Y0.05S0
G1 X-1.667S0
G1 X-0.495S700
G1 X-0.265S0
G1 X-0.283S700
G1 X-0.176S0
G1 X-0.592S700
G1 X-1.666S0
G1 X-0.011Y0.05S0
G1 X1.666S0
G1 X0.568S700
G1 X0.211S0
G1 X0.283S700
G1 X0.289S0
G1 X0.486S700
G1 X1.667S0
G1 X0.015Y0.05S0
G1 X-1.667S0
G1 X-0.483S700
G1 X-0.307S0
G1 X-0.283S700
G1 X-0.24S0
G1 X-0.549S700
G1 X-1.667S0
G1 X-0.011Y0.05S0
G1 X1.667S0
G1 X0.533S700
G1 X0.267S0
G1 X0.283S700
G1 X0.324S0
G1 X0.478S700
G1 X1.666S0
G1 Y0.05S0
G1 X-1.665S0
G1 X-0.479S700
G1 X-0.324S0
G1 X-0.283S700
G1 X-0.283S0
G1 X-0.528S700
G1 X-1.667S0
G1 X0.165Y0.05S0
G1 X1.667S0
G1 X0.348S700
G1 X0.298S0
G1 X0.283S700
G1 X0.322S0
G1 X0.482S700
G1 X1.667S0
G1 Y0.05S0
G1 X-1.666S0
G1 X-0.487S700
G1 X-0.318S0
G1 X-0.283S700
G1 X-1.667S0
G1 Y0.05S0
G1 X1.667S0
G1 X0.283S700
G1 X0.295S0
G1 X0.512S700
G1 X1.666S0
G1 X-0.006Y0.05S0
G1 X-1.667S0
G1 X-0.529S700
G1 X-0.271S0
G1 X-0.283S700
G1 X-1.667S0
G1 Y0.05S0
G1 X1.667S0
G1 X0.283S700
G1 X0.233S0
G1 X0.555S700
G1 X1.667S0
G1 X-0.012Y0.05S0
G1 X-1.667S0
G1 X-0.598S700
G1 X-0.178S0
G1 X-0.283S700
G1 X-1.667S0
G1 Y0.05S0
G1 X1.667S0
G1 X0.283S700
G1 X0.09S0
G1 X0.674S700
G1 X1.666S0
G1 X-0.013Y0.05S0
G1 X-1.666S0
G1 X-1.034S700
G1 X-1.667S0
G1 Y0.05S0
G1 X1.667S0
G1 X1.006S700
G1 X1.667S0
G1 X-0.028Y0.05S0
G1 X-1.667S0
G1 X-1.062S700
G1 X-1.667S0
G1 X-0.129Y0.05S0
G1 X1.667S0
G1 X1.164S700
G1 X1.666S0
G1 X-0.027Y0.05S0
G1 X-1.667S0
G1 X-1.236S700
G1 X-1.667S0
G1 X-0.085Y0.05S0
G1 X1.666S0
G1 X1.265S700
G1 X1.666S0
G1 X-0.06Y0.05S0
G1 X-1.667S0
G1 X-1.259S700
G1 X-1.666S0
G1 X-0.055Y0.05S0
G1 X1.666S0
G1 X1.241S700
G1 X1.667S0
G1 X-0.082Y0.05S0
G1 X-1.667S0
G1 X-1.206S700
G1 X-1.666S0
G1 X-0.032Y0.05S0
G1 X1.667S0
G1 X1.131S700
G1 X1.667S0
G1 X-0.137Y0.05S0
G1 X-1.666S0
G1 X-1.027S700
G1 X-1.667S0
G1 X-0.031Y0.05S0
G1 X1.666S0
G1 X0.934S700
G1 X1.666S0
G1 Y0.05S0
G1 X-1.666S0
G1 X-0.956S700
G1 X-1.666S0
G1 X-0.015Y0.05S0
G1 X1.666S0
G1 X0.647S700
G1 X0.041S0
G1 X0.283S700
G1 X1.666S0
G1 Y0.05S0
G1 X-1.666S0
G1 X-0.283S700
G1 X-0.121S0
G1 X-0.582S700
G1 X-1.666S0
G1 X-0.015Y0.05S0
G1 X1.666S0
G1 X0.548S700
G1 X0.17S0
G1 X0.283S700
G1 X1.666S0
G1 Y0.05S0
G1 X-1.666S0
G1 X-0.283S700
G1 X-0.204S0
G1 X-0.526S700
G1 X-1.667S0
G1 X-0.005Y0.05S0
G1 X1.666S0
G1 X0.507S700
G1 X0.229S0
G1 X0.283S700
G1 X1.666S0
G1 Y0.05S0
G1 X-1.666S0
G1 X-0.283S700
G1 X-0.242S0
G1 X-0.499S700
G1 X-1.667S0
G1 Y0.05S0
G1 X1.664S0
G1 X0.495S700
G1 X0.249S0
G1 X0.283S700
G1 X1.666S0
G1 X0.356Y0.05S0
G1 X-1.667S0
G1 X-0.126S700
G1 X-0.229S0
G1 X-0.283S700
G1 X-0.247S0
G1 X-0.493S700
G1 X-1.667S0
G1 Y0.05S0
G1 X1.671S0
G1 X0.498S700
G1 X0.238S0
G1 X0.283S700
G1 X0.216S0
G1 X0.511S700
G1 X1.667S0
G1 X-0.014Y0.05S0
G1 X-1.667S0
G1 X-0.515S700
G1 X-0.198S0
G1 X-0.283S700
G1 X-0.221S0
G1 X-0.508S700
G1 X-1.667S0
G1 X0.015Y0.05S0
G1 X1.666S0
G1 X0.521S700
G1 X0.194S0
G1 X0.283S700
G1 X0.169S0
G1 X0.531S700
G1 X1.666S0
G1 X-0.014Y0.05S0
G1 X-1.666S0
G1 X-0.557S700
G1 X-0.129S0
G1 X-0.283S700
G1 X-0.153S0
G1 X-0.548S700
G1 X-1.666S0
G1 X0.019Y0.05S0
G1 X1.667S0
G1 X0.578S700
G1 X0.103S0
G1 X0.283S700
G1 X0.076S0
G1 X0.596S700
G1 X1.667S0
G1 X-0.024Y0.05S0
G1 X-1.667S0
G1 X-0.931S700
G1 X-0.656
G1 X-1.667S0
G1 X0.025Y0.05S0
G1 X1.667S0
G1 X1.53S700
G1 X1.667S0
G1 X-0.033Y0.05S0
G1 X-1.667S0
G1 X-1.461S700
G1 X-1.667S0
G1 X0.038Y0.05S0
G1 X1.667S0
G1 X1.391S700
G1 X1.667S0
G1 X-0.052Y0.05S0
G1 X-1.666S0
G1 X-1.293S700
G1 X-1.667S0
G1 X0.056Y0.05S0
G1 X1.667S0
G1 X1.176S700
G1 X1.667S0
G1 X-0.06Y0.05S0
G1 X-1.667S0
G1 X-1.045S700
G1 X-1.667S0
G1 X0.086Y0.05S0
G1 X1.667S0
G1 X0.852S700
G1 X1.667S0
G1 X-0.124Y0.05S0
G1 X-1.666S0
G1 X-0.591S700
G1 X-1.666S0
G1 X0.158Y0.05S0
G1 X1.667S0
G1 X0.283S700
G1 X1.666S0
G1 Y0.05S0
G1 X-1.666S0
G1 X-0.283S700
G1 X-1.667S0
G1 Y0.05S0
G1 X1.667S0
G1 X0.283S700
G1 X1.666S0
G1 Y0.05S0
G1 X-1.666S0
G1 X-0.283S700
G1 X-1.667S0
M9
G1 S0
M5
; return to starting pos
G0 X0.849Y-3.471
M2
