; LightBurn 1.2.01
; GRBL device profile, current position
; Bounds: X-1.67 Y0.04 to X4.87 Y2.99
G00 G17 G40 G21 G54
G91
M4
; Cut @ 5000 mm/min, 0% power
M8
G0 X0.004Y0.121
; Layer Lim
G1 X1S0F5000
; Scan @ 4000 mm/min, 70% power
M8
G0 X-2.012Y-0.078
; Layer C02
G1 X1.666F4000S0
G1 X0.406S700
G1 X1.265S0
G1 X0.448S700
G1 X1.666S0
G1 X0.127Y0.05S0
G1 X-1.667S0
G1 X-0.66S700
G1 X-1.154S0
G1 X-0.406S700
G1 X-1.666S0
G1 X0.025Y0.05S0
G1 X1.667S0
G1 X0.405S700
G1 X1.047S0
G1 X0.802S700
G1 X1.666S0
G1 X0.06Y0.05S0
G1 X-1.667S0
G1 X-0.905S700
G1 X-0.978S0
G1 X-0.405S700
G1 X-1.667S0
G1 X0.026Y0.05S0
G1 X1.666S0
G1 X0.405S700
G1 X0.91S0
G1 X0.991S700
G1 X1.666S0
G1 X0.03Y0.05S0
G1 X-1.667S0
G1 X-1.062S700
G1 X-0.843S0
G1 X-0.405S700
G1 X-1.666S0
G1 X0.025Y0.05S0
G1 X1.667S0
G1 X0.404S700
G1 X0.798S0
G1 X0.468S700
G1 X0.164S0
G1 X0.48S700
G1 X1.667S0
G1 X0.025Y0.05S0
G1 X-1.666S0
G1 X-0.454S700
G1 X-0.251S0
G1 X-0.451S700
G1 X-0.755S0
G1 X-0.404S700
G1 X-1.667S0
G1 X0.025Y0.05S0
G1 X1.667S0
G1 X0.404S700
G1 X0.712S0
G1 X0.436S700
G1 X0.299S0
G1 X0.448S700
G1 X1.667S0
G1 X0.01Y0.05S0
G1 X-1.667S0
G1 X-0.444S700
G1 X-0.333S0
G1 X-0.427S700
G1 X-0.676S0
G1 X-0.404S700
G1 X-1.666S0
G1 X0.025Y0.05S0
G1 X1.667S0
G1 X0.403S700
G1 X0.64S0
G1 X0.419S700
G1 X0.366S0
G1 X0.44S700
G1 X1.667S0
G1 X0.008Y0.05S0
G1 X-1.667S0
G1 X-0.439S700
G1 X-0.384S0
G1 X-0.42S700
G1 X-0.605S0
G1 X-0.403S700
G1 X-1.667S0
G1 X0.025Y0.05S0
G1 X1.667S0
G1 X0.403S700
G1 X0.574S0
G1 X0.418S700
G1 X0.398S0
G1 X0.438S700
G1 X1.666S0
G1 Y0.05S0
G1 X-1.662S0
G1 X-0.436S700
G1 X-0.403S0
G1 X-0.421S700
G1 X-0.547S0
G1 X-0.403S700
G1 X-1.666S0
G1 X0.025Y0.05S0
G1 X1.667S0
G1 X0.403S700
G1 X0.518S0
G1 X0.427S700
G1 X0.404S0
G1 X0.436S700
G1 X1.667S0
G1 Y0.05S0
G1 X-1.669S0
G1 X-0.436S700
G1 X-0.4S0
G1 X-0.43S700
G1 X-0.492S0
G1 X-0.403S700
G1 X-1.667S0
G1 X0.025Y0.05S0
G1 X1.667S0
G1 X0.403S700
G1 X0.471S0
G1 X0.428S700
G1 X0.397S0
G1 X0.434S700
G1 X1.667S0
G1 Y0.05S0
G1 X-1.67S0
G1 X-0.433S700
G1 X-0.392S0
G1 X-0.426S700
G1 X-0.451S0
G1 X-0.403S700
G1 X-1.666S0
G1 X0.025Y0.05S0
G1 X1.667S0
G1 X0.402S700
G1 X0.43S0
G1 X0.424S700
G1 X0.382S0
G1 X0.434S700
G1 X1.666S0
G1 X-0.01Y0.05S0
G1 X-1.667S0
G1 X-0.432S700
G1 X-0.361S0
G1 X-0.427S700
G1 X-0.414S0
G1 X-0.402S700
G1 X-1.667S0
G1 X0.025Y0.05S0
G1 X1.667S0
G1 X0.402S700
G1 X0.398S0
G1 X0.433S700
G1 X0.336S0
G1 X0.432S700
G1 X1.667S0
G1 X-0.014Y0.05S0
G1 X-1.666S0
G1 X-0.435S700
G1 X-0.305S0
G1 X-0.439S700
G1 X-0.382S0
G1 X-0.402S700
G1 X-1.666S0
G1 X0.025Y0.05S0
G1 X1.667S0
G1 X0.401S700
G1 X0.376S0
G1 X0.439S700
G1 X0.254S0
G1 X0.448S700
G1 X1.667S0
G1 X-0.018Y0.05S0
G1 X-1.667S0
G1 X-0.506S700
G1 X-0.122S0
G1 X-0.47S700
G1 X-0.376S0
G1 X-0.401S700
G1 X-1.667S0
G1 X0.025Y0.05S0
G1 X1.667S0
G1 X0.401S700
G1 X0.376S0
G1 X1.047S700
G1 X1.666S0
G1 X-0.046Y0.05S0
G1 X-1.667S0
G1 X-0.962S700
G1 X-0.389S0
G1 X-0.401S700
G1 X-1.666S0
G1 X0.025Y0.05S0
G1 X1.667S0
G1 X0.4S700
G1 X0.409S0
G1 X0.871S700
G1 X1.667S0
G1 X-0.047Y0.05S0
G1 X-1.666S0
G1 X-0.772S700
G1 X-0.437S0
G1 X-0.4S700
G1 X-1.667S0
G1 X0.025Y0.05S0
G1 X1.667S0
G1 X0.4S700
G1 X0.492S0
G1 X0.596S700
G1 X1.667S0
G1 X-0.099Y0.05S0
G1 X-1.666S0
G1 X-0.362S700
G1 X-0.603S0
G1 X-0.4S700
G1 X-1.666S0
G1 X-0.931Y0.05S0
G1 X1.667S0
G1 X0.357S700
G1 X0.599S0
G1 X0.399S700
G1 X1.667S0
G1 X0.025Y0.05S0
G1 X-1.667S0
G1 X-0.399S700
G1 X-0.5S0
G1 X-0.605S700
G1 X-1.667S0
G1 X-0.082Y0.05S0
G1 X1.666S0
G1 X0.768S700
G1 X0.445S0
G1 X0.399S700
G1 X1.667S0
G1 X0.025Y0.05S0
G1 X-1.666S0
G1 X-0.4S700
G1 X-0.416S0
G1 X-0.877S700
G1 X-1.667S0
G1 X-0.042Y0.05S0
G1 X1.666S0
G1 X0.965S700
G1 X0.397S0
G1 X0.399S700
G1 X1.666S0
G1 X0.025Y0.05S0
G1 X-1.666S0
G1 X-0.399S700
G1 X-0.383S0
G1 X-1.046S700
G1 X-1.667S0
G1 X-0.026Y0.05S0
G1 X1.666S0
G1 X0.506S700
G1 X0.077S0
G1 X0.515S700
G1 X0.383S0
G1 X0.399S700
G1 X1.666S0
G1 X0.025Y0.05S0
G1 X-1.666S0
G1 X-0.399S700
G1 X-0.384S0
G1 X-0.454S700
G1 X-0.23S0
G1 X-0.456S700
G1 X-1.666S0
G1 X-0.018Y0.05S0
G1 X1.666S0
G1 X0.439S700
G1 X0.289S0
G1 X0.45S700
G1 X0.39S0
G1 X0.398S700
G1 X1.666S0
G1 X0.026Y0.05S0
G1 X-1.667S0
G1 X-0.398S700
G1 X-0.406S0
G1 X-0.446S700
G1 X-0.323S0
G1 X-0.431S700
G1 X-1.667S0
G1 X-0.01Y0.05S0
G1 X1.667S0
G1 X0.42S700
G1 X0.358S0
G1 X0.441S700
G1 X0.422S0
G1 X0.398S700
G1 X1.667S0
G1 X0.025Y0.05S0
G1 X-1.667S0
G1 X-0.398S700
G1 X-0.438S0
G1 X-0.439S700
G1 X-0.38S0
G1 X-0.42S700
G1 X-1.666S0
G1 X-0.008Y0.05S0
G1 X1.667S0
G1 X0.419S700
G1 X0.394S0
G1 X0.438S700
G1 X0.459S0
G1 X0.397S700
G1 X1.667S0
G1 X0.025Y0.05S0
G1 X-1.667S0
G1 X-0.397S700
G1 X-0.48S0
G1 X-0.436S700
G1 X-0.402S0
G1 X-0.42S700
G1 X-1.667S0
G1 Y0.05S0
G1 X1.664S0
G1 X0.426S700
G1 X0.404S0
G1 X0.436S700
G1 X0.5S0
G1 X0.397S700
G1 X1.667S0
G1 X0.025Y0.05S0
G1 X-1.667S0
G1 X-0.397S700
G1 X-0.526S0
G1 X-0.436S700
G1 X-0.4S0
G1 X-0.432S700
G1 X-1.666S0
G1 Y0.05S0
G1 X1.671S0
G1 X0.429S700
G1 X0.396S0
G1 X0.435S700
G1 X0.555S0
G1 X0.396S700
G1 X1.667S0
G1 X0.025Y0.05S0
G1 X-1.667S0
G1 X-0.396S700
G1 X-0.583S0
G1 X-0.434S700
G1 X-0.392S0
G1 X-0.427S700
G1 X-1.667S0
G1 Y0.05S0
G1 X1.671S0
G1 X0.425S700
G1 X0.385S0
G1 X0.434S700
G1 X0.613S0
G1 X0.396S700
G1 X1.667S0
G1 X0.025Y0.05S0
G1 X-1.667S0
G1 X-0.396S700
G1 X-0.648S0
G1 X-0.433S700
G1 X-0.368S0
G1 X-0.425S700
G1 X-1.667S0
G1 X0.009Y0.05S0
G1 X1.667S0
G1 X0.432S700
G1 X0.342S0
G1 X0.432S700
G1 X0.684S0
G1 X0.396S700
G1 X1.667S0
G1 X0.025Y0.05S0
G1 X-1.667S0
G1 X-0.395S700
G1 X-0.721S0
G1 X-0.431S700
G1 X-0.317S0
G1 X-0.438S700
G1 X-1.667S0
G1 X0.016Y0.05S0
G1 X1.667S0
G1 X0.438S700
G1 X0.269S0
G1 X0.445S700
G1 X0.764S0
G1 X0.396S700
G1 X1.666S0
G1 X0.025Y0.05S0
G1 X-1.666S0
G1 X-0.396S700
G1 X-0.807S0
G1 X-0.472S700
G1 X-0.178S0
G1 X-0.46S700
G1 X-1.666S0
G1 X0.024Y0.05S0
G1 X1.667S0
G1 X1.066S700
G1 X0.851S0
G1 X0.396S700
G1 X1.666S0
G1 X0.025Y0.05S0
G1 X-1.666S0
G1 X-0.395S700
G1 X-0.924S0
G1 X-0.985S700
G1 X-1.667S0
G1 X0.045Y0.05S0
G1 X1.667S0
G1 X0.893S700
G1 X0.996S0
G1 X0.395S700
G1 X1.666S0
G1 X0.025Y0.05S0
G1 X-1.666S0
G1 X-0.395S700
G1 X-1.068S0
G1 X-0.801S700
G1 X-1.667S0
G1 X0.079Y0.05S0
G1 X1.666S0
G1 X0.64S700
G1 X1.176S0
G1 X0.395S700
G1 X1.667S0
G1 X0.025Y0.05S0
G1 X-1.667S0
G1 X-0.394S700
G1 X-1.301S0
G1 X-0.437S700
G1 X-1.666S0
M9
G1 S0
M5
; return to starting pos
G0 X1.256Y-2.993
M2
