; LightBurn 1.2.01
; GRBL device profile, current position
; Bounds: X-1.66 Y0.02 to X4.31 Y2.97
G00 G17 G40 G21 G54
G91
M4
; Cut @ 5000 mm/min, 0% power
M8
G0 X0Y0.075
; Layer Lim
G1 X1S0F5000
; Scan @ 4000 mm/min, 70% power
M8
G0 X-1.697Y-0.054
; Layer C02
G1 X1.667F4000S0
G1 X0.061S700
G1 X1.248S0
G1 X0.053S700
G1 X1.666S0
G1 X0.04Y0.05S0
G1 X-1.667S0
G1 X-0.176S700
G1 X-0.831S0
G1 X-0.717S700
G1 X-1.667S0
G1 X-0.151Y0.05S0
G1 X1.667S0
G1 X1.017S700
G1 X0.598S0
G1 X0.299S700
G1 X1.667S0
G1 X0.039Y0.05S0
G1 X-1.667S0
G1 X-0.409S700
G1 X-0.419S0
G1 X-1.215S700
G1 X-1.666S0
G1 X-0.082Y0.05S0
G1 X1.667S0
G1 X1.381S700
G1 X0.272S0
G1 X0.51S700
G1 X1.667S0
G1 X0.039Y0.05S0
G1 X-1.666S0
G1 X-0.611S700
G1 X-0.145S0
G1 X-1.498S700
G1 X-1.667S0
G1 X-0.051Y0.05S0
G1 X1.666S0
G1 X1.616S700
G1 X0.017S0
G1 X0.712S700
G1 X1.666S0
G1 X0.04Y0.05S0
G1 X-1.667S0
G1 X-2.435S700
G1 X-1.666S0
G1 X-0.03Y0.05S0
G1 X1.667S0
G1 X2.503S700
G1 X1.667S0
G1 X-0.081Y0.05S0
G1 X-1.666S0
G1 X-2.453S700
G1 X-1.666S0
G1 X-0.029Y0.05S0
G1 X1.666S0
G1 X0.699S700
G1 X0.445S0
G1 X1.264S700
G1 X1.667S0
G1 X-0.073Y0.05S0
G1 X-1.667S0
G1 X-1.089S700
G1 X-0.625S0
G1 X-0.65S700
G1 X-1.667S0
G1 X-0.013Y0.05S0
G1 X1.667S0
G1 X0.611S700
G1 X0.755S0
G1 X0.943S700
G1 X1.666S0
G1 X-0.061Y0.05S0
G1 X-1.666S0
G1 X-0.821S700
G1 X-0.853S0
G1 X-0.587S700
G1 X-1.666S0
G1 X-0.012Y0.05S0
G1 X1.666S0
G1 X0.576S700
G1 X0.884S0
G1 X0.752S700
G1 X1.667S0
G1 X-0.017Y0.05S0
G1 X-1.667S0
G1 X-0.776S700
G1 X-0.862S0
G1 X-0.562S700
G1 X-1.666S0
G1 Y0.05S0
G1 X1.663S0
G1 X0.556S700
G1 X0.831S0
G1 X0.849S700
G1 X1.667S0
G1 X0.026Y0.05S0
G1 X-1.667S0
G1 X-0.916S700
G1 X-0.793S0
G1 X-0.555S700
G1 X-1.667S0
G1 Y0.05S0
G1 X1.669S0
G1 X0.554S700
G1 X0.752S0
G1 X0.978S700
G1 X1.667S0
G1 X0.022Y0.05S0
G1 X-1.667S0
G1 X-1.041S700
G1 X-0.7S0
G1 X-0.558S700
G1 X-1.667S0
G1 X0.006Y0.05S0
G1 X1.667S0
G1 X0.566S700
G1 X0.646S0
G1 X1.103S700
G1 X1.667S0
G1 X0.022Y0.05S0
G1 X-1.667S0
G1 X-1.166S700
G1 X-0.579S0
G1 X-0.581S700
G1 X-1.667S0
G1 X0.016Y0.05S0
G1 X1.666S0
G1 X0.592S700
G1 X0.513S0
G1 X1.223S700
G1 X1.667S0
G1 X0.015Y0.05S0
G1 X-1.666S0
G1 X-0.545S700
G1 X-0.057S0
G1 X-0.678S700
G1 X-0.436S0
G1 X-0.612S700
G1 X-1.666S0
G1 X0.02Y0.05S0
G1 X1.667S0
G1 X0.631S700
G1 X0.356S0
G1 X0.68S700
G1 X0.118S0
G1 X0.537S700
G1 X1.667S0
G1 X0.015Y0.05S0
G1 X-1.666S0
G1 X-0.531S700
G1 X-0.177S0
G1 X-0.684S700
G1 X-0.262S0
G1 X-0.658S700
G1 X-1.666S0
G1 X0.026Y0.05S0
G1 X1.667S0
G1 X0.691S700
G1 X0.162S0
G1 X0.686S700
G1 X0.231S0
G1 X0.53S700
G1 X1.667S0
G1 X-0.144Y0.05S0
G1 X-1.667S0
G1 X-0.371S700
G1 X-0.284S0
G1 X-0.689S700
G1 X-0.033S0
G1 X-0.744S700
G1 X-1.667S0
G1 X0.039Y0.05S0
G1 X1.667S0
G1 X1.389S700
G1 X0.337S0
G1 X0.137S700
G1 X1.666S0
G1 X-0.511Y0.05S0
G1 X-1.667S0
G1 X-1.308S700
G1 X-1.667S0
G1 X0.056Y0.05S0
G1 X1.667S0
G1 X1.214S700
G1 X1.667S0
G1 X-0.038Y0.05S0
G1 X-1.667S0
G1 X-1.117S700
G1 X-1.667S0
G1 X0.084Y0.05S0
G1 X1.666S0
G1 X0.996S700
G1 X1.667S0
G1 X0.011Y0.05S0
G1 X-1.666S0
G1 X-0.921S700
G1 X-1.667S0
G1 X0.09Y0.05S0
G1 X1.667S0
G1 X0.906S700
G1 X1.666S0
G1 X0.074Y0.05S0
G1 X-1.667S0
G1 X-0.982S700
G1 X-1.666S0
G1 X-0.038Y0.05S0
G1 X1.666S0
G1 X1.091S700
G1 X1.667S0
G1 X0.059Y0.05S0
G1 X-1.666S0
G1 X-1.189S700
G1 X-1.667S0
G1 X-0.033Y0.05S0
G1 X1.667S0
G1 X1.264S700
G1 X1.666S0
G1 X0.042Y0.05S0
G1 X-1.666S0
G1 X-1.335S700
G1 X-1.666S0
G1 X-0.029Y0.05S0
G1 X1.666S0
G1 X0.658S700
G1 X0.092S0
G1 X0.644S700
G1 X1.667S0
G1 X0.023Y0.05S0
G1 X-1.666S0
G1 X-0.602S700
G1 X-0.201S0
G1 X-0.642S700
G1 X-1.667S0
G1 X-0.018Y0.05S0
G1 X1.667S0
G1 X0.617S700
G1 X0.301S0
G1 X0.568S700
G1 X1.667S0
G1 X0.018Y0.05S0
G1 X-1.667S0
G1 X-0.534S700
G1 X-0.399S0
G1 X-0.589S700
G1 X-1.666S0
G1 X-0.018Y0.05S0
G1 X1.667S0
G1 X0.566S700
G1 X0.476S0
G1 X0.507S700
G1 X1.666S0
G1 X0.009Y0.05S0
G1 X-1.666S0
G1 X-0.498S700
G1 X-0.519S0
G1 X-0.555S700
G1 X-1.667S0
G1 Y0.05S0
G1 X1.668S0
G1 X0.542S700
G1 X0.55S0
G1 X0.488S700
G1 X1.667S0
G1 X-0.007Y0.05S0
G1 X-1.666S0
G1 X-0.481S700
G1 X-0.559S0
G1 X-0.534S700
G1 X-1.667S0
G1 Y0.05S0
G1 X1.667S0
G1 X0.541S700
G1 X0.54S0
G1 X0.482S700
G1 X1.666S0
G1 X-0.011Y0.05S0
G1 X-1.666S0
G1 X-0.495S700
G1 X-0.503S0
G1 X-0.549S700
G1 X-1.666S0
G1 X0.018Y0.05S0
G1 X1.666S0
G1 X0.571S700
G1 X0.425S0
G1 X0.522S700
G1 X1.666S0
G1 X-0.011Y0.05S0
G1 X-1.666S0
G1 X-0.587S700
G1 X-0.275S0
G1 X-0.626S700
G1 X-1.667S0
G1 X0.018Y0.05S0
G1 X1.667S0
G1 X1.437S700
G1 X1.667S0
G1 X-0.033Y0.05S0
G1 X-1.667S0
G1 X-1.374S700
G1 X-1.667S0
G1 X0.042Y0.05S0
G1 X1.667S0
G1 X1.299S700
G1 X1.667S0
G1 X-0.034Y0.05S0
G1 X-1.667S0
G1 X-1.223S700
G1 X-1.667S0
G1 X0.058Y0.05S0
G1 X1.666S0
G1 X1.097S700
G1 X1.667S0
G1 X-0.069Y0.05S0
G1 X-1.667S0
G1 X-0.943S700
G1 X-1.666S0
G1 X0.104Y0.05S0
G1 X1.666S0
G1 X0.742S700
G1 X1.667S0
G1 X-0.19Y0.05S0
G1 X-1.666S0
G1 X-0.395S700
G1 X-1.667S0
M9
G1 S0
M5
; return to starting pos
G0 X0.723Y-2.971
M2
