; LightBurn 1.2.01
; GRBL device profile, current position
; Bounds: X-1.67 Y0 to X2.26 Y2.83
G00 G17 G40 G21 G54
G91
M4
; Cut @ 5000 mm/min, 0% power
M8
G0 X0Y0
; Layer Lim
G1 X1S0F5000
; Scan @ 4000 mm/min, 70% power
M8
G0 X-2.57Y1.876
; Layer C02
G1 X1.667F4000S0
G1 X0.416S700
G1 X1.666S0
G1 X0.009Y0.05S0
G1 X-1.667S0
G1 X-0.434S700
G1 X-1.667S0
G1 X-0.009Y0.05S0
G1 X1.666S0
G1 X0.453S700
G1 X1.666S0
G1 X0.009Y0.05S0
G1 X-1.667S0
G1 X-0.47S700
G1 X-1.667S0
G1 X-0.01Y0.05S0
G1 X1.667S0
G1 X0.488S700
G1 X1.667S0
G1 X0.009Y0.05S0
G1 X-1.667S0
G1 X-0.507S700
G1 X-1.666S0
G1 X-0.01Y0.05S0
G1 X1.667S0
G1 X0.524S700
G1 X1.667S0
G1 X0.008Y0.05S0
G1 X-1.666S0
G1 X-0.543S700
G1 X-1.667S0
G1 X-0.009Y0.05S0
G1 X1.666S0
G1 X0.561S700
G1 X1.667S0
G1 X0.008Y0.05S0
G1 X-1.666S0
G1 X-0.579S700
G1 X-1.667S0
G1 X-0.01Y0.05S0
G1 X1.667S0
G1 X0.597S700
G1 X1.667S0
G1 Y0.05S0
G1 X-1.667S0
G1 X-0.597S700
G1 X-1.667S0
G1 Y0.05S0
G1 X1.667S0
G1 X0.597S700
G1 X1.667S0
G1 Y0.05S0
G1 X-1.667S0
G1 X-0.597S700
G1 X-1.667S0
G1 Y0.05S0
G1 X1.667S0
G1 X0.597S700
G1 X1.667S0
G1 Y0.05S0
G1 X-1.667S0
G1 X-0.597S700
G1 X-1.667S0
G1 Y0.05S0
G1 X1.667S0
G1 X0.597S700
G1 X1.667S0
G1 Y0.05S0
G1 X-1.667S0
G1 X-0.597S700
G1 X-1.667S0
G1 Y0.05S0
G1 X1.667S0
G1 X0.597S700
G1 X1.667S0
G1 Y0.05S0
G1 X-1.667S0
G1 X-0.597S700
G1 X-1.667S0
M9
G1 S0
M5
; return to starting pos
G0 X1.667Y-2.826
M2
