; LightBurn 1.2.01
; GRBL device profile, current position
; Bounds: X-1.66 Y0 to X2.66 Y3.75
G00 G17 G40 G21 G54
G91
M4
; Cut @ 5000 mm/min, 0% power
M8
G0 X0Y0.842
; Layer Lim
G1 X1S0F5000
; Scan @ 4000 mm/min, 70% power
M8
G0 X-2.056Y-0.842
; Layer C02
G1 X1.667F4000S0
G1 X0.377S700
G1 X1.666S0
G1 X-0.022Y0.05S0
G1 X-1.667S0
G1 X-0.385S700
G1 X-1.666S0
G1 X-0.031Y0.05S0
G1 X1.666S0
G1 X0.393S700
G1 X1.667S0
G1 X-0.022Y0.05S0
G1 X-1.667S0
G1 X-0.401S700
G1 X-1.667S0
G1 X-0.031Y0.05S0
G1 X1.667S0
G1 X0.41S700
G1 X1.667S0
G1 X-0.021Y0.05S0
G1 X-1.666S0
G1 X-0.419S700
G1 X-1.667S0
G1 X-0.025Y0.05S0
G1 X1.666S0
G1 X0.424S700
G1 X1.667S0
G1 X-0.021Y0.05S0
G1 X-1.667S0
G1 X-0.428S700
G1 X-1.667S0
G1 X-0.026Y0.05S0
G1 X1.667S0
G1 X0.434S700
G1 X1.667S0
G1 X-0.021Y0.05S0
G1 X-1.667S0
G1 X-0.439S700
G1 X-1.667S0
G1 X-0.025Y0.05S0
G1 X1.666S0
G1 X0.445S700
G1 X1.666S0
G1 X-0.02Y0.05S0
G1 X-1.667S0
G1 X-0.45S700
G1 X-1.666S0
G1 X-0.026Y0.05S0
G1 X1.667S0
G1 X0.458S700
G1 X1.667S0
G1 X-0.015Y0.05S0
G1 X-1.667S0
G1 X-0.469S700
G1 X-1.667S0
G1 X-0.017Y0.05S0
G1 X1.667S0
G1 X0.472S700
G1 X1.667S0
G1 X-0.015Y0.05S0
G1 X-1.666S0
G1 X-0.475S700
G1 X-1.667S0
G1 X-0.017Y0.05S0
G1 X1.667S0
G1 X0.477S700
G1 X1.667S0
G1 X-0.015Y0.05S0
G1 X-1.666S0
G1 X-0.48S700
G1 X-1.667S0
G1 X-0.016Y0.05S0
G1 X1.666S0
G1 X0.482S700
G1 X1.667S0
G1 X-0.015Y0.05S0
G1 X-1.666S0
G1 X-0.485S700
G1 X-1.666S0
G1 X-0.017Y0.05S0
G1 X1.666S0
G1 X0.49S700
G1 X1.666S0
G1 X-0.009Y0.05S0
G1 X-1.666S0
G1 X-0.497S700
G1 X-1.667S0
G1 X-0.016Y0.05S0
G1 X1.667S0
G1 X0.504S700
G1 X1.667S0
G1 X-0.009Y0.05S0
G1 X-1.667S0
G1 X-0.504S700
G1 X-1.667S0
G1 X-0.009Y0.05S0
G1 X1.667S0
G1 X0.505S700
G1 X1.666S0
G1 X-0.009Y0.05S0
G1 X-1.666S0
G1 X-0.505S700
G1 X-1.667S0
G1 X-0.009Y0.05S0
G1 X1.667S0
G1 X0.505S700
G1 X1.667S0
G1 X-0.009Y0.05S0
G1 X-1.667S0
G1 X-0.505S700
G1 X-1.667S0
G1 X-0.009Y0.05S0
G1 X1.667S0
G1 X0.506S700
G1 X1.667S0
G1 Y0.05S0
G1 X-1.67S0
G1 X-0.512S700
G1 X-1.667S0
G1 X-0.009Y0.05S0
G1 X1.667S0
G1 X0.517S700
G1 X1.667S0
G1 Y0.05S0
G1 X-1.67S0
G1 X-0.523S700
G1 X-1.667S0
G1 Y0.05S0
G1 X1.665S0
G1 X0.522S700
G1 X1.667S0
G1 Y0.05S0
G1 X-1.67S0
G1 X-0.52S700
G1 X-1.667S0
G1 Y0.05S0
G1 X1.665S0
G1 X0.518S700
G1 X1.667S0
G1 Y0.05S0
G1 X-1.67S0
G1 X-0.517S700
G1 X-1.666S0
G1 Y0.05S0
G1 X1.665S0
G1 X0.515S700
G1 X1.666S0
G1 Y0.05S0
G1 X-1.666S0
G1 X-0.517S700
G1 X-1.666S0
G1 Y0.05S0
G1 X1.665S0
G1 X0.52S700
G1 X1.667S0
G1 Y0.05S0
G1 X-1.665S0
G1 X-0.524S700
G1 X-1.666S0
G1 Y0.05S0
G1 X1.665S0
G1 X0.527S700
G1 X1.667S0
G1 Y0.05S0
G1 X-1.664S0
G1 X-0.526S700
G1 X-1.667S0
G1 X0.006Y0.05S0
G1 X1.667S0
G1 X0.522S700
G1 X1.666S0
G1 Y0.05S0
G1 X-1.664S0
G1 X-0.519S700
G1 X-1.666S0
G1 X0.005Y0.05S0
G1 X1.667S0
G1 X0.515S700
G1 X1.667S0
G1 Y0.05S0
G1 X-1.664S0
G1 X-0.512S700
G1 X-1.667S0
G1 X0.006Y0.05S0
G1 X1.667S0
G1 X0.514S700
G1 X1.667S0
G1 X0.007Y0.05S0
G1 X-1.666S0
G1 X-0.517S700
G1 X-1.666S0
G1 X0.006Y0.05S0
G1 X1.666S0
G1 X0.518S700
G1 X1.667S0
G1 X0.007Y0.05S0
G1 X-1.666S0
G1 X-0.52S700
G1 X-1.667S0
G1 X0.011Y0.05S0
G1 X1.666S0
G1 X0.517S700
G1 X1.667S0
G1 X0.007Y0.05S0
G1 X-1.666S0
G1 X-0.511S700
G1 X-1.667S0
G1 X0.014Y0.05S0
G1 X1.666S0
G1 X0.505S700
G1 X1.667S0
G1 X0.008Y0.05S0
G1 X-1.667S0
G1 X-0.499S700
G1 X-1.667S0
G1 X0.013Y0.05S0
G1 X1.667S0
G1 X0.499S700
G1 X1.666S0
G1 X0.013Y0.05S0
G1 X-1.666S0
G1 X-0.499S700
G1 X-1.666S0
G1 X0.013Y0.05S0
G1 X1.667S0
G1 X0.498S700
G1 X1.667S0
G1 X0.013Y0.05S0
G1 X-1.667S0
G1 X-0.498S700
G1 X-1.666S0
G1 X0.013Y0.05S0
G1 X1.667S0
G1 X0.497S700
G1 X1.667S0
G1 X0.013Y0.05S0
G1 X-1.666S0
G1 X-0.493S700
G1 X-1.666S0
G1 X0.021Y0.05S0
G1 X1.667S0
G1 X0.484S700
G1 X1.667S0
G1 X0.013Y0.05S0
G1 X-1.667S0
G1 X-0.475S700
G1 X-1.667S0
G1 X0.022Y0.05S0
G1 X1.667S0
G1 X0.47S700
G1 X1.667S0
G1 X0.019Y0.05S0
G1 X-1.666S0
G1 X-0.469S700
G1 X-1.666S0
G1 X0.021Y0.05S0
G1 X1.667S0
G1 X0.466S700
G1 X1.667S0
G1 X0.019Y0.05S0
G1 X-1.667S0
G1 X-0.463S700
G1 X-1.667S0
G1 X0.022Y0.05S0
G1 X1.667S0
G1 X0.461S700
G1 X1.666S0
G1 X0.019Y0.05S0
G1 X-1.666S0
G1 X-0.458S700
G1 X-1.667S0
G1 X0.032Y0.05S0
G1 X1.666S0
G1 X0.446S700
G1 X1.667S0
G1 X0.019Y0.05S0
G1 X-1.667S0
G1 X-0.433S700
G1 X-1.667S0
G1 X0.031Y0.05S0
G1 X1.667S0
G1 X0.423S700
G1 X1.667S0
G1 X0.021Y0.05S0
G1 X-1.666S0
G1 X-0.414S700
G1 X-1.666S0
G1 X0.031Y0.05S0
G1 X1.667S0
G1 X0.403S700
G1 X1.667S0
G1 X0.022Y0.05S0
G1 X-1.667S0
G1 X-0.394S700
G1 X-1.667S0
G1 X0.032Y0.05S0
G1 X1.666S0
G1 X0.385S700
G1 X1.666S0
G1 X0.022Y0.05S0
G1 X-1.667S0
G1 X-0.374S700
G1 X-1.667S0
M9
G1 S0
M5
; return to starting pos
G0 X1.048Y-3.75
M2
