; LightBurn 1.2.01
; GRBL device profile, current position
; Bounds: X-1.67 Y0 to X2.65 Y3.75
G00 G17 G40 G21 G54
G91
M4
; Cut @ 5000 mm/min, 0% power
M8
G0 X0Y0.842
; Layer Lim
G1 X1S0F5000
; Scan @ 4000 mm/min, 70% power
M8
G0 X-2.662Y-0.842
; Layer C02
G1 X1.667F4000S0
G1 X0.378S700
G1 X1.667S0
G1 X0.03Y0.05S0
G1 X-1.666S0
G1 X-0.387S700
G1 X-1.666S0
G1 X0.023Y0.05S0
G1 X1.666S0
G1 X0.394S700
G1 X1.667S0
G1 X0.03Y0.05S0
G1 X-1.666S0
G1 X-0.402S700
G1 X-1.667S0
G1 X0.023Y0.05S0
G1 X1.667S0
G1 X0.409S700
G1 X1.667S0
G1 X0.03Y0.05S0
G1 X-1.666S0
G1 X-0.417S700
G1 X-1.667S0
G1 X0.023Y0.05S0
G1 X1.666S0
G1 X0.42S700
G1 X1.667S0
G1 X0.025Y0.05S0
G1 X-1.666S0
G1 X-0.423S700
G1 X-1.667S0
G1 X0.023Y0.05S0
G1 X1.667S0
G1 X0.425S700
G1 X1.667S0
G1 X0.025Y0.05S0
G1 X-1.667S0
G1 X-0.432S700
G1 X-1.667S0
G1 X0.016Y0.05S0
G1 X1.667S0
G1 X0.441S700
G1 X1.667S0
G1 X0.025Y0.05S0
G1 X-1.666S0
G1 X-0.451S700
G1 X-1.667S0
G1 X0.017Y0.05S0
G1 X1.666S0
G1 X0.46S700
G1 X1.667S0
G1 X0.025Y0.05S0
G1 X-1.667S0
G1 X-0.468S700
G1 X-1.667S0
G1 X0.016Y0.05S0
G1 X1.667S0
G1 X0.473S700
G1 X1.667S0
G1 X0.017Y0.05S0
G1 X-1.667S0
G1 X-0.474S700
G1 X-1.667S0
G1 X0.017Y0.05S0
G1 X1.666S0
G1 X0.474S700
G1 X1.667S0
G1 X0.017Y0.05S0
G1 X-1.667S0
G1 X-0.476S700
G1 X-1.666S0
G1 X0.01Y0.05S0
G1 X1.666S0
G1 X0.482S700
G1 X1.667S0
G1 X0.017Y0.05S0
G1 X-1.667S0
G1 X-0.488S700
G1 X-1.667S0
G1 X0.01Y0.05S0
G1 X1.667S0
G1 X0.494S700
G1 X1.667S0
G1 X0.017Y0.05S0
G1 X-1.667S0
G1 X-0.501S700
G1 X-1.667S0
G1 X0.011Y0.05S0
G1 X1.666S0
G1 X0.507S700
G1 X1.667S0
G1 X0.011Y0.05S0
G1 X-1.666S0
G1 X-0.508S700
G1 X-1.667S0
G1 X0.01Y0.05S0
G1 X1.667S0
G1 X0.506S700
G1 X1.667S0
G1 X0.009Y0.05S0
G1 X-1.667S0
G1 X-0.505S700
G1 X-1.667S0
G1 X0.008Y0.05S0
G1 X1.667S0
G1 X0.506S700
G1 X1.666S0
G1 X0.009Y0.05S0
G1 X-1.667S0
G1 X-0.51S700
G1 X-1.667S0
G1 Y0.05S0
G1 X1.672S0
G1 X0.514S700
G1 X1.667S0
G1 X0.008Y0.05S0
G1 X-1.666S0
G1 X-0.519S700
G1 X-1.667S0
G1 Y0.05S0
G1 X1.672S0
G1 X0.522S700
G1 X1.667S0
G1 X0.009Y0.05S0
G1 X-1.667S0
G1 X-0.527S700
G1 X-1.667S0
G1 Y0.05S0
G1 X1.672S0
G1 X0.526S700
G1 X1.667S0
G1 Y0.05S0
G1 X-1.665S0
G1 X-0.524S700
G1 X-1.667S0
G1 Y0.05S0
G1 X1.672S0
G1 X0.52S700
G1 X1.666S0
G1 Y0.05S0
G1 X-1.665S0
G1 X-0.52S700
G1 X-1.667S0
G1 Y0.05S0
G1 X1.666S0
G1 X0.522S700
G1 X1.667S0
G1 Y0.05S0
G1 X-1.665S0
G1 X-0.525S700
G1 X-1.667S0
G1 Y0.05S0
G1 X1.666S0
G1 X0.527S700
G1 X1.667S0
G1 Y0.05S0
G1 X-1.666S0
G1 X-0.53S700
G1 X-1.666S0
G1 Y0.05S0
G1 X1.665S0
G1 X0.532S700
G1 X1.667S0
G1 Y0.05S0
G1 X-1.669S0
G1 X-0.531S700
G1 X-1.666S0
G1 Y0.05S0
G1 X1.665S0
G1 X0.526S700
G1 X1.667S0
G1 X-0.006Y0.05S0
G1 X-1.667S0
G1 X-0.521S700
G1 X-1.667S0
G1 Y0.05S0
G1 X1.662S0
G1 X0.52S700
G1 X1.667S0
G1 X-0.006Y0.05S0
G1 X-1.667S0
G1 X-0.521S700
G1 X-1.666S0
G1 X-0.007Y0.05S0
G1 X1.667S0
G1 X0.521S700
G1 X1.667S0
G1 X-0.006Y0.05S0
G1 X-1.667S0
G1 X-0.522S700
G1 X-1.667S0
G1 X-0.006Y0.05S0
G1 X1.666S0
G1 X0.523S700
G1 X1.667S0
G1 X-0.006Y0.05S0
G1 X-1.667S0
G1 X-0.523S700
G1 X-1.667S0
G1 X-0.007Y0.05S0
G1 X1.667S0
G1 X0.521S700
G1 X1.667S0
G1 X-0.013Y0.05S0
G1 X-1.667S0
G1 X-0.515S700
G1 X-1.667S0
G1 X-0.006Y0.05S0
G1 X1.666S0
G1 X0.508S700
G1 X1.667S0
G1 X-0.014Y0.05S0
G1 X-1.666S0
G1 X-0.506S700
G1 X-1.667S0
G1 X-0.013Y0.05S0
G1 X1.667S0
G1 X0.505S700
G1 X1.667S0
G1 X-0.014Y0.05S0
G1 X-1.667S0
G1 X-0.503S700
G1 X-1.667S0
G1 X-0.013Y0.05S0
G1 X1.667S0
G1 X0.503S700
G1 X1.666S0
G1 X-0.013Y0.05S0
G1 X-1.667S0
G1 X-0.501S700
G1 X-1.667S0
G1 X-0.013Y0.05S0
G1 X1.667S0
G1 X0.5S700
G1 X1.667S0
G1 X-0.017Y0.05S0
G1 X-1.667S0
G1 X-0.496S700
G1 X-1.666S0
G1 X-0.013Y0.05S0
G1 X1.667S0
G1 X0.486S700
G1 X1.667S0
G1 X-0.022Y0.05S0
G1 X-1.667S0
G1 X-0.478S700
G1 X-1.666S0
G1 X-0.019Y0.05S0
G1 X1.667S0
G1 X0.474S700
G1 X1.667S0
G1 X-0.022Y0.05S0
G1 X-1.667S0
G1 X-0.471S700
G1 X-1.667S0
G1 X-0.019Y0.05S0
G1 X1.667S0
G1 X0.468S700
G1 X1.667S0
G1 X-0.022Y0.05S0
G1 X-1.667S0
G1 X-0.465S700
G1 X-1.666S0
G1 X-0.019Y0.05S0
G1 X1.667S0
G1 X0.461S700
G1 X1.667S0
G1 X-0.022Y0.05S0
G1 X-1.667S0
G1 X-0.458S700
G1 X-1.667S0
G1 X-0.019Y0.05S0
G1 X1.667S0
G1 X0.446S700
G1 X1.667S0
G1 X-0.032Y0.05S0
G1 X-1.667S0
G1 X-0.433S700
G1 X-1.666S0
G1 X-0.021Y0.05S0
G1 X1.667S0
G1 X0.422S700
G1 X1.667S0
G1 X-0.032Y0.05S0
G1 X-1.667S0
G1 X-0.412S700
G1 X-1.667S0
G1 X-0.021Y0.05S0
G1 X1.666S0
G1 X0.403S700
G1 X1.667S0
G1 X-0.032Y0.05S0
G1 X-1.667S0
G1 X-0.392S700
G1 X-1.667S0
G1 X-0.022Y0.05S0
G1 X1.667S0
G1 X0.383S700
G1 X1.666S0
G1 X-0.031Y0.05S0
G1 X-1.667S0
G1 X-0.373S700
G1 X-1.666S0
M9
G1 S0
M5
; return to starting pos
G0 X1.666Y-3.75
M2
