; LightBurn 1.2.01
; GRBL device profile, current position
; Bounds: X-1.66 Y0 to X3.08 Y2.9
G00 G17 G40 G21 G54
G91
M4
; Cut @ 5000 mm/min, 0% power
M8
G0 X0Y0
; Layer Lim
G1 X1S0F5000
; Scan @ 4000 mm/min, 70% power
M8
G0 X-2.252Y1.552
; Layer C02
G1 X1.667F4000S0
G1 X0.013S700
G1 X1.667S0
G1 X0.597Y0.05S0
G1 X-1.667S0
G1 X-0.091S700
G1 X-0.475S0
G1 X-0.109S700
G1 X-1.667S0
G1 X-0.064Y0.05S0
G1 X1.667S0
G1 X0.205S700
G1 X0.413S0
G1 X0.197S700
G1 X1.667S0
G1 X0.075Y0.05S0
G1 X-1.666S0
G1 X-0.304S700
G1 X-0.351S0
G1 X-0.301S700
G1 X-1.667S0
G1 X-0.064Y0.05S0
G1 X1.667S0
G1 X0.397S700
G1 X0.289S0
G1 X0.409S700
G1 X1.667S0
G1 X-0.033Y0.05S0
G1 X-1.667S0
G1 X-0.406S700
G1 X-0.229S0
G1 X-0.429S700
G1 X-1.667S0
G1 X0.047Y0.05S0
G1 X1.666S0
G1 X0.412S700
G1 X0.169S0
G1 X0.394S700
G1 X1.667S0
G1 X-0.043Y0.05S0
G1 X-1.667S0
G1 X-0.381S700
G1 X-0.11S0
G1 X-0.394S700
G1 X-1.667S0
G1 X0.049Y0.05S0
G1 X1.666S0
G1 X0.376S700
G1 X0.05S0
G1 X0.368S700
G1 X1.667S0
G1 X-0.045Y0.05S0
G1 X-1.666S0
G1 X-0.699S700
G1 X-1.667S0
G1 X0.051Y0.05S0
G1 X1.667S0
G1 X0.603S700
G1 X1.667S0
G1 X-0.045Y0.05S0
G1 X-1.667S0
G1 X-0.508S700
G1 X-1.666S0
G1 X0.04Y0.05S0
G1 X1.667S0
G1 X0.434S700
G1 X1.667S0
G1 X0.279Y0.05S0
G1 X-1.667S0
G1 X-0.935S700
G1 X-1.666S0
G1 X-0.184Y0.05S0
G1 X1.667S0
G1 X1.329S700
G1 X1.666S0
G1 X-0.014Y0.05S0
G1 X-1.667S0
G1 X-1.389S700
G1 X-1.667S0
G1 X0.017Y0.05S0
G1 X1.667S0
G1 X1.358S700
G1 X1.666S0
G1 X-0.014Y0.05S0
G1 X-1.667S0
G1 X-0.515S700
G1 X-0.033S0
G1 X-0.251S700
G1 X-0.02S0
G1 X-0.508S700
G1 X-1.666S0
G1 X0.017Y0.05S0
G1 X1.666S0
G1 X0.401S700
G1 X0.104S0
G1 X0.264S700
G1 X0.138S0
G1 X0.388S700
G1 X1.667S0
G1 X-0.014Y0.05S0
G1 X-1.667S0
G1 X-0.261S700
G1 X-0.245S0
G1 X-0.277S700
G1 X-0.187S0
G1 X-0.294S700
G1 X-1.667S0
G1 X0.017Y0.05S0
G1 X1.667S0
G1 X0.17S700
G1 X0.288S0
G1 X0.29S700
G1 X0.357S0
G1 X0.127S700
G1 X1.667S0
G1 X-0.478Y0.05S0
G1 X-1.667S0
G1 X-0.302S700
G1 X-0.393S0
G1 X-0.043S700
G1 X-1.666S0
G1 X0.429Y0.05S0
G1 X1.667S0
G1 X0.314S700
G1 X1.666S0
G1 X0.006Y0.05S0
G1 X-1.666S0
G1 X-0.323S700
G1 X-1.667S0
G1 Y0.05S0
G1 X1.664S0
G1 X0.33S700
G1 X1.667S0
G1 Y0.05S0
G1 X-1.664S0
G1 X-0.335S700
G1 X-1.667S0
G1 Y0.05S0
G1 X1.664S0
G1 X0.341S700
G1 X1.666S0
G1 Y0.05S0
G1 X-1.664S0
G1 X-0.346S700
G1 X-1.667S0
M9
G1 S0
M5
; return to starting pos
G0 X1.142Y-2.902
M2
