; LightBurn 1.2.01
; GRBL device profile, current position
; Bounds: X-1.66 Y0.02 to X2.26 Y1.17
G00 G17 G40 G21 G54
G91
M4
; Cut @ 5000 mm/min, 0% power
M8
G0 X0Y0.638
; Layer Lim
G1 X1S0F5000
; Scan @ 4000 mm/min, 70% power
M8
G0 X-2.568Y-0.62
; Layer C02
G1 X1.667F4000S0
G1 X0.048S700
G1 X1.667S0
G1 X0.108Y0.05S0
G1 X-1.667S0
G1 X-0.18S700
G1 X-1.667S0
G1 X-0.023Y0.05S0
G1 X1.666S0
G1 X0.275S700
G1 X1.667S0
G1 X0.066Y0.05S0
G1 X-1.666S0
G1 X-0.365S700
G1 X-1.667S0
G1 X-0.024Y0.05S0
G1 X1.667S0
G1 X0.428S700
G1 X1.666S0
G1 X0.038Y0.05S0
G1 X-1.667S0
G1 X-0.378S700
G1 X-1.666S0
G1 X0.082Y0.05S0
G1 X1.666S0
G1 X0.33S700
G1 X1.666S0
G1 X0.023Y0.05S0
G1 X-1.667S0
G1 X-0.299S700
G1 X-1.666S0
G1 X0.033Y0.05S0
G1 X1.667S0
G1 X0.287S700
G1 X1.667S0
G1 X0.02Y0.05S0
G1 X-1.667S0
G1 X-0.283S700
G1 X-1.667S0
G1 X0.016Y0.05S0
G1 X1.667S0
G1 X0.277S700
G1 X1.667S0
G1 X0.01Y0.05S0
G1 X-1.667S0
G1 X-0.28S700
G1 X-1.666S0
G1 Y0.05S0
G1 X1.669S0
G1 X0.287S700
G1 X1.667S0
G1 Y0.05S0
G1 X-1.667S0
G1 X-0.552S700
G1 X-1.667S0
G1 Y0.05S0
G1 X1.667S0
G1 X0.551S700
G1 X1.666S0
G1 Y0.05S0
G1 X-1.668S0
G1 X-0.549S700
G1 X-1.667S0
G1 Y0.05S0
G1 X1.667S0
G1 X0.548S700
G1 X1.667S0
G1 Y0.05S0
G1 X-1.667S0
G1 X-0.548S700
G1 X-1.667S0
G1 Y0.05S0
G1 X1.667S0
G1 X0.548S700
G1 X1.667S0
G1 Y0.05S0
G1 X-1.667S0
G1 X-0.548S700
G1 X-1.667S0
G1 Y0.05S0
G1 X1.667S0
G1 X0.548S700
G1 X1.667S0
G1 Y0.05S0
G1 X-1.667S0
G1 X-0.548S700
G1 X-1.667S0
G1 Y0.05S0
G1 X1.667S0
G1 X0.548S700
G1 X1.667S0
G1 Y0.05S0
G1 X-1.667S0
G1 X-0.548S700
G1 X-1.667S0
M9
G1 S0
M5
; return to starting pos
G0 X1.622Y-1.168
M2
