; LightBurn 1.2.01
; GRBL device profile, current position
; Bounds: X-1.67 Y0 to X3.14 Y2.83
G00 G17 G40 G21 G54
G91
M4
; Cut @ 5000 mm/min, 0% power
M8
G0 X0Y0
; Layer Lim
G1 X1S0F5000
; Scan @ 4000 mm/min, 70% power
M8
G0 X-2.569Y1.877
; Layer C02
G1 X1.666F4000S0
G1 X0.416S700
G1 X0.464S0
G1 X0.417S700
G1 X1.666S0
G1 X0.009Y0.05S0
G1 X-1.667S0
G1 X-0.435S700
G1 X-0.445S0
G1 X-0.434S700
G1 X-1.667S0
G1 X-0.01Y0.05S0
G1 X1.667S0
G1 X0.452S700
G1 X0.428S0
G1 X0.452S700
G1 X1.667S0
G1 X0.009Y0.05S0
G1 X-1.667S0
G1 X-0.471S700
G1 X-0.409S0
G1 X-0.471S700
G1 X-1.667S0
G1 X-0.009Y0.05S0
G1 X1.666S0
G1 X0.489S700
G1 X0.391S0
G1 X0.489S700
G1 X1.667S0
G1 X0.008Y0.05S0
G1 X-1.666S0
G1 X-0.507S700
G1 X-0.374S0
G1 X-0.506S700
G1 X-1.667S0
G1 X-0.01Y0.05S0
G1 X1.667S0
G1 X0.525S700
G1 X0.355S0
G1 X0.525S700
G1 X1.667S0
G1 X0.008Y0.05S0
G1 X-1.666S0
G1 X-0.544S700
G1 X-0.337S0
G1 X-0.543S700
G1 X-1.667S0
G1 X-0.009Y0.05S0
G1 X1.666S0
G1 X0.562S700
G1 X0.318S0
G1 X0.562S700
G1 X1.667S0
G1 X0.008Y0.05S0
G1 X-1.667S0
G1 X-0.579S700
G1 X-0.301S0
G1 X-0.579S700
G1 X-1.667S0
G1 X-0.01Y0.05S0
G1 X1.667S0
G1 X0.597S700
G1 X0.283S0
G1 X0.598S700
G1 X1.666S0
G1 Y0.05S0
G1 X-1.666S0
G1 X-0.598S700
G1 X-0.283S0
G1 X-0.597S700
G1 X-1.667S0
G1 Y0.05S0
G1 X1.667S0
G1 X0.597S700
G1 X0.283S0
G1 X0.598S700
G1 X1.666S0
G1 Y0.05S0
G1 X-1.666S0
G1 X-0.598S700
G1 X-0.283S0
G1 X-0.597S700
G1 X-1.667S0
G1 Y0.05S0
G1 X1.667S0
G1 X0.597S700
G1 X0.283S0
G1 X0.598S700
G1 X1.666S0
G1 Y0.05S0
G1 X-1.666S0
G1 X-0.598S700
G1 X-0.283S0
G1 X-0.597S700
G1 X-1.667S0
G1 Y0.05S0
G1 X1.667S0
G1 X0.597S700
G1 X0.283S0
G1 X0.598S700
G1 X1.666S0
G1 Y0.05S0
G1 X-1.666S0
G1 X-0.598S700
G1 X-0.283S0
G1 X-0.597S700
G1 X-1.667S0
G1 Y0.05S0
G1 X1.667S0
G1 X0.597S700
G1 X0.283S0
G1 X0.598S700
G1 X1.666S0
G1 Y0.05S0
G1 X-1.666S0
G1 X-0.598S700
G1 X-0.283S0
G1 X-0.597S700
G1 X-1.667S0
M9
G1 S0
M5
; return to starting pos
G0 X1.667Y-2.827
M2
