; LightBurn 1.2.01
; GRBL device profile, current position
; Bounds: X-1.67 Y0.04 to X3.53 Y2.89
G00 G17 G40 G21 G54
G91
M4
; Cut @ 5000 mm/min, 0% power
M8
G0 X0.002Y0.053
; Layer Lim
G1 X1S0F5000
; Scan @ 4000 mm/min, 70% power
M8
G0 X-2.002Y-0.012
; Layer C02
G1 X1.667F4000S0
G1 X0.503S700
G1 X1.666S0
G1 X0.117Y0.05S0
G1 X-1.667S0
G1 X-0.743S700
G1 X-1.666S0
G1 X-0.081Y0.05S0
G1 X1.666S0
G1 X0.925S700
G1 X1.667S0
G1 X0.059Y0.05S0
G1 X-1.666S0
G1 X-1.054S700
G1 X-1.666S0
G1 X-0.057Y0.05S0
G1 X1.667S0
G1 X1.169S700
G1 X1.667S0
G1 X0.059Y0.05S0
G1 X-1.666S0
G1 X-1.276S700
G1 X-1.667S0
G1 X-0.04Y0.05S0
G1 X1.667S0
G1 X1.351S700
G1 X1.666S0
G1 X0.033Y0.05S0
G1 X-1.666S0
G1 X-1.421S700
G1 X-1.667S0
G1 X-0.027Y0.05S0
G1 X1.667S0
G1 X1.481S700
G1 X1.666S0
G1 X0.033Y0.05S0
G1 X-1.666S0
G1 X-0.648S700
G1 X-0.244S0
G1 X-0.648S700
G1 X-1.667S0
G1 X-0.02Y0.05S0
G1 X1.667S0
G1 X0.601S700
G1 X0.385S0
G1 X0.596S700
G1 X1.667S0
G1 X0.015Y0.05S0
G1 X-1.667S0
G1 X-0.57S700
G1 X-0.459S0
G1 X-0.581S700
G1 X-1.666S0
G1 X-0.013Y0.05S0
G1 X1.667S0
G1 X0.561S700
G1 X0.525S0
G1 X0.551S700
G1 X1.667S0
G1 X0.015Y0.05S0
G1 X-1.667S0
G1 X-0.553S700
G1 X-0.559S0
G1 X-0.552S700
G1 X-1.667S0
G1 X-0.012Y0.05S0
G1 X1.666S0
G1 X0.544S700
G1 X0.593S0
G1 X0.555S700
G1 X1.667S0
G1 X0.011Y0.05S0
G1 X-1.667S0
G1 X-0.559S700
G1 X-0.616S0
G1 X-0.54S700
G1 X-1.667S0
G1 X-0.012Y0.05S0
G1 X1.667S0
G1 X0.54S700
G1 X0.634S0
G1 X0.561S700
G1 X1.667S0
G1 X0.008Y0.05S0
G1 X-1.667S0
G1 X-0.562S700
G1 X-0.652S0
G1 X-0.541S700
G1 X-1.667S0
G1 X-0.01Y0.05S0
G1 X1.667S0
G1 X0.548S700
G1 X0.661S0
G1 X0.564S700
G1 X1.666S0
G1 X0.008Y0.05S0
G1 X-1.667S0
G1 X-0.565S700
G1 X-0.669S0
G1 X-0.552S700
G1 X-1.667S0
G1 X-0.005Y0.05S0
G1 X1.667S0
G1 X0.555S700
G1 X0.677S0
G1 X0.567S700
G1 X1.667S0
G1 X0.008Y0.05S0
G1 X-1.667S0
G1 X-0.568S700
G1 X-0.685S0
G1 X-0.56S700
G1 X-1.667S0
G1 X-0.005Y0.05S0
G1 X1.667S0
G1 X0.564S700
G1 X0.689S0
G1 X0.573S700
G1 X1.666S0
G1 X0.007Y0.05S0
G1 X-1.667S0
G1 X-0.577S700
G1 X-0.692S0
G1 X-0.569S700
G1 X-1.667S0
G1 X-0.005Y0.05S0
G1 X1.667S0
G1 X0.572S700
G1 X0.696S0
G1 X0.576S700
G1 X1.667S0
G1 Y0.05S0
G1 X-1.666S0
G1 X-0.575S700
G1 X-0.699S0
G1 X-0.577S700
G1 X-1.667S0
G1 Y0.05S0
G1 X1.662S0
G1 X0.581S700
G1 X0.702S0
G1 X0.574S700
G1 X1.666S0
G1 Y0.05S0
G1 X-1.665S0
G1 X-0.572S700
G1 X-0.706S0
G1 X-0.579S700
G1 X-1.667S0
G1 Y0.05S0
G1 X1.668S0
G1 X0.577S700
G1 X0.709S0
G1 X0.57S700
G1 X1.667S0
G1 Y0.05S0
G1 X-1.666S0
G1 X-0.572S700
G1 X-0.71S0
G1 X-0.574S700
G1 X-1.666S0
G1 Y0.05S0
G1 X1.667S0
G1 X0.572S700
G1 X0.709S0
G1 X0.575S700
G1 X1.667S0
G1 Y0.05S0
G1 X-1.666S0
G1 X-0.578S700
G1 X-0.708S0
G1 X-0.57S700
G1 X-1.666S0
G1 Y0.05S0
G1 X1.667S0
G1 X0.572S700
G1 X0.704S0
G1 X0.574S700
G1 X1.667S0
G1 X-0.006Y0.05S0
G1 X-1.667S0
G1 X-0.57S700
G1 X-0.697S0
G1 X-0.576S700
G1 X-1.666S0
G1 Y0.05S0
G1 X1.667S0
G1 X0.58S700
G1 X0.69S0
G1 X0.566S700
G1 X1.667S0
G1 X-0.006Y0.05S0
G1 X-1.667S0
G1 X-0.562S700
G1 X-0.683S0
G1 X-0.578S700
G1 X-1.667S0
G1 X0.008Y0.05S0
G1 X1.666S0
G1 X0.576S700
G1 X0.674S0
G1 X0.56S700
G1 X1.667S0
G1 X-0.007Y0.05S0
G1 X-1.666S0
G1 X-0.56S700
G1 X-0.663S0
G1 X-0.573S700
G1 X-1.667S0
G1 X0.008Y0.05S0
G1 X1.667S0
G1 X0.57S700
G1 X0.652S0
G1 X0.56S700
G1 X1.666S0
G1 X-0.006Y0.05S0
G1 X-1.666S0
G1 X-0.56S700
G1 X-0.641S0
G1 X-0.568S700
G1 X-1.666S0
G1 X0.007Y0.05S0
G1 X1.667S0
G1 X0.565S700
G1 X0.63S0
G1 X0.556S700
G1 X1.667S0
G1 X-0.013Y0.05S0
G1 X-1.667S0
G1 X-0.548S700
G1 X-0.62S0
G1 X-0.562S700
G1 X-1.667S0
G1 X0.008Y0.05S0
G1 X1.666S0
G1 X0.56S700
G1 X0.609S0
G1 X0.541S700
G1 X1.666S0
G1 X-0.013Y0.05S0
G1 X-1.667S0
G1 X-0.537S700
G1 X-0.592S0
G1 X-0.555S700
G1 X-1.667S0
G1 X0.015Y0.05S0
G1 X1.667S0
G1 X0.552S700
G1 X0.568S0
G1 X0.536S700
G1 X1.667S0
G1 X-0.013Y0.05S0
G1 X-1.667S0
G1 X-0.543S700
G1 X-0.535S0
G1 X-0.55S700
G1 X-1.667S0
G1 X0.015Y0.05S0
G1 X1.667S0
G1 X0.571S700
G1 X0.465S0
G1 X0.564S700
G1 X1.666S0
G1 X-0.013Y0.05S0
G1 X-1.666S0
G1 X-0.599S700
G1 X-0.376S0
G1 X-0.597S700
G1 X-1.667S0
G1 X0.023Y0.05S0
G1 X1.667S0
G1 X0.649S700
G1 X0.228S0
G1 X0.654S700
G1 X1.667S0
G1 X-0.027Y0.05S0
G1 X-1.666S0
G1 X-1.472S700
G1 X-1.667S0
G1 X0.033Y0.05S0
G1 X1.667S0
G1 X1.412S700
G1 X1.667S0
G1 X-0.035Y0.05S0
G1 X-1.667S0
G1 X-1.344S700
G1 X-1.667S0
G1 X0.036Y0.05S0
G1 X1.666S0
G1 X1.27S700
G1 X1.667S0
G1 X-0.045Y0.05S0
G1 X-1.667S0
G1 X-1.165S700
G1 X-1.667S0
G1 X0.06Y0.05S0
G1 X1.667S0
G1 X1.049S700
G1 X1.666S0
G1 X-0.066Y0.05S0
G1 X-1.667S0
G1 X-0.923S700
G1 X-1.667S0
G1 X0.103Y0.05S0
G1 X1.667S0
G1 X0.739S700
G1 X1.666S0
G1 X-0.122Y0.05S0
G1 X-1.666S0
G1 X-0.501S700
G1 X-1.667S0
M9
G1 S0
M5
; return to starting pos
G0 X0.972Y-2.891
M2
