; LightBurn 1.2.01
; GRBL device profile, current position
; Bounds: X-1.67 Y0 to X2.92 Y2.86
G00 G17 G40 G21 G54
G91
M4
; Cut @ 5000 mm/min, 0% power
M8
G0 X0Y0
; Layer Lim
G1 X1S0F5000
; Scan @ 4000 mm/min, 70% power
M8
G0 X-1.958Y0.011
; Layer C02
G1 X1.667F4000S0
G1 X0.548S700
G1 X1.667S0
G1 Y0.05S0
G1 X-1.667S0
G1 X-0.548S700
G1 X-1.667S0
G1 Y0.05S0
G1 X1.667S0
G1 X0.548S700
G1 X1.667S0
G1 Y0.05S0
G1 X-1.667S0
G1 X-0.548S700
G1 X-1.667S0
G1 Y0.05S0
G1 X1.667S0
G1 X0.548S700
G1 X1.667S0
G1 Y0.05S0
G1 X-1.667S0
G1 X-0.548S700
G1 X-1.667S0
G1 Y0.05S0
G1 X1.667S0
G1 X0.548S700
G1 X1.667S0
G1 Y0.05S0
G1 X-1.667S0
G1 X-0.548S700
G1 X-1.667S0
G1 Y0.05S0
G1 X1.667S0
G1 X0.548S700
G1 X1.667S0
G1 Y0.05S0
G1 X-1.667S0
G1 X-0.548S700
G1 X-1.667S0
G1 Y0.05S0
G1 X1.667S0
G1 X0.548S700
G1 X1.667S0
G1 Y0.05S0
G1 X-1.667S0
G1 X-0.548S700
G1 X-1.667S0
G1 Y0.05S0
G1 X1.667S0
G1 X0.548S700
G1 X1.667S0
G1 Y0.05S0
G1 X-1.667S0
G1 X-0.548S700
G1 X-1.667S0
G1 Y0.05S0
G1 X1.667S0
G1 X0.548S700
G1 X1.667S0
G1 Y0.05S0
G1 X-1.667S0
G1 X-0.548S700
G1 X-1.667S0
G1 Y0.05S0
G1 X1.667S0
G1 X0.548S700
G1 X1.667S0
G1 Y0.05S0
G1 X-1.667S0
G1 X-0.548S700
G1 X-1.667S0
G1 Y0.05S0
G1 X1.667S0
G1 X0.548S700
G1 X1.667S0
G1 Y0.05S0
G1 X-1.667S0
G1 X-0.548S700
G1 X-1.667S0
G1 Y0.05S0
G1 X1.667S0
G1 X0.548S700
G1 X1.667S0
G1 Y0.05S0
G1 X-1.667S0
G1 X-0.548S700
G1 X-1.667S0
G1 Y0.05S0
G1 X1.667S0
G1 X0.548S700
G1 X1.667S0
G1 Y0.05S0
G1 X-1.667S0
G1 X-0.548S700
G1 X-1.667S0
G1 Y0.05S0
G1 X1.667S0
G1 X0.548S700
G1 X1.667S0
G1 Y0.05S0
G1 X-1.667S0
G1 X-0.548S700
G1 X-1.667S0
G1 Y0.05S0
G1 X1.667S0
G1 X0.548S700
G1 X1.667S0
G1 Y0.05S0
G1 X-1.667S0
G1 X-0.548S700
G1 X-1.667S0
G1 Y0.05S0
G1 X1.667S0
G1 X0.548S700
G1 X1.667S0
G1 Y0.05S0
G1 X-1.667S0
G1 X-0.548S700
G1 X-1.667S0
G1 Y0.05S0
G1 X1.667S0
G1 X0.548S700
G1 X1.667S0
G1 Y0.05S0
G1 X-1.667S0
G1 X-0.548S700
G1 X-1.667S0
G1 Y0.05S0
G1 X1.667S0
G1 X0.548S700
G1 X1.667S0
G1 Y0.05S0
G1 X-1.667S0
G1 X-0.548S700
G1 X-0.683S0
G1 X-0.026S700
G1 X-1.667S0
G1 Y0.05S0
G1 X1.667S0
G1 X0.157S700
G1 X0.552S0
G1 X0.548S700
G1 X1.667S0
G1 Y0.05S0
G1 X-1.667S0
G1 X-0.548S700
G1 X-0.446S0
G1 X-0.263S700
G1 X-1.667S0
G1 Y0.05S0
G1 X1.667S0
G1 X0.361S700
G1 X0.348S0
G1 X0.548S700
G1 X1.667S0
G1 Y0.05S0
G1 X-1.667S0
G1 X-0.548S700
G1 X-0.269S0
G1 X-0.44S700
G1 X-1.667S0
G1 Y0.05S0
G1 X1.667S0
G1 X0.516S700
G1 X0.193S0
G1 X0.548S700
G1 X1.667S0
G1 Y0.05S0
G1 X-1.667S0
G1 X-0.548S700
G1 X-0.126S0
G1 X-0.583S700
G1 X-1.667S0
G1 Y0.05S0
G1 X1.667S0
G1 X0.643S700
G1 X0.066S0
G1 X0.548S700
G1 X1.667S0
G1 Y0.05S0
G1 X-1.667S0
G1 X-0.548S700
G1 X-0.709
G1 X-1.667S0
G1 Y0.05S0
G1 X1.667S0
G1 X1.257S700
G1 X1.667S0
G1 Y0.05S0
G1 X-1.667S0
G1 X-1.23S700
G1 X-1.666S0
G1 X0.111Y0.05S0
G1 X1.667S0
G1 X1.118S700
G1 X1.667S0
G1 Y0.05S0
G1 X-1.667S0
G1 X-1.015S700
G1 X-1.667S0
G1 X0.075Y0.05S0
G1 X1.667S0
G1 X0.94S700
G1 X1.667S0
G1 Y0.05S0
G1 X-1.667S0
G1 X-0.865S700
G1 X-1.666S0
G1 X0.063Y0.05S0
G1 X1.667S0
G1 X0.801S700
G1 X1.667S0
G1 Y0.05S0
G1 X-1.667S0
G1 X-0.747S700
G1 X-1.667S0
G1 X0.053Y0.05S0
G1 X1.667S0
G1 X0.694S700
G1 X1.667S0
G1 Y0.05S0
G1 X-1.667S0
G1 X-0.643S700
G1 X-1.667S0
G1 X0.038Y0.05S0
G1 X1.667S0
G1 X0.605S700
G1 X1.667S0
G1 Y0.05S0
G1 X-1.667S0
G1 X-0.567S700
G1 X-1.666S0
G1 X0.038Y0.05S0
G1 X1.667S0
G1 X0.528S700
G1 X1.667S0
G1 Y0.05S0
G1 X-1.667S0
G1 X-0.495S700
G1 X-1.666S0
G1 X0.022Y0.05S0
G1 X1.667S0
G1 X0.472S700
G1 X1.667S0
G1 Y0.05S0
G1 X-1.667S0
G1 X-0.45S700
G1 X-1.667S0
M9
G1 S0
M5
; return to starting pos
G0 X0.86Y-2.861
M2
