; LightBurn 1.2.01
; GRBL device profile, current position
; Bounds: X-1.66 Y0 to X3.59 Y2.86
G00 G17 G40 G21 G54
G91
M4
; Cut @ 5000 mm/min, 0% power
M8
G0 X0Y0
; Layer Lim
G1 X1S0F5000
; Scan @ 4000 mm/min, 70% power
M8
G0 X-2.664Y0.011
; Layer C02
G1 X1.666F4000S0
G1 X1.921S700
G1 X1.667S0
G1 Y0.05S0
G1 X-1.667S0
G1 X-1.91S700
G1 X-1.667S0
G1 X0.011Y0.05S0
G1 X1.667S0
G1 X1.899S700
G1 X1.667S0
G1 Y0.05S0
G1 X-1.667S0
G1 X-1.889S700
G1 X-1.667S0
G1 X0.011Y0.05S0
G1 X1.667S0
G1 X1.878S700
G1 X1.667S0
G1 Y0.05S0
G1 X-1.667S0
G1 X-1.863S700
G1 X-1.667S0
G1 X0.02Y0.05S0
G1 X1.667S0
G1 X1.843S700
G1 X1.667S0
G1 Y0.05S0
G1 X-1.667S0
G1 X-1.824S700
G1 X-1.666S0
G1 X0.019Y0.05S0
G1 X1.667S0
G1 X1.804S700
G1 X1.667S0
G1 Y0.05S0
G1 X-1.667S0
G1 X-1.784S700
G1 X-1.667S0
G1 X0.031Y0.05S0
G1 X1.666S0
G1 X0.666S700
G1 X1.667S0
G1 X0.033Y0.05S0
G1 X-1.667S0
G1 X-0.669S700
G1 X-1.666S0
G1 X0.03Y0.05S0
G1 X1.667S0
G1 X0.679S700
G1 X1.667S0
G1 X0.047Y0.05S0
G1 X-1.667S0
G1 X-0.696S700
G1 X-1.667S0
G1 X0.042Y0.05S0
G1 X1.667S0
G1 X0.702S700
G1 X1.667S0
G1 X0.047Y0.05S0
G1 X-1.666S0
G1 X-0.707S700
G1 X-1.667S0
G1 X0.043Y0.05S0
G1 X1.667S0
G1 X0.711S700
G1 X1.667S0
G1 X0.047Y0.05S0
G1 X-1.666S0
G1 X-0.715S700
G1 X-1.667S0
G1 X0.048Y0.05S0
G1 X1.667S0
G1 X0.714S700
G1 X1.667S0
G1 X0.05Y0.05S0
G1 X-1.667S0
G1 X-0.717S700
G1 X-1.666S0
G1 X0.047Y0.05S0
G1 X1.667S0
G1 X0.722S700
G1 X1.667S0
G1 X0.053Y0.05S0
G1 X-1.667S0
G1 X-0.724S700
G1 X-1.667S0
G1 X0.053Y0.05S0
G1 X1.667S0
G1 X0.724S700
G1 X1.667S0
G1 X0.053Y0.05S0
G1 X-1.667S0
G1 X-0.725S700
G1 X-1.666S0
G1 X0.053Y0.05S0
G1 X1.666S0
G1 X0.725S700
G1 X1.667S0
G1 X0.053Y0.05S0
G1 X-1.667S0
G1 X-0.725S700
G1 X-1.666S0
G1 X0.051Y0.05S0
G1 X1.667S0
G1 X0.718S700
G1 X1.667S0
G1 X0.04Y0.05S0
G1 X-1.667S0
G1 X-0.708S700
G1 X-1.666S0
G1 X0.05Y0.05S0
G1 X1.667S0
G1 X0.693S700
G1 X1.667S0
G1 X0.036Y0.05S0
G1 X-1.667S0
G1 X-0.678S700
G1 X-1.667S0
G1 X0.051Y0.05S0
G1 X1.667S0
G1 X0.663S700
G1 X1.667S0
G1 X0.036Y0.05S0
G1 X-1.667S0
G1 X-0.65S700
G1 X-1.666S0
G1 X0.049Y0.05S0
G1 X1.667S0
G1 X0.622S700
G1 X1.667S0
G1 X0.018Y0.05S0
G1 X-1.666S0
G1 X-0.598S700
G1 X-1.666S0
G1 X0.029Y0.05S0
G1 X1.667S0
G1 X0.586S700
G1 X1.667S0
G1 X0.018Y0.05S0
G1 X-1.667S0
G1 X-0.575S700
G1 X-1.666S0
G1 X0.023Y0.05S0
G1 X1.667S0
G1 X0.569S700
G1 X1.667S0
G1 X0.01Y0.05S0
G1 X-1.666S0
G1 X-0.565S700
G1 X-1.667S0
G1 X0.015Y0.05S0
G1 X1.667S0
G1 X0.554S700
G1 X1.666S0
G1 Y0.05S0
G1 X-1.662S0
G1 X-0.546S700
G1 X-1.666S0
G1 X-1.148Y0.05S0
G1 X1.666S0
G1 X0.405S700
G1 X0.745S0
G1 X0.548S700
G1 X1.666S0
G1 Y0.05S0
G1 X-1.662S0
G1 X-0.55S700
G1 X-0.741S0
G1 X-0.551S700
G1 X-1.667S0
G1 X0.009Y0.05S0
G1 X1.667S0
G1 X0.552S700
G1 X0.733S0
G1 X0.552S700
G1 X1.666S0
G1 X-0.01Y0.05S0
G1 X-1.666S0
G1 X-0.553S700
G1 X-0.708S0
G1 X-0.558S700
G1 X-1.666S0
G1 X0.008Y0.05S0
G1 X1.667S0
G1 X0.562S700
G1 X0.679S0
G1 X0.559S700
G1 X1.667S0
G1 X-0.01Y0.05S0
G1 X-1.667S0
G1 X-0.572S700
G1 X-0.621S0
G1 X-0.582S700
G1 X-1.667S0
G1 X0.018Y0.05S0
G1 X1.667S0
G1 X0.602S700
G1 X0.541S0
G1 X0.604S700
G1 X1.667S0
G1 X-0.01Y0.05S0
G1 X-1.666S0
G1 X-0.654S700
G1 X-0.413S0
G1 X-0.654S700
G1 X-1.667S0
G1 X0.018Y0.05S0
G1 X1.667S0
G1 X0.79S700
G1 X0.114S0
G1 X0.778S700
G1 X1.666S0
G1 X-0.034Y0.05S0
G1 X-1.666S0
G1 X-1.612S700
G1 X-1.667S0
G1 X0.038Y0.05S0
G1 X1.666S0
G1 X1.541S700
G1 X1.667S0
G1 X-0.034Y0.05S0
G1 X-1.667S0
G1 X-1.469S700
G1 X-1.667S0
G1 X0.038Y0.05S0
G1 X1.666S0
G1 X1.394S700
G1 X1.667S0
G1 X-0.063Y0.05S0
G1 X-1.667S0
G1 X-1.268S700
G1 X-1.667S0
G1 X0.067Y0.05S0
G1 X1.667S0
G1 X1.138S700
G1 X1.667S0
G1 X-0.064Y0.05S0
G1 X-1.666S0
G1 X-1.007S700
G1 X-1.667S0
G1 X0.124Y0.05S0
G1 X1.667S0
G1 X0.757S700
G1 X1.666S0
G1 X-0.198Y0.05S0
G1 X-1.667S0
G1 X-0.361S700
G1 X-1.666S0
M9
G1 S0
M5
; return to starting pos
G0 X0.834Y-2.861
M2
