; LightBurn 1.2.01
; GRBL device profile, current position
; Bounds: X-1.66 Y0.04 to X3.56 Y2.89
G00 G17 G40 G21 G54
G91
M4
; Cut @ 5000 mm/min, 0% power
M8
G0 X0Y0.049
; Layer Lim
G1 X1S0F5000
; Scan @ 4000 mm/min, 70% power
M8
G0 X-1.985Y-0.011
; Layer C02
G1 X1.666F4000S0
G1 X0.535S700
G1 X1.667S0
G1 X0.154Y0.05S0
G1 X-1.667S0
G1 X-0.846S700
G1 X-1.666S0
G1 X-0.098Y0.05S0
G1 X1.667S0
G1 X1.037S700
G1 X1.667S0
G1 X0.077Y0.05S0
G1 X-1.667S0
G1 X-1.181S700
G1 X-1.666S0
G1 X-0.067Y0.05S0
G1 X1.667S0
G1 X1.304S700
G1 X1.667S0
G1 X0.057Y0.05S0
G1 X-1.667S0
G1 X-1.422S700
G1 X-1.667S0
G1 X-0.033Y0.05S0
G1 X1.666S0
G1 X1.496S700
G1 X1.667S0
G1 X0.036Y0.05S0
G1 X-1.667S0
G1 X-1.566S700
G1 X-1.666S0
G1 X-0.034Y0.05S0
G1 X1.667S0
G1 X1.635S700
G1 X1.666S0
G1 X0.029Y0.05S0
G1 X-1.666S0
G1 X-0.702S700
G1 X-0.304S0
G1 X-0.692S700
G1 X-1.667S0
G1 X-0.026Y0.05S0
G1 X1.666S0
G1 X0.629S700
G1 X0.452S0
G1 X0.664S700
G1 X1.667S0
G1 X0.02Y0.05S0
G1 X-1.667S0
G1 X-0.625S700
G1 X-0.56S0
G1 X-0.593S700
G1 X-1.666S0
G1 X-0.014Y0.05S0
G1 X1.667S0
G1 X0.565S700
G1 X0.64S0
G1 X0.607S700
G1 X1.666S0
G1 X0.013Y0.05S0
G1 X-1.667S0
G1 X-0.591S700
G1 X-0.692S0
G1 X-0.554S700
G1 X-1.667S0
G1 X-0.013Y0.05S0
G1 X1.667S0
G1 X0.542S700
G1 X0.745S0
G1 X0.571S700
G1 X1.666S0
G1 X0.008Y0.05S0
G1 X-1.667S0
G1 X-0.561S700
G1 X-0.774S0
G1 X-0.543S700
G1 X-1.667S0
G1 X0.236Y0.05S0
G1 X1.666S0
G1 X0.298S700
G1 X0.792S0
G1 X0.561S700
G1 X1.667S0
G1 Y0.05S0
G1 X-1.666S0
G1 X-0.554S700
G1 X-1.667S0
G1 X0.008Y0.05S0
G1 X1.667S0
G1 X0.542S700
G1 X1.667S0
G1 Y0.05S0
G1 X-1.671S0
G1 X-0.548S700
G1 X-1.667S0
G1 X-0.01Y0.05S0
G1 X1.667S0
G1 X0.554S700
G1 X1.667S0
G1 X-0.011Y0.05S0
G1 X-1.666S0
G1 X-0.555S700
G1 X-1.666S0
G1 X-0.018Y0.05S0
G1 X1.667S0
G1 X0.556S700
G1 X1.666S0
G1 X-0.016Y0.05S0
G1 X-1.666S0
G1 X-0.568S700
G1 X-1.667S0
G1 X-0.027Y0.05S0
G1 X1.666S0
G1 X0.58S700
G1 X1.667S0
G1 X-0.029Y0.05S0
G1 X-1.667S0
G1 X-0.606S700
G1 X-1.667S0
G1 X-0.062Y0.05S0
G1 X1.667S0
G1 X0.633S700
G1 X1.667S0
G1 X-0.041Y0.05S0
G1 X-1.666S0
G1 X-1.008S700
G1 X-1.667S0
G1 X0.007Y0.05S0
G1 X1.667S0
G1 X0.946S700
G1 X1.666S0
G1 X-0.065Y0.05S0
G1 X-1.666S0
G1 X-0.874S700
G1 X-1.667S0
G1 X0.007Y0.05S0
G1 X1.666S0
G1 X0.78S700
G1 X1.667S0
G1 X-0.151Y0.05S0
G1 X-1.666S0
G1 X-0.623S700
G1 X-1.667S0
G1 X0.007Y0.05S0
G1 X1.667S0
G1 X0.69S700
G1 X1.667S0
G1 X0.074Y0.05S0
G1 X-1.667S0
G1 X-0.757S700
G1 X-1.667S0
G1 X0.007Y0.05S0
G1 X1.666S0
G1 X0.807S700
G1 X1.666S0
G1 X0.042Y0.05S0
G1 X-1.666S0
G1 X-0.791S700
G1 X-1.667S0
G1 X0.217Y0.05S0
G1 X1.666S0
G1 X0.616S700
G1 X1.667S0
G1 X0.042Y0.05S0
G1 X-1.667S0
G1 X-0.586S700
G1 X-1.666S0
G1 X0.041Y0.05S0
G1 X1.667S0
G1 X0.563S700
G1 X1.666S0
G1 X0.017Y0.05S0
G1 X-1.667S0
G1 X-0.547S700
G1 X-1.667S0
G1 X0.023Y0.05S0
G1 X1.666S0
G1 X0.542S700
G1 X1.667S0
G1 X0.017Y0.05S0
G1 X-1.667S0
G1 X-0.55S700
G1 X-1.666S0
G1 X-0.953Y0.05S0
G1 X1.667S0
G1 X0.298S700
G1 X0.663S0
G1 X0.547S700
G1 X1.666S0
G1 Y0.05S0
G1 X-1.669S0
G1 X-0.544S700
G1 X-0.652S0
G1 X-0.522S700
G1 X-1.666S0
G1 X0.014Y0.05S0
G1 X1.667S0
G1 X0.526S700
G1 X0.627S0
G1 X0.548S700
G1 X1.667S0
G1 Y0.05S0
G1 X-1.669S0
G1 X-0.562S700
G1 X-0.591S0
G1 X-0.532S700
G1 X-1.667S0
G1 X0.014Y0.05S0
G1 X1.667S0
G1 X0.554S700
G1 X0.529S0
G1 X0.586S700
G1 X1.666S0
G1 X-0.021Y0.05S0
G1 X-1.667S0
G1 X-0.609S700
G1 X-0.436S0
G1 X-0.588S700
G1 X-1.666S0
G1 X0.018Y0.05S0
G1 X1.667S0
G1 X0.657S700
G1 X0.276S0
G1 X0.658S700
G1 X1.667S0
G1 X-0.022Y0.05S0
G1 X-1.667S0
G1 X-1.547S700
G1 X-1.667S0
G1 X0.026Y0.05S0
G1 X1.667S0
G1 X1.499S700
G1 X1.666S0
G1 X-0.038Y0.05S0
G1 X-1.666S0
G1 X-1.428S700
G1 X-1.667S0
G1 X0.038Y0.05S0
G1 X1.666S0
G1 X1.344S700
G1 X1.666S0
G1 X-0.047Y0.05S0
G1 X-1.667S0
G1 X-1.249S700
G1 X-1.666S0
G1 X0.058Y0.05S0
G1 X1.666S0
G1 X1.123S700
G1 X1.667S0
G1 X-0.069Y0.05S0
G1 X-1.666S0
G1 X-0.986S700
G1 X-1.666S0
G1 X0.102Y0.05S0
G1 X1.667S0
G1 X0.78S700
G1 X1.667S0
G1 X-0.14Y0.05S0
G1 X-1.667S0
G1 X-0.501S700
G1 X-1.666S0
M9
G1 S0
M5
; return to starting pos
G0 X1.012Y-2.888
M2
