; LightBurn 1.2.01
; GRBL device profile, current position
; Bounds: X-1.67 Y0 to X3.72 Y2.86
G00 G17 G40 G21 G54
G91
M4
; Cut @ 5000 mm/min, 0% power
M8
G0 X0Y0
; Layer Lim
G1 X1S0F5000
; Scan @ 4000 mm/min, 70% power
M8
G0 X-1.496Y0.011
; Layer C02
G1 X1.667F4000S0
G1 X0.531S700
G1 X1.667S0
G1 Y0.05S0
G1 X-1.667S0
G1 X-0.531S700
G1 X-1.667S0
G1 Y0.05S0
G1 X1.667S0
G1 X0.531S700
G1 X1.667S0
G1 Y0.05S0
G1 X-1.667S0
G1 X-0.531S700
G1 X-1.667S0
G1 Y0.05S0
G1 X1.667S0
G1 X0.531S700
G1 X1.667S0
G1 Y0.05S0
G1 X-1.667S0
G1 X-0.531S700
G1 X-1.667S0
G1 Y0.05S0
G1 X1.667S0
G1 X0.531S700
G1 X1.667S0
G1 Y0.05S0
G1 X-1.667S0
G1 X-0.531S700
G1 X-1.667S0
G1 Y0.05S0
G1 X1.667S0
G1 X0.531S700
G1 X1.667S0
G1 Y0.05S0
G1 X-1.667S0
G1 X-0.531S700
G1 X-1.667S0
G1 Y0.05S0
G1 X1.667S0
G1 X0.531S700
G1 X1.667S0
G1 Y0.05S0
G1 X-1.667S0
G1 X-0.531S700
G1 X-1.667S0
G1 X-1.171Y0.05S0
G1 X1.667S0
G1 X2.057S700
G1 X1.667S0
G1 Y0.05S0
G1 X-1.667S0
G1 X-2.057S700
G1 X-1.667S0
G1 Y0.05S0
G1 X1.667S0
G1 X2.057S700
G1 X1.667S0
G1 Y0.05S0
G1 X-1.667S0
G1 X-2.057S700
G1 X-1.667S0
G1 Y0.05S0
G1 X1.667S0
G1 X2.057S700
G1 X1.667S0
G1 Y0.05S0
G1 X-1.667S0
G1 X-2.057S700
G1 X-1.667S0
G1 Y0.05S0
G1 X1.667S0
G1 X2.057S700
G1 X1.667S0
G1 Y0.05S0
G1 X-1.667S0
G1 X-2.057S700
G1 X-1.667S0
G1 Y0.05S0
G1 X1.667S0
G1 X2.057S700
G1 X1.667S0
G1 X-0.355Y0.05S0
G1 X-1.667S0
G1 X-0.531S700
G1 X-0.655S0
G1 X-0.512S700
G1 X-1.667S0
G1 X0.034Y0.05S0
G1 X1.667S0
G1 X0.511S700
G1 X0.622S0
G1 X0.531S700
G1 X1.667S0
G1 Y0.05S0
G1 X-1.667S0
G1 X-0.531S700
G1 X-0.588S0
G1 X-0.511S700
G1 X-1.667S0
G1 X0.034Y0.05S0
G1 X1.667S0
G1 X0.511S700
G1 X0.554S0
G1 X0.531S700
G1 X1.667S0
G1 Y0.05S0
G1 X-1.667S0
G1 X-0.531S700
G1 X-0.521S0
G1 X-0.51S700
G1 X-1.666S0
G1 X0.034Y0.05S0
G1 X1.666S0
G1 X0.51S700
G1 X0.487S0
G1 X0.531S700
G1 X1.667S0
G1 Y0.05S0
G1 X-1.667S0
G1 X-0.531S700
G1 X-0.453S0
G1 X-0.509S700
G1 X-1.667S0
G1 X0.034Y0.05S0
G1 X1.667S0
G1 X0.508S700
G1 X0.42S0
G1 X0.531S700
G1 X1.667S0
G1 Y0.05S0
G1 X-1.667S0
G1 X-0.531S700
G1 X-0.386S0
G1 X-0.508S700
G1 X-1.667S0
G1 X0.034Y0.05S0
G1 X1.667S0
G1 X0.507S700
G1 X0.353S0
G1 X0.531S700
G1 X1.667S0
G1 Y0.05S0
G1 X-1.667S0
G1 X-0.531S700
G1 X-0.319S0
G1 X-0.507S700
G1 X-1.667S0
G1 X0.035Y0.05S0
G1 X1.666S0
G1 X0.507S700
G1 X0.285S0
G1 X0.531S700
G1 X1.667S0
G1 Y0.05S0
G1 X-1.667S0
G1 X-0.531S700
G1 X-0.252S0
G1 X-0.506S700
G1 X-1.666S0
G1 X0.034Y0.05S0
G1 X1.667S0
G1 X0.505S700
G1 X0.218S0
G1 X0.531S700
G1 X1.667S0
G1 Y0.05S0
G1 X-1.667S0
G1 X-0.531S700
G1 X-0.184S0
G1 X-0.505S700
G1 X-1.667S0
G1 X0.034Y0.05S0
G1 X1.667S0
G1 X0.504S700
G1 X0.151S0
G1 X0.531S700
G1 X1.667S0
G1 Y0.05S0
G1 X-1.667S0
G1 X-0.531S700
G1 X-0.117S0
G1 X-0.504S700
G1 X-1.667S0
G1 X0.035Y0.05S0
G1 X1.666S0
G1 X0.504S700
G1 X0.083S0
G1 X0.531S700
G1 X1.667S0
G1 Y0.05S0
G1 X-1.667S0
G1 X-0.531S700
G1 X-0.05S0
G1 X-0.503S700
G1 X-1.666S0
G1 X0.034Y0.05S0
G1 X1.667S0
G1 X0.502S700
G1 X0.016S0
G1 X0.531S700
G1 X1.667S0
G1 Y0.05S0
G1 X-1.667S0
G1 X-1.015S700
G1 X-1.667S0
G1 X0.034Y0.05S0
G1 X1.667S0
G1 X0.981S700
G1 X1.667S0
G1 Y0.05S0
G1 X-1.667S0
G1 X-0.947S700
G1 X-1.667S0
G1 X0.034Y0.05S0
G1 X1.667S0
G1 X0.913S700
G1 X1.667S0
G1 Y0.05S0
G1 X-1.667S0
G1 X-0.879S700
G1 X-1.666S0
G1 X0.034Y0.05S0
G1 X1.666S0
G1 X0.845S700
G1 X1.667S0
G1 Y0.05S0
G1 X-1.667S0
G1 X-0.81S700
G1 X-1.667S0
G1 X0.034Y0.05S0
G1 X1.667S0
G1 X0.776S700
G1 X1.667S0
G1 Y0.05S0
G1 X-1.667S0
G1 X-0.742S700
G1 X-1.667S0
G1 X0.034Y0.05S0
G1 X1.667S0
G1 X0.708S700
G1 X1.667S0
G1 Y0.05S0
G1 X-1.667S0
G1 X-0.674S700
G1 X-1.666S0
G1 X0.034Y0.05S0
G1 X1.666S0
G1 X0.64S700
G1 X1.667S0
G1 Y0.05S0
G1 X-1.667S0
G1 X-0.605S700
G1 X-1.667S0
G1 X0.034Y0.05S0
G1 X1.667S0
G1 X0.571S700
G1 X1.667S0
G1 Y0.05S0
G1 X-1.667S0
G1 X-0.537S700
G1 X-1.667S0
G1 X0.034Y0.05S0
G1 X1.667S0
G1 X0.503S700
G1 X1.667S0
G1 Y0.05S0
G1 X-1.667S0
G1 X-0.469S700
G1 X-1.667S0
M9
G1 S0
M5
; return to starting pos
G0 X0.434Y-2.861
M2
