; LightBurn 1.2.01
; GRBL device profile, current position
; Bounds: X-1.66 Y0.01 to X3.6 Y2.86
G00 G17 G40 G21 G54
G91
M4
; Cut @ 5000 mm/min, 0% power
M8
G0 X0Y0.049
; Layer Lim
G1 X1S0F5000
; Scan @ 4000 mm/min, 70% power
M8
G0 X-1.867Y-0.039
; Layer C02
G1 X1.667F4000S0
G1 X0.262S700
G1 X1.667S0
G1 X0.216Y0.05S0
G1 X-1.666S0
G1 X-0.681S700
G1 X-1.667S0
G1 X-0.141Y0.05S0
G1 X1.666S0
G1 X0.938S700
G1 X1.667S0
G1 X0.081Y0.05S0
G1 X-1.667S0
G1 X-1.087S700
G1 X-1.667S0
G1 X-0.069Y0.05S0
G1 X1.667S0
G1 X1.229S700
G1 X1.666S0
G1 X0.055Y0.05S0
G1 X-1.667S0
G1 X-1.352S700
G1 X-1.666S0
G1 X-0.039Y0.05S0
G1 X1.667S0
G1 X1.445S700
G1 X1.667S0
G1 X0.041Y0.05S0
G1 X-1.667S0
G1 X-1.521S700
G1 X-1.667S0
G1 X-0.035Y0.05S0
G1 X1.667S0
G1 X1.594S700
G1 X1.666S0
G1 X0.038Y0.05S0
G1 X-1.667S0
G1 X-0.699S700
G1 X-0.241S0
G1 X-0.726S700
G1 X-1.667S0
G1 X-0.03Y0.05S0
G1 X1.666S0
G1 X0.657S700
G1 X0.433S0
G1 X0.635S700
G1 X1.666S0
G1 X0.025Y0.05S0
G1 X-1.667S0
G1 X-0.618S700
G1 X-0.532S0
G1 X-0.613S700
G1 X-1.666S0
G1 X-0.014Y0.05S0
G1 X1.666S0
G1 X0.587S700
G1 X0.605S0
G1 X0.61S700
G1 X1.667S0
G1 X0.02Y0.05S0
G1 X-1.667S0
G1 X-0.597S700
G1 X-0.671S0
G1 X-0.567S700
G1 X-1.667S0
G1 X-0.014Y0.05S0
G1 X1.667S0
G1 X0.559S700
G1 X0.726S0
G1 X0.578S700
G1 X1.667S0
G1 X0.014Y0.05S0
G1 X-1.667S0
G1 X-0.577S700
G1 X-0.759S0
G1 X-0.555S700
G1 X-1.667S0
G1 X0.245Y0.05S0
G1 X1.666S0
G1 X0.302S700
G1 X0.781S0
G1 X0.578S700
G1 X1.667S0
G1 X0.006Y0.05S0
G1 X-1.666S0
G1 X-0.573S700
G1 X-1.667S0
G1 X0.012Y0.05S0
G1 X1.667S0
G1 X0.565S700
G1 X1.666S0
G1 Y0.05S0
G1 X-1.662S0
G1 X-0.562S700
G1 X-1.667S0
G1 Y0.05S0
G1 X1.662S0
G1 X0.571S700
G1 X1.666S0
G1 Y0.05S0
G1 X-1.671S0
G1 X-0.571S700
G1 X-1.666S0
G1 X-0.005Y0.05S0
G1 X1.667S0
G1 X0.569S700
G1 X1.667S0
G1 X-0.006Y0.05S0
G1 X-1.666S0
G1 X-0.569S700
G1 X-1.667S0
G1 X-0.017Y0.05S0
G1 X1.667S0
G1 X0.58S700
G1 X1.667S0
G1 X-0.012Y0.05S0
G1 X-1.666S0
G1 X-0.593S700
G1 X-1.666S0
G1 X-0.024Y0.05S0
G1 X1.667S0
G1 X0.604S700
G1 X1.667S0
G1 X-0.011Y0.05S0
G1 X-1.667S0
G1 X-0.617S700
G1 X-0.701S0
G1 X-0.346S700
G1 X-1.666S0
G1 X-0.139Y0.05S0
G1 X1.666S0
G1 X0.539S700
G1 X0.608S0
G1 X0.636S700
G1 X1.666S0
G1 X-0.021Y0.05S0
G1 X-1.667S0
G1 X-0.688S700
G1 X-0.452S0
G1 X-0.611S700
G1 X-1.667S0
G1 X0.009Y0.05S0
G1 X1.667S0
G1 X0.723S700
G1 X0.204S0
G1 X0.794S700
G1 X1.666S0
G1 X-0.033Y0.05S0
G1 X-1.667S0
G1 X-1.677S700
G1 X-1.667S0
G1 X0.009Y0.05S0
G1 X1.667S0
G1 X1.635S700
G1 X1.667S0
G1 X-0.04Y0.05S0
G1 X-1.667S0
G1 X-1.586S700
G1 X-1.666S0
G1 X0.009Y0.05S0
G1 X1.667S0
G1 X1.529S700
G1 X1.666S0
G1 X-0.052Y0.05S0
G1 X-1.667S0
G1 X-1.467S700
G1 X-1.666S0
G1 X0.009Y0.05S0
G1 X1.667S0
G1 X1.389S700
G1 X1.666S0
G1 X-0.083Y0.05S0
G1 X-1.667S0
G1 X-1.296S700
G1 X-1.667S0
G1 X0.01Y0.05S0
G1 X1.667S0
G1 X0.517S700
G1 X0.098S0
G1 X0.563S700
G1 X1.666S0
G1 X-0.261Y0.05S0
G1 X-1.667S0
G1 X-0.054S700
G1 X-0.336S0
G1 X-0.517S700
G1 X-1.667S0
G1 X0.01Y0.05S0
G1 X1.666S0
G1 X0.517S700
G1 X1.667S0
G1 X0.009Y0.05S0
G1 X-1.667S0
G1 X-0.516S700
G1 X-1.667S0
G1 X0.01Y0.05S0
G1 X1.666S0
G1 X0.516S700
G1 X1.666S0
G1 X0.009Y0.05S0
G1 X-1.666S0
G1 X-0.515S700
G1 X-1.667S0
G1 X0.01Y0.05S0
G1 X1.666S0
G1 X0.514S700
G1 X1.667S0
G1 X0.009Y0.05S0
G1 X-1.667S0
G1 X-0.513S700
G1 X-1.667S0
G1 X0.009Y0.05S0
G1 X1.667S0
G1 X0.513S700
G1 X1.667S0
G1 X1.043Y0.05S0
G1 X-1.667S0
G1 X-1.547S700
G1 X-1.666S0
G1 X0.009Y0.05S0
G1 X1.667S0
G1 X1.537S700
G1 X1.667S0
G1 Y0.05S0
G1 X-1.667S0
G1 X-1.528S700
G1 X-1.666S0
G1 X0.009Y0.05S0
G1 X1.667S0
G1 X1.518S700
G1 X1.667S0
G1 Y0.05S0
G1 X-1.667S0
G1 X-1.509S700
G1 X-1.666S0
G1 X0.009Y0.05S0
G1 X1.667S0
G1 X1.499S700
G1 X1.667S0
G1 Y0.05S0
G1 X-1.667S0
G1 X-1.49S700
G1 X-1.667S0
G1 X0.01Y0.05S0
G1 X1.667S0
G1 X1.48S700
G1 X1.667S0
G1 Y0.05S0
G1 X-1.667S0
G1 X-1.471S700
G1 X-1.667S0
G1 X0.01Y0.05S0
G1 X1.666S0
G1 X1.462S700
G1 X1.667S0
G1 Y0.05S0
G1 X-1.667S0
G1 X-1.452S700
G1 X-1.667S0
M9
G1 S0
M5
; return to starting pos
G0 X1.321Y-2.86
M2
