; LightBurn 1.2.01
; GRBL device profile, current position
; Bounds: X-1.67 Y0.04 to X3.58 Y2.89
G00 G17 G40 G21 G54
G91
M4
; Cut @ 5000 mm/min, 0% power
M8
G0 X0.002Y0.052
; Layer Lim
G1 X1S0F5000
; Scan @ 4000 mm/min, 70% power
M8
G0 X-1.936Y-0.014
; Layer C02
G1 X1.667F4000S0
G1 X0.513S700
G1 X1.667S0
G1 X0.14Y0.05S0
G1 X-1.667S0
G1 X-0.782S700
G1 X-1.667S0
G1 X-0.089Y0.05S0
G1 X1.666S0
G1 X0.97S700
G1 X1.667S0
G1 X0.068Y0.05S0
G1 X-1.667S0
G1 X-1.114S700
G1 X-1.667S0
G1 X-0.057Y0.05S0
G1 X1.666S0
G1 X1.238S700
G1 X1.666S0
G1 X0.047Y0.05S0
G1 X-1.667S0
G1 X-1.338S700
G1 X-1.666S0
G1 X-0.041Y0.05S0
G1 X1.666S0
G1 X1.425S700
G1 X1.667S0
G1 X0.037Y0.05S0
G1 X-1.667S0
G1 X-1.503S700
G1 X-1.666S0
G1 X-0.031Y0.05S0
G1 X1.667S0
G1 X1.565S700
G1 X1.667S0
G1 X0.031Y0.05S0
G1 X-1.666S0
G1 X-0.651S700
G1 X-0.257S0
G1 X-0.718S700
G1 X-1.666S0
G1 X-0.028Y0.05S0
G1 X1.667S0
G1 X0.654S700
G1 X0.407S0
G1 X0.613S700
G1 X1.667S0
G1 X0.02Y0.05S0
G1 X-1.666S0
G1 X-0.579S700
G1 X-0.513S0
G1 X-0.617S700
G1 X-1.667S0
G1 X-0.014Y0.05S0
G1 X1.667S0
G1 X0.584S700
G1 X0.592S0
G1 X0.567S700
G1 X1.666S0
G1 X0.012Y0.05S0
G1 X-1.667S0
G1 X-0.546S700
G1 X-0.651S0
G1 X-0.571S700
G1 X-1.667S0
G1 X-0.013Y0.05S0
G1 X1.666S0
G1 X0.557S700
G1 X0.695S0
G1 X0.541S700
G1 X1.666S0
G1 X0.011Y0.05S0
G1 X-1.667S0
G1 X-0.537S700
G1 X-0.723S0
G1 X-0.557S700
G1 X-1.666S0
G1 X-0.014Y0.05S0
G1 X1.666S0
G1 X0.561S700
G1 X0.744S0
G1 X0.53S700
G1 X1.667S0
G1 Y0.05S0
G1 X-1.666S0
G1 X-0.532S700
G1 X-0.754S0
G1 X-0.564S700
G1 X-1.666S0
G1 X-0.012Y0.05S0
G1 X1.667S0
G1 X0.57S700
G1 X0.757S0
G1 X0.535S700
G1 X1.667S0
G1 Y0.05S0
G1 X-1.666S0
G1 X-0.536S700
G1 X-0.763S0
G1 X-0.571S700
G1 X-1.666S0
G1 X-0.007Y0.05S0
G1 X1.667S0
G1 X0.571S700
G1 X0.768S0
G1 X0.536S700
G1 X1.666S0
G1 Y0.05S0
G1 X-1.667S0
G1 X-0.535S700
G1 X-0.76S0
G1 X-0.585S700
G1 X-1.667S0
G1 X-0.006Y0.05S0
G1 X1.666S0
G1 X0.599S700
G1 X0.743S0
G1 X0.542S700
G1 X1.667S0
G1 X-0.01Y0.05S0
G1 X-1.667S0
G1 X-0.544S700
G1 X-0.722S0
G1 X-0.614S700
G1 X-1.667S0
G1 X-0.006Y0.05S0
G1 X1.667S0
G1 X0.642S700
G1 X0.684S0
G1 X0.55S700
G1 X1.667S0
G1 X-0.011Y0.05S0
G1 X-1.667S0
G1 X-0.564S700
G1 X-0.637S0
G1 X-0.671S700
G1 X-1.666S0
G1 Y0.05S0
G1 X1.662S0
G1 X0.703S700
G1 X0.583S0
G1 X0.571S700
G1 X1.667S0
G1 X-0.02Y0.05S0
G1 X-1.666S0
G1 X-0.593S700
G1 X-0.501S0
G1 X-0.743S700
G1 X-1.666S0
G1 Y0.05S0
G1 X1.667S0
G1 X0.784S700
G1 X0.414S0
G1 X0.615S700
G1 X1.667S0
G1 X-0.03Y0.05S0
G1 X-1.667S0
G1 X-0.679S700
G1 X-0.224S0
G1 X-0.879S700
G1 X-1.666S0
G1 Y0.05S0
G1 X1.667S0
G1 X1.751S700
G1 X1.667S0
G1 X-0.039Y0.05S0
G1 X-1.667S0
G1 X-1.711S700
G1 X-1.666S0
G1 Y0.05S0
G1 X1.667S0
G1 X1.667S700
G1 X1.667S0
G1 X-0.05Y0.05S0
G1 X-1.667S0
G1 X-1.033S700
G1 X-0.02S0
G1 X-0.563S700
G1 X-1.666S0
G1 Y0.05S0
G1 X1.669S0
G1 X0.562S700
G1 X0.072S0
G1 X0.918S700
G1 X1.667S0
G1 X-0.073Y0.05S0
G1 X-1.667S0
G1 X-0.79S700
G1 X-0.125S0
G1 X-0.555S700
G1 X-1.667S0
G1 X0.008Y0.05S0
G1 X1.667S0
G1 X0.549S700
G1 X0.215S0
G1 X0.61S700
G1 X1.666S0
G1 X-0.138Y0.05S0
G1 X-1.667S0
G1 X-0.341S700
G1 X-0.337S0
G1 X-0.549S700
G1 X-1.666S0
G1 X0.008Y0.05S0
G1 X1.667S0
G1 X0.548S700
G1 X1.667S0
G1 X0.008Y0.05S0
G1 X-1.666S0
G1 X-0.549S700
G1 X-1.666S0
G1 X0.008Y0.05S0
G1 X1.667S0
G1 X0.553S700
G1 X1.666S0
G1 X0.015Y0.05S0
G1 X-1.666S0
G1 X-0.56S700
G1 X-1.667S0
G1 X0.011Y0.05S0
G1 X1.666S0
G1 X0.565S700
G1 X1.667S0
G1 X0.99Y0.05S0
G1 X-1.667S0
G1 X-0.311S700
G1 X-0.66S0
G1 X-0.569S700
G1 X-1.667S0
G1 X0.015Y0.05S0
G1 X1.667S0
G1 X0.576S700
G1 X0.63S0
G1 X0.538S700
G1 X1.667S0
G1 X-0.013Y0.05S0
G1 X-1.667S0
G1 X-0.545S700
G1 X-0.588S0
G1 X-0.584S700
G1 X-1.666S0
G1 X0.021Y0.05S0
G1 X1.667S0
G1 X0.595S700
G1 X0.53S0
G1 X0.557S700
G1 X1.667S0
G1 X-0.013Y0.05S0
G1 X-1.666S0
G1 X-0.589S700
G1 X-0.438S0
G1 X-0.617S700
G1 X-1.667S0
G1 X0.026Y0.05S0
G1 X1.667S0
G1 X0.672S700
G1 X0.29S0
G1 X0.643S700
G1 X1.667S0
G1 X-0.022Y0.05S0
G1 X-1.667S0
G1 X-1.554S700
G1 X-1.667S0
G1 X0.04Y0.05S0
G1 X1.667S0
G1 X1.481S700
G1 X1.666S0
G1 X-0.033Y0.05S0
G1 X-1.667S0
G1 X-1.407S700
G1 X-1.667S0
G1 X0.045Y0.05S0
G1 X1.666S0
G1 X1.33S700
G1 X1.667S0
G1 X-0.04Y0.05S0
G1 X-1.667S0
G1 X-1.231S700
G1 X-1.667S0
G1 X0.059Y0.05S0
G1 X1.667S0
G1 X1.107S700
G1 X1.667S0
G1 X-0.066Y0.05S0
G1 X-1.666S0
G1 X-0.96S700
G1 X-1.666S0
G1 X0.087Y0.05S0
G1 X1.667S0
G1 X0.797S700
G1 X1.666S0
G1 X-0.152Y0.05S0
G1 X-1.667S0
G1 X-0.499S700
G1 X-1.667S0
M9
G1 S0
M5
; return to starting pos
G0 X0.884Y-2.888
M2
