; LightBurn 1.2.01
; GRBL device profile, current position
; Bounds: X-1.67 Y0 to X3.54 Y2.79
G00 G17 G40 G21 G54
G91
M4
; Cut @ 5000 mm/min, 0% power
M8
G0 X0Y0
; Layer Lim
G1 X1S0F5000
; Scan @ 4000 mm/min, 70% power
M8
G0 X-2.278Y0.036
; Layer C02
G1 X1.667F4000S0
G1 X0.525S700
G1 X1.667S0
G1 Y0.05S0
G1 X-1.665S0
G1 X-0.522S700
G1 X-1.666S0
G1 X0.005Y0.05S0
G1 X1.667S0
G1 X0.518S700
G1 X1.667S0
G1 Y0.05S0
G1 X-1.665S0
G1 X-0.515S700
G1 X-1.666S0
G1 X0.005Y0.05S0
G1 X1.667S0
G1 X0.514S700
G1 X1.667S0
G1 X0.006Y0.05S0
G1 X-1.667S0
G1 X-0.514S700
G1 X-1.667S0
G1 X0.005Y0.05S0
G1 X1.667S0
G1 X0.515S700
G1 X1.667S0
G1 X0.006Y0.05S0
G1 X-1.667S0
G1 X-0.515S700
G1 X-1.667S0
G1 X0.005Y0.05S0
G1 X1.667S0
G1 X0.516S700
G1 X1.667S0
G1 X0.006Y0.05S0
G1 X-1.667S0
G1 X-0.516S700
G1 X-1.667S0
G1 X0.006Y0.05S0
G1 X1.666S0
G1 X0.52S700
G1 X1.667S0
G1 X0.01Y0.05S0
G1 X-1.667S0
G1 X-0.519S700
G1 X-1.666S0
G1 X0.012Y0.05S0
G1 X1.667S0
G1 X0.517S700
G1 X1.666S0
G1 X0.011Y0.05S0
G1 X-1.667S0
G1 X-0.514S700
G1 X-1.667S0
G1 X0.013Y0.05S0
G1 X1.667S0
G1 X0.511S700
G1 X1.667S0
G1 X0.01Y0.05S0
G1 X-1.667S0
G1 X-0.509S700
G1 X-1.666S0
G1 X0.012Y0.05S0
G1 X1.667S0
G1 X0.509S700
G1 X1.667S0
G1 X0.014Y0.05S0
G1 X-1.666S0
G1 X-0.511S700
G1 X-1.667S0
G1 X0.013Y0.05S0
G1 X1.666S0
G1 X0.513S700
G1 X1.667S0
G1 X0.015Y0.05S0
G1 X-1.667S0
G1 X-0.515S700
G1 X-1.667S0
G1 X0.013Y0.05S0
G1 X1.667S0
G1 X0.516S700
G1 X1.667S0
G1 X0.015Y0.05S0
G1 X-1.667S0
G1 X-0.517S700
G1 X-1.667S0
G1 X0.02Y0.05S0
G1 X1.667S0
G1 X0.515S700
G1 X1.666S0
G1 X0.02Y0.05S0
G1 X-1.667S0
G1 X-0.514S700
G1 X-1.666S0
G1 X0.02Y0.05S0
G1 X1.667S0
G1 X0.512S700
G1 X1.667S0
G1 X0.019Y0.05S0
G1 X-1.667S0
G1 X-0.511S700
G1 X-1.666S0
G1 X0.02Y0.05S0
G1 X1.667S0
G1 X0.509S700
G1 X1.667S0
G1 X0.019Y0.05S0
G1 X-1.667S0
G1 X-0.508S700
G1 X-1.667S0
G1 X0.021Y0.05S0
G1 X1.666S0
G1 X0.512S700
G1 X1.667S0
G1 X0.023Y0.05S0
G1 X-1.666S0
G1 X-0.515S700
G1 X-1.667S0
G1 X0.021Y0.05S0
G1 X1.666S0
G1 X0.519S700
G1 X1.666S0
G1 X0.024Y0.05S0
G1 X-1.667S0
G1 X-0.521S700
G1 X-1.667S0
G1 X0.029Y0.05S0
G1 X1.667S0
G1 X0.516S700
G1 X1.667S0
G1 X0.026Y0.05S0
G1 X-1.667S0
G1 X-0.513S700
G1 X-1.667S0
G1 X0.029Y0.05S0
G1 X1.667S0
G1 X0.513S700
G1 X1.667S0
G1 X0.029Y0.05S0
G1 X-1.666S0
G1 X-0.514S700
G1 X-1.667S0
G1 X0.029Y0.05S0
G1 X1.667S0
G1 X0.514S700
G1 X1.666S0
G1 X0.029Y0.05S0
G1 X-1.666S0
G1 X-0.514S700
G1 X-1.667S0
G1 X0.029Y0.05S0
G1 X1.667S0
G1 X0.514S700
G1 X1.667S0
G1 X0.035Y0.05S0
G1 X-1.667S0
G1 X-0.52S700
G1 X-1.667S0
G1 X0.029Y0.05S0
G1 X1.667S0
G1 X0.526S700
G1 X1.667S0
G1 X0.034Y0.05S0
G1 X-1.666S0
G1 X-0.529S700
G1 X-1.666S0
G1 X0.036Y0.05S0
G1 X1.667S0
G1 X0.526S700
G1 X1.667S0
G1 X0.035Y0.05S0
G1 X-1.667S0
G1 X-0.524S700
G1 X-1.667S0
G1 X0.036Y0.05S0
G1 X1.667S0
G1 X0.53S700
G1 X1.666S0
G1 X0.042Y0.05S0
G1 X-1.667S0
G1 X-0.534S700
G1 X-1.667S0
G1 X-1.228Y0.05S0
G1 X1.667S0
G1 X1.803S700
G1 X1.667S0
G1 X0.041Y0.05S0
G1 X-1.667S0
G1 X-1.844S700
G1 X-1.667S0
G1 Y0.05S0
G1 X1.667S0
G1 X1.876S700
G1 X1.666S0
G1 Y0.05S0
G1 X-1.666S0
G1 X-1.876S700
G1 X-1.667S0
G1 Y0.05S0
G1 X1.667S0
G1 X1.876S700
G1 X1.666S0
G1 Y0.05S0
G1 X-1.666S0
G1 X-1.876S700
G1 X-1.667S0
G1 Y0.05S0
G1 X1.667S0
G1 X1.876S700
G1 X1.666S0
G1 Y0.05S0
G1 X-1.666S0
G1 X-1.876S700
G1 X-1.667S0
G1 Y0.05S0
G1 X1.667S0
G1 X1.876S700
G1 X1.666S0
G1 Y0.05S0
G1 X-1.666S0
G1 X-1.876S700
G1 X-1.667S0
M9
G1 S0
M5
; return to starting pos
G0 X1.667Y-2.786
M2
