; LightBurn 1.2.01
; GRBL device profile, current position
; Bounds: X-1.66 Y0.04 to X3.56 Y2.89
G00 G17 G40 G21 G54
G91
M4
; Cut @ 5000 mm/min, 0% power
M8
G0 X0.005Y0.051
; Layer Lim
G1 X1S0F5000
; Scan @ 4000 mm/min, 70% power
M8
G0 X-2.039Y-0.014
; Layer C02
G1 X1.666F4000S0
G1 X0.604S700
G1 X1.667S0
G1 X0.165Y0.05S0
G1 X-1.666S0
G1 X-0.901S700
G1 X-1.666S0
G1 X-0.085Y0.05S0
G1 X1.667S0
G1 X1.064S700
G1 X1.667S0
G1 X0.079Y0.05S0
G1 X-1.667S0
G1 X-1.216S700
G1 X-1.667S0
G1 X-0.058Y0.05S0
G1 X1.666S0
G1 X1.334S700
G1 X1.667S0
G1 X0.044Y0.05S0
G1 X-1.667S0
G1 X-1.428S700
G1 X-1.667S0
G1 X-0.042Y0.05S0
G1 X1.667S0
G1 X1.515S700
G1 X1.666S0
G1 X0.044Y0.05S0
G1 X-1.667S0
G1 X-1.598S700
G1 X-1.667S0
G1 X-0.029Y0.05S0
G1 X1.667S0
G1 X1.651S700
G1 X1.666S0
G1 X0.024Y0.05S0
G1 X-1.667S0
G1 X-0.674S700
G1 X-0.349S0
G1 X-0.68S700
G1 X-1.666S0
G1 X-0.025Y0.05S0
G1 X1.667S0
G1 X0.631S700
G1 X0.48S0
G1 X0.64S700
G1 X1.666S0
G1 X0.024Y0.05S0
G1 X-1.667S0
G1 X-0.605S700
G1 X-0.593S0
G1 X-0.594S700
G1 X-1.667S0
G1 X-0.018Y0.05S0
G1 X1.667S0
G1 X0.58S700
G1 X0.654S0
G1 X0.589S700
G1 X1.667S0
G1 X0.008Y0.05S0
G1 X-1.667S0
G1 X-0.57S700
G1 X-0.712S0
G1 X-0.562S700
G1 X-1.667S0
G1 Y0.05S0
G1 X1.662S0
G1 X0.555S700
G1 X0.751S0
G1 X0.551S700
G1 X1.667S0
G1 X0.007Y0.05S0
G1 X-1.666S0
G1 X-0.548S700
G1 X-0.775S0
G1 X-0.547S700
G1 X-1.666S0
G1 Y0.05S0
G1 X1.662S0
G1 X0.543S700
G1 X0.79S0
G1 X0.548S700
G1 X1.667S0
G1 X-0.005Y0.05S0
G1 X-1.667S0
G1 X-0.535S700
G1 X-0.801S0
G1 X-0.545S700
G1 X-1.667S0
G1 Y0.05S0
G1 X1.668S0
G1 X0.541S700
G1 X0.805S0
G1 X0.528S700
G1 X1.666S0
G1 X-0.006Y0.05S0
G1 X-1.667S0
G1 X-0.532S700
G1 X-0.796S0
G1 X-0.528S700
G1 X-1.666S0
G1 X0.011Y0.05S0
G1 X1.667S0
G1 X0.533S700
G1 X0.768S0
G1 X0.537S700
G1 X1.666S0
G1 X-0.01Y0.05S0
G1 X-1.666S0
G1 X-0.538S700
G1 X-0.741S0
G1 X-0.538S700
G1 X-1.667S0
G1 X0.011Y0.05S0
G1 X1.667S0
G1 X0.544S700
G1 X0.699S0
G1 X0.541S700
G1 X1.667S0
G1 X-0.022Y0.05S0
G1 X-1.667S0
G1 X-0.547S700
G1 X-0.632S0
G1 X-0.561S700
G1 X-1.667S0
G1 X0.029Y0.05S0
G1 X1.667S0
G1 X0.573S700
G1 X0.555S0
G1 X0.561S700
G1 X1.667S0
G1 X-0.022Y0.05S0
G1 X-1.667S0
G1 X-0.601S700
G1 X-0.435S0
G1 X-0.601S700
G1 X-1.667S0
G1 X0.029Y0.05S0
G1 X1.667S0
G1 X0.663S700
G1 X0.243S0
G1 X0.663S700
G1 X1.666S0
G1 X-0.042Y0.05S0
G1 X-1.666S0
G1 X-1.488S700
G1 X-1.667S0
G1 X0.057Y0.05S0
G1 X1.666S0
G1 X1.39S700
G1 X1.666S0
G1 X-0.049Y0.05S0
G1 X-1.666S0
G1 X-1.284S700
G1 X-1.667S0
G1 X0.058Y0.05S0
G1 X1.666S0
G1 X1.151S700
G1 X1.666S0
G1 X-0.101Y0.05S0
G1 X-1.667S0
G1 X-0.95S700
G1 X-1.666S0
G1 X-0.07Y0.05S0
G1 X1.667S0
G1 X1.084S700
G1 X1.667S0
G1 X0.058Y0.05S0
G1 X-1.667S0
G1 X-1.204S700
G1 X-1.667S0
G1 X-0.056Y0.05S0
G1 X1.667S0
G1 X1.315S700
G1 X1.666S0
G1 X0.055Y0.05S0
G1 X-1.666S0
G1 X-1.426S700
G1 X-1.667S0
G1 X-0.036Y0.05S0
G1 X1.666S0
G1 X0.588S700
G1 X0.323S0
G1 X0.586S700
G1 X1.667S0
G1 X0.025Y0.05S0
G1 X-1.667S0
G1 X-0.538S700
G1 X-0.471S0
G1 X-0.538S700
G1 X-1.667S0
G1 X-0.025Y0.05S0
G1 X1.666S0
G1 X0.525S700
G1 X0.558S0
G1 X0.516S700
G1 X1.666S0
G1 X0.026Y0.05S0
G1 X-1.667S0
G1 X-0.514S700
G1 X-0.62S0
G1 X-0.515S700
G1 X-1.667S0
G1 X-0.016Y0.05S0
G1 X1.667S0
G1 X0.516S700
G1 X0.657S0
G1 X0.507S700
G1 X1.667S0
G1 X0.005Y0.05S0
G1 X-1.666S0
G1 X-0.508S700
G1 X-0.676S0
G1 X-0.508S700
G1 X-1.666S0
G1 X-0.006Y0.05S0
G1 X1.667S0
G1 X0.512S700
G1 X0.682S0
G1 X0.508S700
G1 X1.667S0
G1 X0.006Y0.05S0
G1 X-1.667S0
G1 X-0.519S700
G1 X-0.674S0
G1 X-0.521S700
G1 X-1.667S0
G1 X-0.005Y0.05S0
G1 X1.666S0
G1 X0.536S700
G1 X0.658S0
G1 X0.532S700
G1 X1.666S0
G1 X-0.01Y0.05S0
G1 X-1.667S0
G1 X-0.531S700
G1 X-0.63S0
G1 X-0.543S700
G1 X-1.667S0
G1 X0.013Y0.05S0
G1 X1.667S0
G1 X0.55S700
G1 X0.578S0
G1 X0.551S700
G1 X1.666S0
G1 X-0.013Y0.05S0
G1 X-1.666S0
G1 X-0.571S700
G1 X-0.501S0
G1 X-0.581S700
G1 X-1.667S0
G1 X0.013Y0.05S0
G1 X1.667S0
G1 X0.629S700
G1 X0.37S0
G1 X0.628S700
G1 X1.666S0
G1 X-0.016Y0.05S0
G1 X-1.667S0
G1 X-0.782S700
G1 X-0.021S0
G1 X-0.79S700
G1 X-1.667S0
G1 X0.035Y0.05S0
G1 X1.666S0
G1 X1.524S700
G1 X1.667S0
G1 X-0.035Y0.05S0
G1 X-1.667S0
G1 X-1.454S700
G1 X-1.667S0
G1 X0.035Y0.05S0
G1 X1.667S0
G1 X1.385S700
G1 X1.666S0
G1 X-0.038Y0.05S0
G1 X-1.667S0
G1 X-1.308S700
G1 X-1.667S0
G1 X0.065Y0.05S0
G1 X1.666S0
G1 X1.179S700
G1 X1.667S0
G1 X-0.065Y0.05S0
G1 X-1.667S0
G1 X-1.049S700
G1 X-1.667S0
G1 X0.077Y0.05S0
G1 X1.667S0
G1 X0.894S700
G1 X1.667S0
G1 X-0.135Y0.05S0
G1 X-1.666S0
G1 X-0.625S700
G1 X-1.667S0
M9
G1 S0
M5
; return to starting pos
G0 X1.045Y-2.887
M2
