; LightBurn 1.2.01
; GRBL device profile, current position
; Bounds: X-1.67 Y0.04 to X3.58 Y2.89
G00 G17 G40 G21 G54
G91
M4
; Cut @ 5000 mm/min, 0% power
M8
G0 X0Y0.051
; Layer Lim
G1 X1S0F5000
; Scan @ 4000 mm/min, 70% power
M8
G0 X-2.049Y-0.013
; Layer C02
G1 X1.666F4000S0
G1 X0.517S700
G1 X1.667S0
G1 X0.133Y0.05S0
G1 X-1.667S0
G1 X-0.806S700
G1 X-1.666S0
G1 X-0.069Y0.05S0
G1 X1.666S0
G1 X0.97S700
G1 X1.667S0
G1 X0.074Y0.05S0
G1 X-1.667S0
G1 X-1.109S700
G1 X-1.667S0
G1 X-0.065Y0.05S0
G1 X1.667S0
G1 X1.241S700
G1 X1.667S0
G1 X0.052Y0.05S0
G1 X-1.667S0
G1 X-1.33S700
G1 X-1.667S0
G1 X-0.032Y0.05S0
G1 X1.667S0
G1 X1.412S700
G1 X1.666S0
G1 X0.042Y0.05S0
G1 X-1.666S0
G1 X-1.487S700
G1 X-1.667S0
G1 X-0.032Y0.05S0
G1 X1.666S0
G1 X1.556S700
G1 X1.666S0
G1 X0.036Y0.05S0
G1 X-1.666S0
G1 X-0.673S700
G1 X-0.29S0
G1 X-0.648S700
G1 X-1.667S0
G1 X-0.012Y0.05S0
G1 X1.667S0
G1 X0.593S700
G1 X0.437S0
G1 X0.619S700
G1 X1.666S0
G1 X0.026Y0.05S0
G1 X-1.667S0
G1 X-0.597S700
G1 X-0.528S0
G1 X-0.561S700
G1 X-1.667S0
G1 X-0.011Y0.05S0
G1 X1.666S0
G1 X0.547S700
G1 X0.587S0
G1 X0.589S700
G1 X1.667S0
G1 X0.016Y0.05S0
G1 X-1.667S0
G1 X-0.583S700
G1 X-0.629S0
G1 X-0.539S700
G1 X-1.666S0
G1 X0.235Y0.05S0
G1 X1.666S0
G1 X0.296S700
G1 X0.659S0
G1 X0.578S700
G1 X1.666S0
G1 X0.017Y0.05S0
G1 X-1.667S0
G1 X-0.575S700
G1 X-1.667S0
G1 X0.015Y0.05S0
G1 X1.667S0
G1 X0.568S700
G1 X1.667S0
G1 X0.008Y0.05S0
G1 X-1.667S0
G1 X-0.561S700
G1 X-1.667S0
G1 X0.014Y0.05S0
G1 X1.666S0
G1 X0.556S700
G1 X1.667S0
G1 X0.006Y0.05S0
G1 X-1.666S0
G1 X-0.554S700
G1 X-1.667S0
G1 X-0.672Y0.05S0
G1 X1.667S0
G1 X0.338S700
G1 X0.342S0
G1 X0.552S700
G1 X1.667S0
G1 X0.006Y0.05S0
G1 X-1.667S0
G1 X-0.549S700
G1 X-0.218S0
G1 X-0.609S700
G1 X-1.667S0
G1 X-0.088Y0.05S0
G1 X1.667S0
G1 X0.791S700
G1 X0.126S0
G1 X0.553S700
G1 X1.667S0
G1 X0.006Y0.05S0
G1 X-1.666S0
G1 X-0.558S700
G1 X-0.073S0
G1 X-0.92S700
G1 X-1.666S0
G1 X-0.061Y0.05S0
G1 X1.667S0
G1 X1.036S700
G1 X0.019S0
G1 X0.562S700
G1 X1.667S0
G1 X0.006Y0.05S0
G1 X-1.667S0
G1 X-1.673S700
G1 X-1.667S0
G1 X-0.043Y0.05S0
G1 X1.667S0
G1 X1.719S700
G1 X1.667S0
G1 Y0.05S0
G1 X-1.667S0
G1 X-1.758S700
G1 X-1.667S0
G1 X-0.03Y0.05S0
G1 X1.667S0
G1 X0.682S700
G1 X0.212S0
G1 X0.893S700
G1 X1.667S0
G1 Y0.05S0
G1 X-1.668S0
G1 X-0.784S700
G1 X-0.402S0
G1 X-0.63S700
G1 X-1.667S0
G1 X-0.022Y0.05S0
G1 X1.666S0
G1 X0.593S700
G1 X0.495S0
G1 X0.751S700
G1 X1.666S0
G1 Y0.05S0
G1 X-1.667S0
G1 X-0.717S700
G1 X-0.565S0
G1 X-0.575S700
G1 X-1.667S0
G1 X-0.019Y0.05S0
G1 X1.667S0
G1 X0.561S700
G1 X0.63S0
G1 X0.684S700
G1 X1.667S0
G1 Y0.05S0
G1 X-1.668S0
G1 X-0.654S700
G1 X-0.684S0
G1 X-0.548S700
G1 X-1.666S0
G1 X-0.01Y0.05S0
G1 X1.667S0
G1 X0.542S700
G1 X0.711S0
G1 X0.634S700
G1 X1.667S0
G1 X-0.008Y0.05S0
G1 X-1.666S0
G1 X-0.616S700
G1 X-0.736S0
G1 X-0.538S700
G1 X-1.667S0
G1 Y0.05S0
G1 X1.664S0
G1 X0.536S700
G1 X0.752S0
G1 X0.597S700
G1 X1.667S0
G1 X-0.008Y0.05S0
G1 X-1.666S0
G1 X-0.578S700
G1 X-0.764S0
G1 X-0.537S700
G1 X-1.666S0
G1 Y0.05S0
G1 X1.665S0
G1 X0.539S700
G1 X0.76S0
G1 X0.573S700
G1 X1.667S0
G1 X-0.008Y0.05S0
G1 X-1.666S0
G1 X-0.572S700
G1 X-0.755S0
G1 X-0.537S700
G1 X-1.667S0
G1 Y0.05S0
G1 X1.668S0
G1 X0.535S700
G1 X0.75S0
G1 X0.57S700
G1 X1.667S0
G1 X-0.015Y0.05S0
G1 X-1.666S0
G1 X-0.562S700
G1 X-0.746S0
G1 X-0.532S700
G1 X-1.667S0
G1 Y0.05S0
G1 X1.671S0
G1 X0.54S700
G1 X0.72S0
G1 X0.561S700
G1 X1.667S0
G1 X-0.015Y0.05S0
G1 X-1.667S0
G1 X-0.571S700
G1 X-0.682S0
G1 X-0.542S700
G1 X-1.667S0
G1 X0.011Y0.05S0
G1 X1.666S0
G1 X0.549S700
G1 X0.64S0
G1 X0.582S700
G1 X1.667S0
G1 X-0.015Y0.05S0
G1 X-1.667S0
G1 X-0.593S700
G1 X-0.582S0
G1 X-0.569S700
G1 X-1.667S0
G1 X0.02Y0.05S0
G1 X1.667S0
G1 X0.58S700
G1 X0.518S0
G1 X0.612S700
G1 X1.666S0
G1 X-0.014Y0.05S0
G1 X-1.667S0
G1 X-0.648S700
G1 X-0.413S0
G1 X-0.613S700
G1 X-1.667S0
G1 X0.022Y0.05S0
G1 X1.666S0
G1 X0.651S700
G1 X0.268S0
G1 X0.706S700
G1 X1.667S0
G1 X-0.028Y0.05S0
G1 X-1.667S0
G1 X-1.565S700
G1 X-1.667S0
G1 X0.032Y0.05S0
G1 X1.667S0
G1 X1.502S700
G1 X1.667S0
G1 X-0.041Y0.05S0
G1 X-1.667S0
G1 X-1.424S700
G1 X-1.667S0
G1 X0.046Y0.05S0
G1 X1.667S0
G1 X1.337S700
G1 X1.667S0
G1 X-0.054Y0.05S0
G1 X-1.666S0
G1 X-1.238S700
G1 X-1.666S0
G1 X0.065Y0.05S0
G1 X1.667S0
G1 X1.114S700
G1 X1.667S0
G1 X-0.077Y0.05S0
G1 X-1.666S0
G1 X-0.97S700
G1 X-1.667S0
G1 X0.098Y0.05S0
G1 X1.666S0
G1 X0.783S700
G1 X1.667S0
G1 X-0.128Y0.05S0
G1 X-1.667S0
G1 X-0.516S700
G1 X-1.666S0
M9
G1 S0
M5
; return to starting pos
G0 X1.001Y-2.888
M2
