; LightBurn 1.2.01
; GRBL device profile, current position
; Bounds: X-1.66 Y0.03 to X2.26 Y2.68
G00 G17 G40 G21 G54
G91
M4
; Cut @ 5000 mm/min, 0% power
M8
G0 X0Y0.639
; Layer Lim
G1 X1S0F5000
; Scan @ 4000 mm/min, 70% power
M8
G0 X-2.574Y-0.608
; Layer C02
G1 X1.667F4000S0
G1 X0.081S700
G1 X1.666S0
G1 X0.104Y0.05S0
G1 X-1.667S0
G1 X-0.208S700
G1 X-1.666S0
G1 X-0.024Y0.05S0
G1 X1.667S0
G1 X0.299S700
G1 X1.667S0
G1 X0.06Y0.05S0
G1 X-1.666S0
G1 X-0.384S700
G1 X-1.667S0
G1 X-0.013Y0.05S0
G1 X1.667S0
G1 X0.437S700
G1 X1.667S0
G1 X0.04Y0.05S0
G1 X-1.666S0
G1 X-0.369S700
G1 X-1.667S0
G1 X0.069Y0.05S0
G1 X1.667S0
G1 X0.325S700
G1 X1.667S0
G1 X0.022Y0.05S0
G1 X-1.666S0
G1 X-0.301S700
G1 X-1.667S0
G1 X0.033Y0.05S0
G1 X1.667S0
G1 X0.29S700
G1 X1.666S0
G1 X0.009Y0.05S0
G1 X-1.667S0
G1 X-0.278S700
G1 X-1.667S0
G1 X0.017Y0.05S0
G1 X1.667S0
G1 X0.27S700
G1 X1.667S0
G1 X0.009Y0.05S0
G1 X-1.667S0
G1 X-0.275S700
G1 X-1.667S0
G1 Y0.05S0
G1 X1.669S0
G1 X0.275S700
G1 X1.667S0
G1 Y0.05S0
G1 X-1.665S0
G1 X-0.542S700
G1 X-1.667S0
G1 Y0.05S0
G1 X1.667S0
G1 X0.544S700
G1 X1.667S0
G1 Y0.05S0
G1 X-1.665S0
G1 X-0.546S700
G1 X-1.667S0
G1 Y0.05S0
G1 X1.667S0
G1 X0.548S700
G1 X1.667S0
G1 Y0.05S0
G1 X-1.664S0
G1 X-0.551S700
G1 X-1.667S0
G1 Y0.05S0
G1 X1.667S0
G1 X0.55S700
G1 X1.667S0
G1 Y0.05S0
G1 X-1.667S0
G1 X-0.55S700
G1 X-1.667S0
G1 Y0.05S0
G1 X1.667S0
G1 X0.55S700
G1 X1.666S0
G1 Y0.05S0
G1 X-1.667S0
G1 X-0.549S700
G1 X-1.667S0
G1 Y0.05S0
G1 X1.667S0
G1 X0.549S700
G1 X1.667S0
G1 Y0.05S0
G1 X-1.667S0
G1 X-0.549S700
G1 X-1.667S0
G1 Y1S0
G1 X1.667S0
G1 X0.548S700
G1 X1.667S0
G1 Y0.05S0
G1 X-1.667S0
G1 X-0.548S700
G1 X-1.667S0
G1 Y0.05S0
G1 X1.667S0
G1 X0.548S700
G1 X1.667S0
G1 Y0.05S0
G1 X-1.667S0
G1 X-0.548S700
G1 X-1.667S0
G1 Y0.05S0
G1 X1.667S0
G1 X0.548S700
G1 X1.667S0
G1 Y0.05S0
G1 X-1.667S0
G1 X-0.548S700
G1 X-1.667S0
G1 Y0.05S0
G1 X1.667S0
G1 X0.548S700
G1 X1.667S0
G1 Y0.05S0
G1 X-1.667S0
G1 X-0.548S700
G1 X-1.667S0
G1 Y0.05S0
G1 X1.667S0
G1 X0.548S700
G1 X1.667S0
G1 Y0.05S0
G1 X-1.667S0
G1 X-0.548S700
G1 X-1.667S0
G1 Y0.05S0
G1 X1.667S0
G1 X0.548S700
G1 X1.667S0
M9
G1 S0
M5
; return to starting pos
G0 X-2.26Y-2.681
M2
