; LightBurn 1.2.01
; GRBL device profile, current position
; Bounds: X-1.67 Y0 to X3.63 Y2.49
G00 G17 G40 G21 G54
G91
M4
; Cut @ 5000 mm/min, 0% power
M8
G0 X0Y0
; Layer Lim
G1 X1S0F5000
; Scan @ 4000 mm/min, 70% power
M8
G0 X-0.733Y0.336
; Layer C02
G1 X1.667F4000S0
G1 X0.028S700
G1 X1.666S0
G1 Y0.05S0
G1 X-1.666S0
G1 X-0.143S700
G1 X-1.667S0
G1 X-0.115Y0.05S0
G1 X1.667S0
G1 X0.258S700
G1 X1.666S0
G1 Y0.05S0
G1 X-1.666S0
G1 X-0.373S700
G1 X-1.666S0
G1 X-0.115Y0.05S0
G1 X1.666S0
G1 X0.488S700
G1 X1.666S0
G1 Y0.05S0
G1 X-1.666S0
G1 X-0.603S700
G1 X-1.666S0
G1 X-0.115Y0.05S0
G1 X1.666S0
G1 X0.718S700
G1 X1.666S0
G1 Y0.05S0
G1 X-1.666S0
G1 X-0.833S700
G1 X-1.666S0
G1 X-0.115Y0.05S0
G1 X1.666S0
G1 X0.948S700
G1 X1.666S0
G1 Y0.05S0
G1 X-1.666S0
G1 X-1.063S700
G1 X-1.666S0
G1 X-0.115Y0.05S0
G1 X1.667S0
G1 X1.177S700
G1 X1.666S0
G1 X-0.024Y0.05S0
G1 X-1.667S0
G1 X-1.267S700
G1 X-1.667S0
G1 X-0.115Y0.05S0
G1 X1.667S0
G1 X1.256S700
G1 X1.667S0
G1 X-0.126Y0.05S0
G1 X-1.667S0
G1 X-1.245S700
G1 X-1.667S0
G1 X-0.115Y0.05S0
G1 X1.667S0
G1 X1.234S700
G1 X1.666S0
G1 X-0.126Y0.05S0
G1 X-1.666S0
G1 X-1.223S700
G1 X-1.667S0
G1 X-0.115Y0.05S0
G1 X1.667S0
G1 X1.212S700
G1 X1.666S0
G1 X-0.126Y0.05S0
G1 X-1.666S0
G1 X-1.181S700
G1 X-1.667S0
G1 Y0.05S0
G1 X1.667S0
G1 X1.055S700
G1 X1.666S0
G1 X-0.126Y0.05S0
G1 X-1.667S0
G1 X-0.928S700
G1 X-1.667S0
G1 Y0.05S0
G1 X1.667S0
G1 X0.802S700
G1 X1.667S0
G1 X-0.126Y0.05S0
G1 X-1.667S0
G1 X-0.676S700
G1 X-1.667S0
G1 Y0.05S0
G1 X1.667S0
G1 X0.638S700
G1 X1.667S0
G1 X0.13Y0.05S0
G1 X-1.666S0
G1 X-0.769S700
G1 X-1.667S0
G1 Y0.05S0
G1 X1.667S0
G1 X0.899S700
G1 X1.667S0
G1 X0.131Y0.05S0
G1 X-1.667S0
G1 X-1.03S700
G1 X-1.667S0
G1 Y0.05S0
G1 X1.667S0
G1 X1.161S700
G1 X1.666S0
G1 X0.131Y0.05S0
G1 X-1.667S0
G1 X-1.206S700
G1 X-1.667S0
G1 X0.116Y0.05S0
G1 X1.666S0
G1 X1.222S700
G1 X1.667S0
G1 X0.131Y0.05S0
G1 X-1.667S0
G1 X-1.237S700
G1 X-1.667S0
G1 X0.116Y0.05S0
G1 X1.666S0
G1 X1.253S700
G1 X1.666S0
G1 X0.131Y0.05S0
G1 X-1.667S0
G1 X-1.267S700
G1 X-1.667S0
G1 X0.116Y0.05S0
G1 X1.667S0
G1 X1.282S700
G1 X1.667S0
G1 X0.016Y0.05S0
G1 X-1.666S0
G1 X-1.184S700
G1 X-1.667S0
G1 X0.116Y0.05S0
G1 X1.667S0
G1 X1.068S700
G1 X1.666S0
G1 Y0.05S0
G1 X-1.666S0
G1 X-0.953S700
G1 X-1.666S0
G1 X0.115Y0.05S0
G1 X1.667S0
G1 X0.837S700
G1 X1.666S0
G1 Y0.05S0
G1 X-1.666S0
G1 X-0.722S700
G1 X-1.666S0
G1 X0.115Y0.05S0
G1 X1.667S0
G1 X0.606S700
G1 X1.666S0
G1 Y0.05S0
G1 X-1.666S0
G1 X-0.49S700
G1 X-1.667S0
G1 X0.115Y0.05S0
G1 X1.667S0
G1 X0.375S700
G1 X1.666S0
G1 Y0.05S0
G1 X-1.666S0
G1 X-0.259S700
G1 X-1.667S0
G1 X0.116Y0.05S0
G1 X1.666S0
G1 X0.144S700
G1 X1.666S0
G1 Y0.05S0
G1 X-1.666S0
G1 X-0.028S700
G1 X-1.667S0
M9
G1 S0
M5
; return to starting pos
G0 X-0.267Y-2.486
M2
