; LightBurn 1.2.01
; GRBL device profile, current position
; Bounds: X-1.67 Y0 to X3.63 Y2.48
G00 G17 G40 G21 G54
G91
M4
; Cut @ 5000 mm/min, 0% power
M8
G0 X0Y0
; Layer Lim
G1 X1S0F5000
; Scan @ 4000 mm/min, 70% power
M8
G0 X-2.667Y0.333
; Layer C02
G1 X1.667F4000S0
G1 X0.025S700
G1 X1.667S0
G1 X0.115Y0.05S0
G1 X-1.667S0
G1 X-0.14S700
G1 X-1.667S0
G1 Y0.05S0
G1 X1.667S0
G1 X0.255S700
G1 X1.667S0
G1 X0.115Y0.05S0
G1 X-1.667S0
G1 X-0.37S700
G1 X-1.667S0
G1 Y0.05S0
G1 X1.667S0
G1 X0.485S700
G1 X1.666S0
G1 X0.115Y0.05S0
G1 X-1.666S0
G1 X-0.6S700
G1 X-1.667S0
G1 Y0.05S0
G1 X1.667S0
G1 X0.714S700
G1 X1.667S0
G1 X0.115Y0.05S0
G1 X-1.667S0
G1 X-0.829S700
G1 X-1.667S0
G1 Y0.05S0
G1 X1.667S0
G1 X0.944S700
G1 X1.667S0
G1 X0.115Y0.05S0
G1 X-1.667S0
G1 X-1.059S700
G1 X-1.667S0
G1 Y0.05S0
G1 X1.667S0
G1 X1.174S700
G1 X1.666S0
G1 X0.115Y0.05S0
G1 X-1.666S0
G1 X-1.266S700
G1 X-1.667S0
G1 X0.127Y0.05S0
G1 X1.667S0
G1 X1.253S700
G1 X1.667S0
G1 X0.115Y0.05S0
G1 X-1.667S0
G1 X-1.241S700
G1 X-1.666S0
G1 X0.127Y0.05S0
G1 X1.666S0
G1 X1.229S700
G1 X1.667S0
G1 X0.115Y0.05S0
G1 X-1.667S0
G1 X-1.217S700
G1 X-1.666S0
G1 X0.127Y0.05S0
G1 X1.666S0
G1 X1.205S700
G1 X1.666S0
G1 X0.101Y0.05S0
G1 X-1.666S0
G1 X-1.178S700
G1 X-1.667S0
G1 X0.127Y0.05S0
G1 X1.667S0
G1 X1.051S700
G1 X1.666S0
G1 Y0.05S0
G1 X-1.666S0
G1 X-0.924S700
G1 X-1.667S0
G1 X0.127Y0.05S0
G1 X1.667S0
G1 X0.797S700
G1 X1.666S0
G1 Y0.05S0
G1 X-1.666S0
G1 X-0.67S700
G1 X-1.667S0
G1 X0.025Y0.05S0
G1 X1.667S0
G1 X0.645S700
G1 X1.666S0
G1 Y0.05S0
G1 X-1.666S0
G1 X-0.774S700
G1 X-1.667S0
G1 X-0.128Y0.05S0
G1 X1.667S0
G1 X0.902S700
G1 X1.666S0
G1 Y0.05S0
G1 X-1.666S0
G1 X-1.031S700
G1 X-1.667S0
G1 X-0.128Y0.05S0
G1 X1.666S0
G1 X1.16S700
G1 X1.666S0
G1 X-0.087Y0.05S0
G1 X-1.667S0
G1 X-1.2S700
G1 X-1.667S0
G1 X-0.129Y0.05S0
G1 X1.667S0
G1 X1.214S700
G1 X1.666S0
G1 X-0.115Y0.05S0
G1 X-1.667S0
G1 X-1.226S700
G1 X-1.667S0
G1 X-0.129Y0.05S0
G1 X1.667S0
G1 X1.239S700
G1 X1.667S0
G1 X-0.116Y0.05S0
G1 X-1.666S0
G1 X-1.253S700
G1 X-1.666S0
G1 X-0.129Y0.05S0
G1 X1.667S0
G1 X1.265S700
G1 X1.667S0
G1 X-0.116Y0.05S0
G1 X-1.667S0
G1 X-1.182S700
G1 X-1.667S0
G1 Y0.05S0
G1 X1.667S0
G1 X1.067S700
G1 X1.666S0
G1 X-0.115Y0.05S0
G1 X-1.667S0
G1 X-0.951S700
G1 X-1.667S0
G1 Y0.05S0
G1 X1.667S0
G1 X0.835S700
G1 X1.667S0
G1 X-0.116Y0.05S0
G1 X-1.666S0
G1 X-0.72S700
G1 X-1.667S0
G1 Y0.05S0
G1 X1.667S0
G1 X0.604S700
G1 X1.667S0
G1 X-0.116Y0.05S0
G1 X-1.667S0
G1 X-0.488S700
G1 X-1.667S0
G1 Y0.05S0
G1 X1.667S0
G1 X0.373S700
G1 X1.666S0
G1 X-0.115Y0.05S0
G1 X-1.667S0
G1 X-0.257S700
G1 X-1.667S0
G1 Y0.05S0
G1 X1.667S0
G1 X0.141S700
G1 X1.667S0
G1 X-0.116Y0.05S0
G1 X-1.666S0
G1 X-0.026S700
G1 X-1.667S0
M9
G1 S0
M5
; return to starting pos
G0 X1.667Y-2.483
M2
