; LightBurn 1.2.01
; GRBL device profile, current position
; Bounds: X-1.66 Y0 to X3.71 Y2.87
G00 G17 G40 G21 G54
G91
M4
; Cut @ 5000 mm/min, 0% power
M8
G0 X0Y0
; Layer Lim
G1 X1S0F5000
; Scan @ 4000 mm/min, 70% power
M8
G0 X-1.905Y0.022
; Layer C02
G1 X1.666F4000S0
G1 X0.549S700
G1 X1.666S0
G1 Y0.05S0
G1 X-1.666S0
G1 X-0.549S700
G1 X-1.666S0
G1 Y0.05S0
G1 X1.666S0
G1 X0.549S700
G1 X1.666S0
G1 Y0.05S0
G1 X-1.666S0
G1 X-0.549S700
G1 X-1.666S0
G1 Y0.05S0
G1 X1.666S0
G1 X0.549S700
G1 X1.666S0
G1 Y0.05S0
G1 X-1.666S0
G1 X-0.549S700
G1 X-1.666S0
G1 Y0.05S0
G1 X1.666S0
G1 X0.549S700
G1 X1.666S0
G1 Y0.05S0
G1 X-1.666S0
G1 X-0.549S700
G1 X-1.666S0
G1 Y0.05S0
G1 X1.666S0
G1 X0.549S700
G1 X1.666S0
G1 Y0.05S0
G1 X-1.666S0
G1 X-0.549S700
G1 X-1.666S0
G1 Y0.05S0
G1 X1.666S0
G1 X0.549S700
G1 X1.666S0
G1 X-0.05Y0.25S0
G1 X-1.667S0
G1 X-0.498S700
G1 X-1.667S0
G1 Y0.05S0
G1 X1.667S0
G1 X0.499S700
G1 X1.667S0
G1 Y0.05S0
G1 X-1.665S0
G1 X-0.501S700
G1 X-1.667S0
G1 Y0.05S0
G1 X1.666S0
G1 X0.506S700
G1 X1.667S0
G1 X0.014Y0.05S0
G1 X-1.666S0
G1 X-0.521S700
G1 X-1.667S0
G1 X0.008Y0.05S0
G1 X1.667S0
G1 X0.529S700
G1 X1.667S0
G1 X0.017Y0.05S0
G1 X-1.667S0
G1 X-0.532S700
G1 X-1.666S0
G1 X0.014Y0.05S0
G1 X1.667S0
G1 X0.552S700
G1 X1.667S0
G1 X0.045Y0.05S0
G1 X-1.667S0
G1 X-0.583S700
G1 X-1.666S0
G1 X0.014Y0.05S0
G1 X1.667S0
G1 X0.615S700
G1 X1.667S0
G1 X0.057Y0.05S0
G1 X-1.666S0
G1 X-0.647S700
G1 X-1.666S0
G1 X0.032Y0.05S0
G1 X1.666S0
G1 X0.673S700
G1 X1.666S0
G1 X0.058Y0.05S0
G1 X-1.667S0
G1 X-0.698S700
G1 X-1.667S0
G1 X0.032Y0.05S0
G1 X1.667S0
G1 X0.724S700
G1 X1.667S0
G1 X0.06Y0.05S0
G1 X-1.667S0
G1 X-0.741S700
G1 X-1.667S0
G1 X0.058Y0.05S0
G1 X1.667S0
G1 X0.743S700
G1 X1.667S0
G1 X0.044Y0.05S0
G1 X-1.667S0
G1 X-0.73S700
G1 X-1.667S0
G1 X0.058Y0.05S0
G1 X1.667S0
G1 X0.713S700
G1 X1.667S0
G1 X0.038Y0.05S0
G1 X-1.666S0
G1 X-0.692S700
G1 X-1.666S0
G1 X0.062Y0.05S0
G1 X1.666S0
G1 X0.657S700
G1 X1.667S0
G1 X0.027Y0.05S0
G1 X-1.667S0
G1 X-0.618S700
G1 X-1.666S0
G1 X0.045Y0.05S0
G1 X1.667S0
G1 X0.598S700
G1 X1.667S0
G1 X0.016Y0.05S0
G1 X-1.667S0
G1 X-0.574S700
G1 X-1.667S0
G1 X0.026Y0.05S0
G1 X1.667S0
G1 X0.564S700
G1 X1.667S0
G1 X0.016Y0.05S0
G1 X-1.666S0
G1 X-0.555S700
G1 X-1.667S0
G1 X-1.232Y0.05S0
G1 X1.666S0
G1 X0.255S700
G1 X0.99S0
G1 X0.541S700
G1 X1.667S0
G1 X-0.005Y0.05S0
G1 X-1.667S0
G1 X-0.523S700
G1 X-0.989S0
G1 X-0.523S700
G1 X-1.667S0
G1 X0.008Y0.05S0
G1 X1.667S0
G1 X0.533S700
G1 X0.966S0
G1 X0.523S700
G1 X1.667S0
G1 X-0.005Y0.05S0
G1 X-1.667S0
G1 X-0.529S700
G1 X-0.928S0
G1 X-0.552S700
G1 X-1.666S0
G1 X0.008Y0.05S0
G1 X1.666S0
G1 X0.57S700
G1 X0.891S0
G1 X0.535S700
G1 X1.667S0
G1 X-0.009Y0.05S0
G1 X-1.666S0
G1 X-0.558S700
G1 X-0.834S0
G1 X-0.577S700
G1 X-1.666S0
G1 X0.019Y0.05S0
G1 X1.666S0
G1 X0.611S700
G1 X0.747S0
G1 X0.568S700
G1 X1.667S0
G1 X-0.024Y0.05S0
G1 X-1.667S0
G1 X-0.596S700
G1 X-0.637S0
G1 X-0.65S700
G1 X-1.666S0
G1 X0.029Y0.05S0
G1 X1.667S0
G1 X0.704S700
G1 X0.483S0
G1 X0.642S700
G1 X1.667S0
G1 X-0.024Y0.05S0
G1 X-1.667S0
G1 X-1.773S700
G1 X-1.667S0
G1 X0.032Y0.05S0
G1 X1.666S0
G1 X1.714S700
G1 X1.666S0
G1 X-0.05Y0.05S0
G1 X-1.666S0
G1 X-1.616S700
G1 X-1.666S0
G1 X0.048Y0.05S0
G1 X1.667S0
G1 X1.517S700
G1 X1.666S0
G1 X-0.05Y0.05S0
G1 X-1.666S0
G1 X-1.4S700
G1 X-1.667S0
G1 X0.086Y0.05S0
G1 X1.667S0
G1 X1.248S700
G1 X1.667S0
G1 X-0.107Y0.05S0
G1 X-1.666S0
G1 X-1.056S700
G1 X-1.667S0
G1 X0.124Y0.05S0
G1 X1.667S0
G1 X0.825S700
G1 X1.667S0
G1 X-0.213Y0.05S0
G1 X-1.667S0
G1 X-0.438S700
G1 X-1.667S0
M9
G1 S0
M5
; return to starting pos
G0 X0.856Y-2.872
M2
