; LightBurn 1.2.01
; GRBL device profile, current position
; Bounds: X-1.66 Y0 to X5.42 Y3.75
G00 G17 G40 G21 G54
G91
M4
; Cut @ 5000 mm/min, 0% power
M8
G0 X0Y0.84
; Layer Lim
G1 X1S0F5000
; Scan @ 4000 mm/min, 70% power
M8
G0 X-0.798Y-0.837
; Layer C02
G1 X1.667F4000S0
G1 X0.133S700
G1 X1.666S0
G1 X0.622Y0.05S0
G1 X-1.667S0
G1 X-1.191S700
G1 X-1.667S0
G1 X-0.201Y0.05S0
G1 X1.667S0
G1 X1.571S700
G1 X1.667S0
G1 X0.148Y0.05S0
G1 X-1.667S0
G1 X-1.876S700
G1 X-1.666S0
G1 X-0.112Y0.05S0
G1 X1.667S0
G1 X2.091S700
G1 X1.667S0
G1 X0.091Y0.05S0
G1 X-1.667S0
G1 X-2.293S700
G1 X-1.667S0
G1 X-0.076Y0.05S0
G1 X1.667S0
G1 X2.46S700
G1 X1.667S0
G1 X0.071Y0.05S0
G1 X-1.667S0
G1 X-2.604S700
G1 X-1.667S0
G1 X-0.073Y0.05S0
G1 X1.667S0
G1 X0.887S700
G1 X0.989S0
G1 X0.863S700
G1 X1.667S0
G1 X0.062Y0.05S0
G1 X-1.667S0
G1 X-0.734S700
G1 X-1.372S0
G1 X-0.76S700
G1 X-1.667S0
G1 X-0.051Y0.05S0
G1 X1.667S0
G1 X0.684S700
G1 X1.615S0
G1 X0.68S700
G1 X1.667S0
G1 X0.049Y0.05S0
G1 X-1.667S0
G1 X-0.612S700
G1 X-1.855S0
G1 X-0.612S700
G1 X-1.666S0
G1 X-0.051Y0.05S0
G1 X1.667S0
G1 X0.58S700
G1 X2.023S0
G1 X0.568S700
G1 X1.666S0
G1 X0.041Y0.05S0
G1 X-1.666S0
G1 X-0.536S700
G1 X-2.179S0
G1 X-0.548S700
G1 X-1.666S0
G1 X-0.031Y0.05S0
G1 X1.667S0
G1 X0.496S700
G1 X2.335S0
G1 X0.5S700
G1 X1.666S0
G1 X0.03Y0.05S0
G1 X-1.667S0
G1 X-0.455S700
G1 X-2.463S0
G1 X-0.471S700
G1 X-1.666S0
G1 X-0.029Y0.05S0
G1 X1.667S0
G1 X0.452S700
G1 X2.556S0
G1 X0.439S700
G1 X1.667S0
G1 X0.029Y0.05S0
G1 X-1.667S0
G1 X-0.423S700
G1 X-0.863S0
G1 X-0.248S700
G1 X-0.585S0
G1 X-0.292S700
G1 X-0.66S0
G1 X-0.434S700
G1 X-1.666S0
G1 X-0.029Y0.05S0
G1 X1.667S0
G1 X0.425S700
G1 X0.551S0
G1 X0.575S700
G1 X0.355S0
G1 X0.62S700
G1 X1.667S0
G1 X0.109Y0.05S0
G1 X-1.667S0
G1 X-0.783S700
G1 X-0.199S0
G1 X-0.781S700
G1 X-0.483S0
G1 X-0.417S700
G1 X-1.667S0
G1 X-0.021Y0.05S0
G1 X1.667S0
G1 X0.403S700
G1 X0.457S0
G1 X0.909S700
G1 X0.106S0
G1 X0.918S700
G1 X1.667S0
G1 X0.091Y0.05S0
G1 X-1.667S0
G1 X-1.033S700
G1 X-0.015S0
G1 X-1.037S700
G1 X-0.426S0
G1 X-0.391S700
G1 X-1.667S0
G1 X-0.018Y0.05S0
G1 X1.667S0
G1 X0.383S700
G1 X0.398S0
G1 X2.198S700
G1 X1.666S0
G1 X0.059Y0.05S0
G1 X-1.667S0
G1 X-2.285S700
G1 X-0.395S0
G1 X-0.375S700
G1 X-1.666S0
G1 X-0.018Y0.05S0
G1 X1.666S0
G1 X0.368S700
G1 X0.391S0
G1 X0.662S700
G1 X0.134S0
G1 X1.577S700
G1 X1.666S0
G1 X0.059Y0.05S0
G1 X-1.667S0
G1 X-0.598S700
G1 X-0.108S0
G1 X-0.783S700
G1 X-0.388S0
G1 X-0.583S700
G1 X-0.38S0
G1 X-0.368S700
G1 X-1.666S0
G1 X-0.017Y0.05S0
G1 X1.667S0
G1 X0.366S700
G1 X0.369S0
G1 X0.558S700
G1 X0.518S0
G1 X0.687S700
G1 X0.216S0
G1 X0.547S700
G1 X1.666S0
G1 X0.033Y0.05S0
G1 X-1.666S0
G1 X-0.492S700
G1 X-0.314S0
G1 X-0.627S700
G1 X-0.612S0
G1 X-0.53S700
G1 X-0.37S0
G1 X-0.358S700
G1 X-1.666S0
G1 X-0.009Y0.05S0
G1 X1.667S0
G1 X0.351S700
G1 X0.377S0
G1 X0.512S700
G1 X0.676S0
G1 X0.587S700
G1 X0.372S0
G1 X0.469S700
G1 X1.666S0
G1 X0.033Y0.05S0
G1 X-1.666S0
G1 X-0.447S700
G1 X-0.415S0
G1 X-0.569S700
G1 X-0.729S0
G1 X-0.497S700
G1 X-0.38S0
G1 X-0.349S700
G1 X-1.667S0
G1 X-0.008Y0.05S0
G1 X1.666S0
G1 X0.348S700
G1 X0.382S0
G1 X0.497S700
G1 X0.767S0
G1 X0.551S700
G1 X0.457S0
G1 X0.426S700
G1 X1.666S0
G1 X0.033Y0.05S0
G1 X-1.666S0
G1 X-0.423S700
G1 X-0.482S0
G1 X-0.532S700
G1 X-0.805S0
G1 X-0.497S700
G1 X-0.385S0
G1 X-0.345S700
G1 X-1.667S0
G1 X-0.009Y0.05S0
G1 X1.667S0
G1 X0.348S700
G1 X0.383S0
G1 X0.503S700
G1 X0.828S0
G1 X0.522S700
G1 X0.507S0
G1 X0.408S700
G1 X1.666S0
G1 X0.021Y0.05S0
G1 X-1.666S0
G1 X-0.393S700
G1 X-0.533S0
G1 X-0.512S700
G1 X-0.848S0
G1 X-0.505S700
G1 X-0.385S0
G1 X-0.349S700
G1 X-1.667S0
G1 Y0.05S0
G1 X1.667S0
G1 X0.346S700
G1 X0.391S0
G1 X0.501S700
G1 X0.87S0
G1 X0.502S700
G1 X0.55S0
G1 X0.386S700
G1 X1.667S0
G1 X0.021Y0.05S0
G1 X-1.667S0
G1 X-0.385S700
G1 X-0.562S0
G1 X-0.493S700
G1 X-0.889S0
G1 X-0.498S700
G1 X-0.398S0
G1 X-0.342S700
G1 X-1.667S0
G1 Y0.05S0
G1 X1.666S0
G1 X0.344S700
G1 X0.4S0
G1 X0.498S700
G1 X0.898S0
G1 X0.492S700
G1 X0.573S0
G1 X0.384S700
G1 X1.667S0
G1 X0.014Y0.05S0
G1 X-1.667S0
G1 X-0.376S700
G1 X-0.585S0
G1 X-0.49S700
G1 X-0.902S0
G1 X-0.503S700
G1 X-0.4S0
G1 X-0.347S700
G1 X-1.666S0
G1 Y0.05S0
G1 X1.666S0
G1 X0.35S700
G1 X0.4S0
G1 X0.508S700
G1 X0.907S0
G1 X0.488S700
G1 X0.591S0
G1 X0.37S700
G1 X1.666S0
G1 X0.01Y0.05S0
G1 X-1.666S0
G1 X-0.366S700
G1 X-0.595S0
G1 X-0.488S700
G1 X-0.908S0
G1 X-0.509S700
G1 X-0.404S0
G1 X-0.354S700
G1 X-1.667S0
G1 X0.005Y0.05S0
G1 X1.667S0
G1 X0.357S700
G1 X0.411S0
G1 X0.502S700
G1 X0.904S0
G1 X0.495S700
G1 X0.598S0
G1 X0.362S700
G1 X1.666S0
G1 X0.01Y0.05S0
G1 X-1.666S0
G1 X-0.358S700
G1 X-0.602S0
G1 X-0.5S700
G1 X-0.891S0
G1 X-0.506S700
G1 X-0.415S0
G1 X-0.359S700
G1 X-1.667S0
G1 X0.009Y0.05S0
G1 X1.666S0
G1 X0.362S700
G1 X0.419S0
G1 X0.508S700
G1 X0.878S0
G1 X0.507S700
G1 X0.598S0
G1 X0.361S700
G1 X1.667S0
G1 Y0.05S0
G1 X-1.666S0
G1 X-0.357S700
G1 X-0.593S0
G1 X-0.513S700
G1 X-0.864S0
G1 X-0.512S700
G1 X-0.423S0
G1 X-0.363S700
G1 X-1.667S0
G1 X0.009Y0.05S0
G1 X1.666S0
G1 X0.367S700
G1 X0.426S0
G1 X0.514S700
G1 X0.845S0
G1 X0.526S700
G1 X0.587S0
G1 X0.352S700
G1 X1.667S0
G1 Y0.05S0
G1 X-1.667S0
G1 X-0.347S700
G1 X-0.582S0
G1 X-0.538S700
G1 X-0.816S0
G1 X-0.519S700
G1 X-0.434S0
G1 X-0.372S700
G1 X-1.667S0
G1 X0.008Y0.05S0
G1 X1.667S0
G1 X0.377S700
G1 X0.449S0
G1 X0.518S700
G1 X0.776S0
G1 X0.562S700
G1 X0.567S0
G1 X0.351S700
G1 X1.667S0
G1 Y0.05S0
G1 X-1.667S0
G1 X-0.355S700
G1 X-0.553S0
G1 X-0.585S700
G1 X-0.735S0
G1 X-0.519S700
G1 X-0.463S0
G1 X-0.374S700
G1 X-1.667S0
G1 X0.017Y0.05S0
G1 X1.667S0
G1 X0.371S700
G1 X0.477S0
G1 X0.52S700
G1 X0.681S0
G1 X0.621S700
G1 X0.538S0
G1 X0.358S700
G1 X1.667S0
G1 X-0.01Y0.05S0
G1 X-1.667S0
G1 X-0.353S700
G1 X-0.523S0
G1 X-0.659S700
G1 X-0.606S0
G1 X-0.539S700
G1 X-0.484S0
G1 X-0.374S700
G1 X-1.667S0
G1 X0.017Y0.05S0
G1 X1.667S0
G1 X0.38S700
G1 X0.49S0
G1 X0.558S700
G1 X0.514S0
G1 X0.714S700
G1 X0.499S0
G1 X0.356S700
G1 X1.667S0
G1 X-0.01Y0.05S0
G1 X-1.667S0
G1 X-0.359S700
G1 X-0.476S0
G1 X-0.799S700
G1 X-0.352S0
G1 X-0.606S700
G1 X-0.506S0
G1 X-0.386S700
G1 X-1.666S0
G1 X0.017Y0.05S0
G1 X1.667S0
G1 X0.39S700
G1 X0.524S0
G1 X1.728S700
G1 X0.452S0
G1 X0.362S700
G1 X1.667S0
G1 X-0.01Y0.05S0
G1 X-1.667S0
G1 X-0.37S700
G1 X-0.424S0
G1 X-1.699S700
G1 X-0.535S0
G1 X-0.397S700
G1 X-1.667S0
G1 X0.028Y0.05S0
G1 X1.666S0
G1 X0.404S700
G1 X0.549S0
G1 X1.129S700
G1 X0.015S0
G1 X0.518S700
G1 X0.391S0
G1 X0.378S700
G1 X1.667S0
G1 X-0.021Y0.05S0
G1 X-1.667S0
G1 X-0.38S700
G1 X-0.358S0
G1 X-0.517S700
G1 X-0.066S0
G1 X-1.023S700
G1 X-0.582S0
G1 X-0.409S700
G1 X-1.667S0
G1 X0.028Y0.05S0
G1 X1.667S0
G1 X0.415S700
G1 X0.614S0
G1 X0.916S700
G1 X0.118S0
G1 X0.517S700
G1 X0.324S0
G1 X0.382S700
G1 X1.667S0
G1 X-0.021Y0.05S0
G1 X-1.667S0
G1 X-0.395S700
G1 X-0.28S0
G1 X-0.515S700
G1 X-0.198S0
G1 X-0.757S700
G1 X-0.665S0
G1 X-0.428S700
G1 X-1.666S0
G1 X0.027Y0.05S0
G1 X1.667S0
G1 X0.447S700
G1 X0.738S0
G1 X0.545S700
G1 X0.301S0
G1 X0.515S700
G1 X0.235S0
G1 X0.409S700
G1 X1.666S0
G1 X-0.021Y0.05S0
G1 X-1.666S0
G1 X-0.422S700
G1 X-1.252S0
G1 X-0.037S700
G1 X-0.964S0
G1 X-0.463S700
G1 X-1.667S0
G1 X0.041Y0.05S0
G1 X1.666S0
G1 X0.47S700
G1 X2.159S0
G1 X0.435S700
G1 X1.667S0
G1 X-0.034Y0.05S0
G1 X-1.667S0
G1 X-0.45S700
G1 X-2.044S0
G1 X-0.495S700
G1 X-1.667S0
G1 X0.041Y0.05S0
G1 X1.666S0
G1 X0.52S700
G1 X1.927S0
G1 X0.469S700
G1 X1.666S0
G1 X-0.034Y0.05S0
G1 X-1.666S0
G1 X-0.505S700
G1 X-1.789S0
G1 X-0.547S700
G1 X-1.667S0
G1 X0.041Y0.05S0
G1 X1.666S0
G1 X0.6S700
G1 X1.626S0
G1 X0.538S700
G1 X1.667S0
G1 X-0.051Y0.05S0
G1 X-1.667S0
G1 X-0.6S700
G1 X-1.419S0
G1 X-0.636S700
G1 X-1.666S0
G1 X0.065Y0.05S0
G1 X1.667S0
G1 X0.709S700
G1 X1.159S0
G1 X0.671S700
G1 X1.666S0
G1 X-0.051Y0.05S0
G1 X-1.666S0
G1 X-0.81S700
G1 X-0.775S0
G1 X-0.838S700
G1 X-1.667S0
G1 X0.065Y0.05S0
G1 X1.667S0
G1 X2.305S700
G1 X1.667S0
G1 X-0.077Y0.05S0
G1 X-1.667S0
G1 X-2.141S700
G1 X-1.666S0
G1 X0.09Y0.05S0
G1 X1.666S0
G1 X1.975S700
G1 X1.667S0
G1 X-0.077Y0.05S0
G1 X-1.667S0
G1 X-1.808S700
G1 X-1.666S0
G1 X0.127Y0.05S0
G1 X1.667S0
G1 X1.555S700
G1 X1.666S0
G1 X-0.133Y0.05S0
G1 X-1.667S0
G1 X-1.29S700
G1 X-1.666S0
G1 X0.199Y0.05S0
G1 X1.666S0
G1 X0.894S700
G1 X1.666S0
G1 X-0.409Y0.05S0
G1 X-1.667S0
G1 X-0.085S700
G1 X-1.667S0
M9
G1 S0
M5
; return to starting pos
G0 X-0.266Y-3.753
M2
