; LightBurn 1.2.01
; GRBL device profile, current position
; Bounds: X-1.66 Y0 to X3.55 Y2.91
G00 G17 G40 G21 G54
G91
M4
; Cut @ 5000 mm/min, 0% power
M8
G0 X0Y0
; Layer Lim
G1 X1S0F5000
; Scan @ 4000 mm/min, 70% power
M8
G0 X-2.665Y1.355
; Layer C02
G1 X1.667F4000S0
G1 X0.558S700
G1 X0.768S0
G1 X0.554S700
G1 X1.666S0
G1 X-0.023Y0.05S0
G1 X-1.666S0
G1 X-0.551S700
G1 X-0.728S0
G1 X-0.554S700
G1 X-1.667S0
G1 X0.023Y0.05S0
G1 X1.667S0
G1 X0.551S700
G1 X0.688S0
G1 X0.548S700
G1 X1.667S0
G1 X-0.023Y0.05S0
G1 X-1.667S0
G1 X-0.546S700
G1 X-0.646S0
G1 X-0.548S700
G1 X-1.667S0
G1 X0.024Y0.05S0
G1 X1.666S0
G1 X0.545S700
G1 X0.606S0
G1 X0.543S700
G1 X1.667S0
G1 X-0.023Y0.05S0
G1 X-1.667S0
G1 X-0.54S700
G1 X-0.566S0
G1 X-0.541S700
G1 X-1.667S0
G1 X0.024Y0.05S0
G1 X1.666S0
G1 X0.538S700
G1 X0.525S0
G1 X0.538S700
G1 X1.667S0
G1 X-0.023Y0.05S0
G1 X-1.667S0
G1 X-0.535S700
G1 X-0.485S0
G1 X-0.534S700
G1 X-1.667S0
G1 X0.024Y0.05S0
G1 X1.666S0
G1 X0.531S700
G1 X0.445S0
G1 X0.532S700
G1 X1.667S0
G1 X-0.023Y0.05S0
G1 X-1.667S0
G1 X-0.529S700
G1 X-0.404S0
G1 X-0.528S700
G1 X-1.667S0
G1 X0.024Y0.05S0
G1 X1.666S0
G1 X0.525S700
G1 X0.363S0
G1 X0.528S700
G1 X1.666S0
G1 X-0.023Y0.05S0
G1 X-1.666S0
G1 X-0.525S700
G1 X-0.323S0
G1 X-0.521S700
G1 X-1.667S0
G1 X0.024Y0.05S0
G1 X1.667S0
G1 X0.517S700
G1 X0.283S0
G1 X0.522S700
G1 X1.666S0
G1 X-0.023Y0.05S0
G1 X-1.666S0
G1 X-0.519S700
G1 X-0.243S0
G1 X-0.514S700
G1 X-1.667S0
G1 X0.024Y0.05S0
G1 X1.667S0
G1 X0.51S700
G1 X0.202S0
G1 X0.517S700
G1 X1.667S0
G1 X-0.023Y0.05S0
G1 X-1.667S0
G1 X-0.514S700
G1 X-0.162S0
G1 X-0.507S700
G1 X-1.666S0
G1 X0.023Y0.05S0
G1 X1.667S0
G1 X0.504S700
G1 X0.121S0
G1 X0.511S700
G1 X1.667S0
G1 X-0.023Y0.05S0
G1 X-1.667S0
G1 X-0.508S700
G1 X-0.081S0
G1 X-0.501S700
G1 X-1.666S0
G1 X0.023Y0.05S0
G1 X1.667S0
G1 X0.497S700
G1 X0.04S0
G1 X0.506S700
G1 X1.667S0
G1 X-0.023Y0.05S0
G1 X-1.667S0
G1 X-0.997S700
G1 X-1.666S0
G1 X0.023Y0.05S0
G1 X1.667S0
G1 X0.95S700
G1 X1.667S0
G1 X-0.023Y0.05S0
G1 X-1.667S0
G1 X-0.904S700
G1 X-1.666S0
G1 X0.023Y0.05S0
G1 X1.667S0
G1 X0.857S700
G1 X1.667S0
G1 X-0.023Y0.05S0
G1 X-1.666S0
G1 X-0.812S700
G1 X-1.666S0
G1 X0.023Y0.05S0
G1 X1.667S0
G1 X0.765S700
G1 X1.666S0
G1 X-0.023Y0.05S0
G1 X-1.666S0
G1 X-0.718S700
G1 X-1.667S0
G1 X0.023Y0.05S0
G1 X1.667S0
G1 X0.672S700
G1 X1.666S0
G1 X-0.022Y0.05S0
G1 X-1.667S0
G1 X-0.625S700
G1 X-1.667S0
G1 X0.024Y0.05S0
G1 X1.666S0
G1 X0.579S700
G1 X1.667S0
G1 X-0.023Y0.05S0
G1 X-1.667S0
G1 X-0.532S700
G1 X-1.667S0
G1 X0.024Y0.05S0
G1 X1.666S0
G1 X0.486S700
G1 X1.667S0
G1 X-0.023Y0.05S0
G1 X-1.667S0
G1 X-0.439S700
G1 X-1.667S0
M9
G1 S0
M5
; return to starting pos
G0 X0.935Y-2.905
M2
