; LightBurn 1.2.01
; GRBL device profile, current position
; Bounds: X-1.66 Y0 to X4.54 Y2.86
G00 G17 G40 G21 G54
G91
M4
; Cut @ 5000 mm/min, 0% power
M8
G0 X0Y0.001
; Layer Lim
G1 X1S0F5000
; Scan @ 4000 mm/min, 70% power
M8
G0 X-2.665Y0.005
; Layer C02
G1 X1.667F4000S0
G1 X0.613S700
G1 X1.626S0
G1 X0.628S700
G1 X1.666S0
G1 X-0.02Y0.05S0
G1 X-1.666S0
G1 X-0.628S700
G1 X-1.588S0
G1 X-0.611S700
G1 X-1.667S0
G1 X0.019Y0.05S0
G1 X1.667S0
G1 X0.61S700
G1 X1.551S0
G1 X0.627S700
G1 X1.666S0
G1 X-0.02Y0.05S0
G1 X-1.666S0
G1 X-0.626S700
G1 X-1.514S0
G1 X-0.608S700
G1 X-1.667S0
G1 X0.019Y0.05S0
G1 X1.667S0
G1 X0.607S700
G1 X1.477S0
G1 X0.625S700
G1 X1.666S0
G1 X-0.02Y0.05S0
G1 X-1.666S0
G1 X-0.625S700
G1 X-1.438S0
G1 X-0.606S700
G1 X-1.667S0
G1 X0.019Y0.05S0
G1 X1.667S0
G1 X0.605S700
G1 X1.401S0
G1 X0.624S700
G1 X1.666S0
G1 X-0.02Y0.05S0
G1 X-1.666S0
G1 X-0.623S700
G1 X-1.364S0
G1 X-0.604S700
G1 X-1.666S0
G1 X0.019Y0.05S0
G1 X1.667S0
G1 X0.602S700
G1 X1.327S0
G1 X0.622S700
G1 X1.666S0
G1 X-0.02Y0.05S0
G1 X-1.666S0
G1 X-0.621S700
G1 X-1.29S0
G1 X-0.601S700
G1 X-1.666S0
G1 X0.019Y0.05S0
G1 X1.667S0
G1 X0.599S700
G1 X1.252S0
G1 X0.621S700
G1 X1.666S0
G1 X-0.02Y0.05S0
G1 X-1.666S0
G1 X-0.62S700
G1 X-1.214S0
G1 X-0.599S700
G1 X-1.666S0
G1 X0.019Y0.05S0
G1 X1.667S0
G1 X0.597S700
G1 X1.177S0
G1 X0.619S700
G1 X1.666S0
G1 X-0.02Y0.05S0
G1 X-1.666S0
G1 X-2.354S700
G1 X-1.666S0
G1 X0.019Y0.05S0
G1 X1.667S0
G1 X2.314S700
G1 X1.666S0
G1 X-0.02Y0.05S0
G1 X-1.666S0
G1 X-2.275S700
G1 X-1.666S0
G1 X0.019Y0.05S0
G1 X1.667S0
G1 X2.235S700
G1 X1.666S0
G1 X-0.02Y0.05S0
G1 X-1.666S0
G1 X-2.196S700
G1 X-1.666S0
G1 X0.019Y0.05S0
G1 X1.667S0
G1 X2.155S700
G1 X1.667S0
G1 X-0.02Y0.05S0
G1 X-1.667S0
G1 X-2.116S700
G1 X-1.667S0
G1 X0.02Y0.05S0
G1 X1.667S0
G1 X2.076S700
G1 X1.667S0
G1 X-0.02Y0.05S0
G1 X-1.667S0
G1 X-2.037S700
G1 X-1.667S0
G1 X0.02Y0.05S0
G1 X1.667S0
G1 X1.997S700
G1 X1.667S0
G1 X-0.02Y0.05S0
G1 X-1.667S0
G1 X-0.609S700
G1 X-0.764S0
G1 X-0.585S700
G1 X-1.667S0
G1 X0.02Y0.05S0
G1 X1.666S0
G1 X0.584S700
G1 X0.727S0
G1 X0.608S700
G1 X1.667S0
G1 X-0.02Y0.05S0
G1 X-1.667S0
G1 X-0.606S700
G1 X-0.69S0
G1 X-0.583S700
G1 X-1.667S0
G1 X0.02Y0.05S0
G1 X1.666S0
G1 X0.582S700
G1 X0.653S0
G1 X0.605S700
G1 X1.667S0
G1 X-0.02Y0.05S0
G1 X-1.667S0
G1 X-0.603S700
G1 X-0.617S0
G1 X-0.58S700
G1 X-1.667S0
G1 X0.02Y0.05S0
G1 X1.666S0
G1 X0.579S700
G1 X0.58S0
G1 X0.602S700
G1 X1.667S0
G1 X-0.02Y0.05S0
G1 X-1.667S0
G1 X-0.601S700
G1 X-0.543S0
G1 X-0.577S700
G1 X-1.667S0
G1 X0.02Y0.05S0
G1 X1.666S0
G1 X0.577S700
G1 X0.506S0
G1 X0.599S700
G1 X1.667S0
G1 X-0.02Y0.05S0
G1 X-1.667S0
G1 X-0.598S700
G1 X-0.469S0
G1 X-0.575S700
G1 X-1.667S0
G1 X0.02Y0.05S0
G1 X1.666S0
G1 X0.574S700
G1 X0.433S0
G1 X0.596S700
G1 X1.667S0
G1 X-0.02Y0.05S0
G1 X-1.667S0
G1 X-0.595S700
G1 X-0.396S0
G1 X-0.572S700
G1 X-1.667S0
G1 X0.02Y0.05S0
G1 X1.666S0
G1 X0.571S700
G1 X0.36S0
G1 X0.593S700
G1 X1.667S0
G1 X-0.02Y0.05S0
G1 X-1.667S0
G1 X-0.592S700
G1 X-0.322S0
G1 X-0.57S700
G1 X-1.667S0
G1 X0.019Y0.05S0
G1 X1.667S0
G1 X0.569S700
G1 X0.286S0
G1 X0.59S700
G1 X1.667S0
G1 X-0.02Y0.05S0
G1 X-1.667S0
G1 X-0.589S700
G1 X-0.249S0
G1 X-0.567S700
G1 X-1.667S0
G1 X0.019Y0.05S0
G1 X1.667S0
G1 X0.566S700
G1 X0.212S0
G1 X0.588S700
G1 X1.667S0
G1 X-0.02Y0.05S0
G1 X-1.667S0
G1 X-0.586S700
G1 X-0.176S0
G1 X-0.564S700
G1 X-1.667S0
G1 X0.019Y0.05S0
G1 X1.667S0
G1 X0.564S700
G1 X0.138S0
G1 X0.585S700
G1 X1.667S0
G1 X-0.02Y0.05S0
G1 X-1.667S0
G1 X-0.583S700
G1 X-0.102S0
G1 X-0.562S700
G1 X-1.667S0
G1 X0.019Y0.05S0
G1 X1.667S0
G1 X0.561S700
G1 X0.065S0
G1 X0.582S700
G1 X1.667S0
G1 X-0.02Y0.05S0
G1 X-1.667S0
G1 X-0.58S700
G1 X-0.029S0
G1 X-0.56S700
G1 X-1.666S0
G1 X0.019Y0.05S0
G1 X1.667S0
G1 X1.129S700
G1 X1.667S0
G1 X-0.02Y0.05S0
G1 X-1.667S0
G1 X-1.09S700
G1 X-1.666S0
G1 X0.019Y0.05S0
G1 X1.667S0
G1 X1.05S700
G1 X1.667S0
G1 X-0.02Y0.05S0
G1 X-1.667S0
G1 X-1.011S700
G1 X-1.666S0
G1 X0.019Y0.05S0
G1 X1.667S0
G1 X0.971S700
G1 X1.667S0
G1 X-0.02Y0.05S0
G1 X-1.667S0
G1 X-0.932S700
G1 X-1.666S0
G1 X0.019Y0.05S0
G1 X1.667S0
G1 X0.892S700
G1 X1.667S0
G1 X-0.02Y0.05S0
G1 X-1.667S0
G1 X-0.853S700
G1 X-1.666S0
G1 X0.019Y0.05S0
G1 X1.667S0
G1 X0.813S700
G1 X1.667S0
G1 X-0.02Y0.05S0
G1 X-1.667S0
G1 X-0.774S700
G1 X-1.666S0
G1 X0.019Y0.05S0
G1 X1.667S0
G1 X0.734S700
G1 X1.666S0
G1 X-0.02Y0.05S0
G1 X-1.666S0
G1 X-0.695S700
G1 X-1.667S0
G1 X0.02Y0.05S0
G1 X1.667S0
G1 X0.655S700
G1 X1.666S0
G1 X-0.02Y0.05S0
G1 X-1.666S0
G1 X-0.616S700
G1 X-1.667S0
M9
G1 S0
M5
; return to starting pos
G0 X0.555Y-2.856
M2
