; LightBurn 1.2.01
; GRBL device profile, current position
; Bounds: X-1.66 Y0.01 to X3.61 Y2.16
G00 G17 G40 G21 G54
G91
M4
; Cut @ 5000 mm/min, 0% power
M8
G0 X0.004Y0.047
; Layer Lim
G1 X1S0F5000
; Scan @ 4000 mm/min, 70% power
M8
G0 X-2.174Y-0.034
; Layer C02
G1 X1.667F4000S0
G1 X0.331S700
G1 X1.667S0
G1 X1.115Y0.05S0
G1 X-1.667S0
G1 X-0.542S700
G1 X-0.386S0
G1 X-0.648S700
G1 X-1.667S0
G1 X-0.09Y0.05S0
G1 X1.667S0
G1 X0.846S700
G1 X0.261S0
G1 X0.538S700
G1 X1.667S0
G1 X-0.022Y0.05S0
G1 X-1.666S0
G1 X-0.532S700
G1 X-0.169S0
G1 X-0.986S700
G1 X-1.667S0
G1 X-0.058Y0.05S0
G1 X1.667S0
G1 X1.11S700
G1 X0.087S0
G1 X0.531S700
G1 X1.667S0
G1 X-0.01Y0.05S0
G1 X-1.667S0
G1 X-0.536S700
G1 X-0.015S0
G1 X-1.201S700
G1 X-1.667S0
G1 X-0.033Y0.05S0
G1 X1.666S0
G1 X1.776S700
G1 X1.667S0
G1 X-0.011Y0.05S0
G1 X-1.666S0
G1 X-1.799S700
G1 X-1.667S0
G1 X-0.014Y0.05S0
G1 X1.666S0
G1 X0.705S700
G1 X0.256S0
G1 X0.843S700
G1 X1.666S0
G1 X-0.009Y0.05S0
G1 X-1.667S0
G1 X-0.738S700
G1 X-0.445S0
G1 X-0.622S700
G1 X-1.667S0
G1 X-0.011Y0.05S0
G1 X1.667S0
G1 X0.594S700
G1 X0.557S0
G1 X0.664S700
G1 X1.666S0
G1 Y0.05S0
G1 X-1.668S0
G1 X-0.628S700
G1 X-0.63S0
G1 X-0.567S700
G1 X-1.666S0
G1 Y0.05S0
G1 X1.663S0
G1 X0.557S700
G1 X0.674S0
G1 X0.595S700
G1 X1.667S0
G1 Y0.05S0
G1 X-1.669S0
G1 X-0.562S700
G1 X-0.712S0
G1 X-0.542S700
G1 X-1.666S0
G1 X0.008Y0.05S0
G1 X1.666S0
G1 X0.539S700
G1 X0.716S0
G1 X0.552S700
G1 X1.666S0
G1 Y0.05S0
G1 X-1.667S0
G1 X-0.545S700
G1 X-0.703S0
G1 X-0.55S700
G1 X-1.667S0
G1 X0.011Y0.05S0
G1 X1.666S0
G1 X0.57S700
G1 X0.68S0
G1 X0.539S700
G1 X1.667S0
G1 Y0.05S0
G1 X-1.667S0
G1 X-0.535S700
G1 X-0.63S0
G1 X-0.595S700
G1 X-1.666S0
G1 X0.029Y0.05S0
G1 X1.667S0
G1 X0.711S700
G1 X0.484S0
G1 X0.536S700
G1 X1.666S0
G1 Y0.05S0
G1 X-1.666S0
G1 X-0.535S700
G1 X-0.34S0
G1 X-0.827S700
G1 X-1.667S0
G1 X0.04Y0.05S0
G1 X1.667S0
G1 X0.998S700
G1 X0.129S0
G1 X0.536S700
G1 X1.666S0
G1 Y0.05S0
G1 X-1.666S0
G1 X-1.599S700
G1 X-1.667S0
G1 X0.064Y0.05S0
G1 X1.667S0
G1 X1.535S700
G1 X1.667S0
G1 Y0.05S0
G1 X-1.666S0
G1 X-1.444S700
G1 X-1.667S0
G1 X0.191Y0.05S0
G1 X1.666S0
G1 X1.254S700
G1 X1.667S0
G1 Y0.05S0
G1 X-1.666S0
G1 X-1.047S700
G1 X-1.666S0
G1 X0.191Y0.05S0
G1 X1.667S0
G1 X0.855S700
G1 X1.667S0
G1 Y0.05S0
G1 X-1.666S0
G1 X-0.673S700
G1 X-1.666S0
G1 X0.134Y0.05S0
G1 X1.666S0
G1 X0.542S700
G1 X1.666S0
G1 Y0.05S0
G1 X-1.663S0
G1 X-0.545S700
G1 X-1.667S0
G1 X-0.878Y0.05S0
G1 X1.667S0
G1 X0.157S700
G1 X0.716S0
G1 X0.553S700
G1 X1.667S0
G1 X-0.006Y0.05S0
G1 X-1.667S0
G1 X-0.551S700
G1 X-0.688S0
G1 X-0.458S700
G1 X-1.667S0
G1 X-0.064Y0.05S0
G1 X1.667S0
G1 X0.547S700
G1 X0.635S0
G1 X0.573S700
G1 X1.667S0
G1 X-0.007Y0.05S0
G1 X-1.667S0
G1 X-0.595S700
G1 X-0.552S0
G1 X-0.585S700
G1 X-1.667S0
G1 X0.018Y0.05S0
G1 X1.666S0
G1 X0.647S700
G1 X0.399S0
G1 X0.654S700
G1 X1.666S0
G1 X-0.015Y0.05S0
G1 X-1.666S0
G1 X-1.658S700
G1 X-1.667S0
G1 X0.027Y0.05S0
G1 X1.667S0
G1 X1.611S700
G1 X1.667S0
G1 X-0.026Y0.05S0
G1 X-1.667S0
G1 X-1.549S700
G1 X-1.667S0
G1 X0.039Y0.05S0
G1 X1.667S0
G1 X1.485S700
G1 X1.666S0
G1 X-0.052Y0.05S0
G1 X-1.667S0
G1 X-1.383S700
G1 X-1.667S0
G1 X0.056Y0.05S0
G1 X1.667S0
G1 X1.269S700
G1 X1.666S0
G1 X-0.082Y0.05S0
G1 X-1.667S0
G1 X-1.086S700
G1 X-1.667S0
G1 X0.121Y0.05S0
G1 X1.667S0
G1 X0.859S700
G1 X1.666S0
G1 X-0.31Y0.05S0
G1 X-1.667S0
G1 X-0.322S700
G1 X-1.666S0
M9
G1 S0
M5
; return to starting pos
G0 X0.879Y-2.163
M2
