; LightBurn 1.2.01
; GRBL device profile, current position
; Bounds: X-1.67 Y0.01 to X4.06 Y2.86
G00 G17 G40 G21 G54
G91
M4
; Cut @ 5000 mm/min, 0% power
M8
G0 X0Y0.006
; Layer Lim
G1 X1S0F5000
; Scan @ 4000 mm/min, 70% power
M8
G0 X-2.667Y0.005
; Layer C02
G1 X1.667F4000S0
G1 X1.553S700
G1 X1.667S0
G1 X0.268Y0.05S0
G1 X-1.667S0
G1 X-1.821S700
G1 X-1.667S0
G1 Y0.05S0
G1 X1.667S0
G1 X1.976S700
G1 X1.666S0
G1 X0.062Y0.05S0
G1 X-1.667S0
G1 X-2.037S700
G1 X-1.667S0
G1 Y0.05S0
G1 X1.667S0
G1 X2.099S700
G1 X1.667S0
G1 X0.062Y0.05S0
G1 X-1.667S0
G1 X-2.161S700
G1 X-1.667S0
G1 Y0.05S0
G1 X1.667S0
G1 X2.208S700
G1 X1.667S0
G1 X0.03Y0.05S0
G1 X-1.666S0
G1 X-2.239S700
G1 X-1.667S0
G1 Y0.05S0
G1 X1.667S0
G1 X2.269S700
G1 X1.667S0
G1 X0.031Y0.05S0
G1 X-1.667S0
G1 X-2.3S700
G1 X-1.667S0
G1 Y0.05S0
G1 X1.667S0
G1 X0.578S700
G1 X0.964S0
G1 X0.789S700
G1 X1.667S0
G1 X0.014Y0.05S0
G1 X-1.666S0
G1 X-0.7S700
G1 X-1.068S0
G1 X-0.578S700
G1 X-1.667S0
G1 Y0.05S0
G1 X1.667S0
G1 X0.578S700
G1 X1.117S0
G1 X0.662S700
G1 X1.666S0
G1 X0.011Y0.05S0
G1 X-1.666S0
G1 X-0.627S700
G1 X-1.163S0
G1 X-0.578S700
G1 X-1.667S0
G1 Y0.05S0
G1 X1.667S0
G1 X0.578S700
G1 X1.184S0
G1 X0.617S700
G1 X1.666S0
G1 X0.011Y0.05S0
G1 X-1.666S0
G1 X-0.608S700
G1 X-1.204S0
G1 X-0.578S700
G1 X-1.667S0
G1 Y0.05S0
G1 X1.667S0
G1 X0.578S700
G1 X1.217S0
G1 X0.598S700
G1 X1.666S0
G1 X-0.006Y0.05S0
G1 X-1.667S0
G1 X-0.59S700
G1 X-1.218S0
G1 X-0.578S700
G1 X-1.667S0
G1 Y0.05S0
G1 X1.667S0
G1 X0.578S700
G1 X1.22S0
G1 X0.582S700
G1 X1.667S0
G1 X-0.006Y0.05S0
G1 X-1.667S0
G1 X-0.589S700
G1 X-1.207S0
G1 X-0.578S700
G1 X-1.667S0
G1 Y0.05S0
G1 X1.667S0
G1 X0.578S700
G1 X1.19S0
G1 X0.6S700
G1 X1.667S0
G1 X-0.007Y0.05S0
G1 X-1.666S0
G1 X-0.619S700
G1 X-1.165S0
G1 X-0.578S700
G1 X-1.667S0
G1 Y0.05S0
G1 X1.667S0
G1 X0.578S700
G1 X1.123S0
G1 X0.638S700
G1 X1.667S0
G1 X-0.025Y0.05S0
G1 X-1.667S0
G1 X-0.668S700
G1 X-1.068S0
G1 X-0.578S700
G1 X-1.667S0
G1 Y0.05S0
G1 X1.667S0
G1 X0.578S700
G1 X0.979S0
G1 X0.733S700
G1 X1.666S0
G1 X-0.037Y0.05S0
G1 X-1.666S0
G1 X-2.253S700
G1 X-1.667S0
G1 Y0.05S0
G1 X1.667S0
G1 X2.21S700
G1 X1.666S0
G1 X-0.042Y0.05S0
G1 X-1.667S0
G1 X-2.167S700
G1 X-1.667S0
G1 Y0.05S0
G1 X1.667S0
G1 X2.096S700
G1 X1.666S0
G1 X-0.071Y0.05S0
G1 X-1.667S0
G1 X-2.024S700
G1 X-1.667S0
G1 Y0.05S0
G1 X1.667S0
G1 X1.893S700
G1 X1.666S0
G1 X0.028Y0.05S0
G1 X-1.667S0
G1 X-1.92S700
G1 X-1.667S0
G1 Y0.05S0
G1 X1.667S0
G1 X1.982S700
G1 X1.667S0
G1 X0.052Y0.05S0
G1 X-1.666S0
G1 X-2.035S700
G1 X-1.667S0
G1 Y0.05S0
G1 X1.667S0
G1 X2.087S700
G1 X1.667S0
G1 X0.048Y0.05S0
G1 X-1.667S0
G1 X-0.694S700
G1 X-0.863S0
G1 X-0.578S700
G1 X-1.667S0
G1 Y0.05S0
G1 X1.667S0
G1 X0.578S700
G1 X0.984S0
G1 X0.596S700
G1 X1.667S0
G1 X0.022Y0.05S0
G1 X-1.666S0
G1 X-0.561S700
G1 X-1.042S0
G1 X-0.578S700
G1 X-1.667S0
G1 Y0.05S0
G1 X1.667S0
G1 X0.578S700
G1 X1.074S0
G1 X0.552S700
G1 X1.666S0
G1 X0.023Y0.05S0
G1 X-1.666S0
G1 X-0.549S700
G1 X-1.1S0
G1 X-0.578S700
G1 X-1.667S0
G1 Y0.05S0
G1 X1.667S0
G1 X0.578S700
G1 X1.11S0
G1 X0.55S700
G1 X1.667S0
G1 Y0.05S0
G1 X-1.664S0
G1 X-0.543S700
G1 X-1.12S0
G1 X-0.578S700
G1 X-1.667S0
G1 Y0.05S0
G1 X1.667S0
G1 X0.578S700
G1 X1.111S0
G1 X0.555S700
G1 X1.666S0
G1 Y0.05S0
G1 X-1.663S0
G1 X-0.567S700
G1 X-1.102S0
G1 X-0.578S700
G1 X-1.667S0
G1 Y0.05S0
G1 X1.667S0
G1 X0.578S700
G1 X1.083S0
G1 X0.589S700
G1 X1.666S0
G1 X-0.008Y0.05S0
G1 X-1.666S0
G1 X-0.607S700
G1 X-1.057S0
G1 X-0.578S700
G1 X-1.667S0
G1 Y0.05S0
G1 X1.667S0
G1 X0.578S700
G1 X1.007S0
G1 X0.64S700
G1 X1.667S0
G1 X-0.017Y0.05S0
G1 X-1.667S0
G1 X-0.708S700
G1 X-0.922S0
G1 X-0.578S700
G1 X-1.667S0
G1 Y0.05S0
G1 X1.667S0
G1 X2.191S700
G1 X1.667S0
G1 X-0.017Y0.05S0
G1 X-1.666S0
G1 X-2.175S700
G1 X-1.667S0
G1 Y0.05S0
G1 X1.667S0
G1 X2.143S700
G1 X1.667S0
G1 X-0.041Y0.05S0
G1 X-1.667S0
G1 X-2.102S700
G1 X-1.667S0
G1 Y0.05S0
G1 X1.667S0
G1 X2.061S700
G1 X1.667S0
G1 X-0.049Y0.05S0
G1 X-1.667S0
G1 X-2.012S700
G1 X-1.667S0
G1 Y0.05S0
G1 X1.667S0
G1 X1.941S700
G1 X1.667S0
G1 X-0.071Y0.05S0
G1 X-1.667S0
G1 X-1.87S700
G1 X-1.667S0
G1 Y0.05S0
G1 X1.667S0
G1 X1.744S700
G1 X1.667S0
G1 X-0.408Y0.05S0
G1 X-1.666S0
G1 X-1.337S700
G1 X-1.667S0
M9
G1 S0
M5
; return to starting pos
G0 X1.667Y-2.861
M2
