; LightBurn 1.2.01
; GRBL device profile, current position
; Bounds: X-1.67 Y0 to X2.79 Y2.95
G00 G17 G40 G21 G54
G91
M4
; Cut @ 5000 mm/min, 0% power
M8
G0 X0Y0.05
; Layer Lim
G1 X1S0F5000
; Scan @ 4000 mm/min, 70% power
M8
G0 X-1.959Y-0.046
; Layer C02
G1 X1.666F4000S0
G1 X0.412S700
G1 X1.666S0
G1 X-0.012Y0.05S0
G1 X-1.666S0
G1 X-0.412S700
G1 X-1.666S0
G1 X-0.012Y0.05S0
G1 X1.666S0
G1 X0.412S700
G1 X1.666S0
G1 X-0.012Y0.05S0
G1 X-1.666S0
G1 X-0.412S700
G1 X-1.666S0
G1 X-0.012Y0.05S0
G1 X1.666S0
G1 X0.411S700
G1 X1.667S0
G1 X-0.012Y0.05S0
G1 X-1.667S0
G1 X-0.411S700
G1 X-1.666S0
G1 X-0.012Y0.05S0
G1 X1.666S0
G1 X0.411S700
G1 X1.667S0
G1 X-0.012Y0.05S0
G1 X-1.667S0
G1 X-0.411S700
G1 X-1.666S0
G1 X-0.012Y0.05S0
G1 X1.666S0
G1 X0.411S700
G1 X1.667S0
G1 X-0.012Y0.05S0
G1 X-1.667S0
G1 X-0.41S700
G1 X-1.667S0
G1 X-0.012Y0.05S0
G1 X1.667S0
G1 X0.41S700
G1 X1.667S0
G1 X-0.013Y0.05S0
G1 X-1.666S0
G1 X-0.41S700
G1 X-1.667S0
G1 X-0.012Y0.05S0
G1 X1.667S0
G1 X0.41S700
G1 X1.666S0
G1 X-0.012Y0.05S0
G1 X-1.666S0
G1 X-0.41S700
G1 X-1.667S0
G1 X-0.012Y0.05S0
G1 X1.667S0
G1 X0.409S700
G1 X1.667S0
G1 X-0.012Y0.05S0
G1 X-1.667S0
G1 X-0.409S700
G1 X-1.667S0
G1 X-0.012Y0.05S0
G1 X1.667S0
G1 X0.409S700
G1 X1.667S0
G1 X-0.012Y0.05S0
G1 X-1.667S0
G1 X-0.409S700
G1 X-1.667S0
G1 X-0.012Y0.05S0
G1 X1.667S0
G1 X0.409S700
G1 X1.667S0
G1 X-0.012Y0.05S0
G1 X-1.667S0
G1 X-0.409S700
G1 X-1.667S0
G1 X-0.012Y0.05S0
G1 X1.667S0
G1 X0.409S700
G1 X1.667S0
G1 X-0.013Y0.05S0
G1 X-1.666S0
G1 X-0.409S700
G1 X-1.667S0
G1 X-0.012Y0.05S0
G1 X1.667S0
G1 X0.409S700
G1 X1.666S0
G1 X-0.012Y0.05S0
G1 X-1.666S0
G1 X-0.409S700
G1 X-1.667S0
G1 X-0.012Y0.05S0
G1 X1.667S0
G1 X0.408S700
G1 X1.667S0
G1 X-0.012Y0.05S0
G1 X-1.667S0
G1 X-0.408S700
G1 X-1.667S0
G1 X-0.012Y0.05S0
G1 X1.667S0
G1 X0.408S700
G1 X1.667S0
G1 X-0.012Y0.05S0
G1 X-1.667S0
G1 X-0.408S700
G1 X-1.667S0
G1 X-0.012Y0.05S0
G1 X1.667S0
G1 X0.408S700
G1 X1.667S0
G1 X-0.012Y0.05S0
G1 X-1.667S0
G1 X-0.408S700
G1 X-1.667S0
G1 X-0.012Y0.05S0
G1 X1.667S0
G1 X0.408S700
G1 X1.667S0
G1 X-0.013Y0.05S0
G1 X-1.666S0
G1 X-0.408S700
G1 X-1.666S0
G1 X-0.012Y0.05S0
G1 X1.666S0
G1 X0.408S700
G1 X1.666S0
G1 X-0.012Y0.05S0
G1 X-1.666S0
G1 X-0.408S700
G1 X-1.666S0
G1 X-0.012Y0.05S0
G1 X1.666S0
G1 X0.408S700
G1 X1.666S0
G1 X-0.012Y0.05S0
G1 X-1.667S0
G1 X-0.407S700
G1 X-1.666S0
G1 X-0.012Y0.05S0
G1 X1.666S0
G1 X0.407S700
G1 X1.667S0
G1 X-0.012Y0.05S0
G1 X-1.667S0
G1 X-0.407S700
G1 X-1.666S0
G1 X-0.012Y0.05S0
G1 X1.666S0
G1 X0.407S700
G1 X1.667S0
G1 X-0.012Y0.05S0
G1 X-1.667S0
G1 X-0.407S700
G1 X-1.666S0
G1 X-0.012Y0.05S0
G1 X1.666S0
G1 X0.407S700
G1 X1.667S0
G1 X-0.012Y0.05S0
G1 X-1.667S0
G1 X-0.407S700
G1 X-1.666S0
G1 X-0.012Y0.05S0
G1 X1.667S0
G1 X0.406S700
G1 X1.666S0
G1 X-0.012Y0.05S0
G1 X-1.666S0
G1 X-0.406S700
G1 X-1.667S0
G1 X-0.012Y0.05S0
G1 X1.667S0
G1 X0.406S700
G1 X1.666S0
G1 X-0.012Y0.05S0
G1 X-1.667S0
G1 X-0.405S700
G1 X-1.667S0
G1 X-0.012Y0.05S0
G1 X1.667S0
G1 X0.405S700
G1 X1.667S0
G1 X-0.012Y0.05S0
G1 X-1.667S0
G1 X-0.405S700
G1 X-1.667S0
G1 X-0.012Y0.05S0
G1 X1.667S0
G1 X0.405S700
G1 X1.667S0
G1 X-0.012Y0.05S0
G1 X-1.667S0
G1 X-0.405S700
G1 X-1.667S0
G1 X-0.012Y0.05S0
G1 X1.667S0
G1 X0.405S700
G1 X1.667S0
G1 X-0.012Y0.05S0
G1 X-1.667S0
G1 X-0.405S700
G1 X-1.667S0
G1 X-0.012Y0.05S0
G1 X1.667S0
G1 X0.405S700
G1 X1.666S0
G1 X-0.012Y0.05S0
G1 X-1.666S0
G1 X-0.405S700
G1 X-1.667S0
G1 X-0.012Y0.05S0
G1 X1.667S0
G1 X0.405S700
G1 X1.666S0
G1 X-0.012Y0.05S0
G1 X-1.667S0
G1 X-0.404S700
G1 X-1.667S0
G1 X-0.012Y0.05S0
G1 X1.667S0
G1 X0.404S700
G1 X1.667S0
G1 X-0.012Y0.05S0
G1 X-1.667S0
G1 X-0.404S700
G1 X-1.667S0
G1 X-0.012Y0.05S0
G1 X1.667S0
G1 X0.404S700
G1 X1.667S0
G1 X-0.012Y0.05S0
G1 X-1.667S0
G1 X-0.404S700
G1 X-1.667S0
M9
G1 S0
M5
; return to starting pos
G0 X1.666Y-2.954
M2
