; LightBurn 1.2.01
; GRBL device profile, current position
; Bounds: X-1.66 Y0.01 to X4.16 Y2.96
G00 G17 G40 G21 G54
G91
M4
; Cut @ 5000 mm/min, 0% power
M8
G0 X0.006Y0.057
; Layer Lim
G1 X1S0F5000
; Scan @ 4000 mm/min, 70% power
M8
G0 X-1.531Y-0.048
; Layer C02
G1 X1.667F4000S0
G1 X0.281S700
G1 X1.667S0
G1 X0.289Y0.05S0
G1 X-1.666S0
G1 X-0.793S700
G1 X-1.666S0
G1 X-0.139Y0.05S0
G1 X1.666S0
G1 X1.063S700
G1 X1.667S0
G1 X0.097Y0.05S0
G1 X-1.666S0
G1 X-1.254S700
G1 X-1.667S0
G1 X-0.087Y0.05S0
G1 X1.666S0
G1 X1.428S700
G1 X1.667S0
G1 X0.062Y0.05S0
G1 X-1.667S0
G1 X-1.556S700
G1 X-1.667S0
G1 X-0.067Y0.05S0
G1 X1.667S0
G1 X1.686S700
G1 X1.666S0
G1 X0.049Y0.05S0
G1 X-1.667S0
G1 X-1.785S700
G1 X-1.666S0
G1 X-0.05Y0.05S0
G1 X1.667S0
G1 X1.88S700
G1 X1.666S0
G1 X0.043Y0.05S0
G1 X-1.667S0
G1 X-1.969S700
G1 X-1.666S0
G1 X-0.036Y0.05S0
G1 X1.666S0
G1 X1.023S700
G1 X0.099S0
G1 X0.916S700
G1 X1.667S0
G1 X0.033Y0.05S0
G1 X-1.667S0
G1 X-0.812S700
G1 X-0.504S0
G1 X-0.791S700
G1 X-1.666S0
G1 X-0.036Y0.05S0
G1 X1.666S0
G1 X0.73S700
G1 X0.7S0
G1 X0.743S700
G1 X1.667S0
G1 X0.022Y0.05S0
G1 X-1.666S0
G1 X-0.71S700
G1 X-0.821S0
G1 X-0.686S700
G1 X-1.666S0
G1 X-0.022Y0.05S0
G1 X1.667S0
G1 X0.648S700
G1 X0.936S0
G1 X0.676S700
G1 X1.667S0
G1 X0.022Y0.05S0
G1 X-1.667S0
G1 X-0.653S700
G1 X-1.017S0
G1 X-0.633S700
G1 X-1.667S0
G1 X-0.021Y0.05S0
G1 X1.666S0
G1 X0.619S700
G1 X1.077S0
G1 X0.643S700
G1 X1.667S0
G1 X0.013Y0.05S0
G1 X-1.666S0
G1 X-0.632S700
G1 X-1.136S0
G1 X-0.606S700
G1 X-1.667S0
G1 X-0.017Y0.05S0
G1 X1.666S0
G1 X0.606S700
G1 X1.178S0
G1 X0.621S700
G1 X1.667S0
G1 X-0.088Y0.05S0
G1 X-1.667S0
G1 X-0.509S700
G1 X-1.219S0
G1 X-0.601S700
G1 X-1.666S0
G1 X-0.012Y0.05S0
G1 X1.666S0
G1 X0.596S700
G1 X1.251S0
G1 X0.336S700
G1 X1.667S0
G1 X-0.158Y0.05S0
G1 X-1.667S0
G1 X-0.164S700
G1 X-1.278S0
G1 X-0.595S700
G1 X-1.666S0
G1 X-0.012Y0.05S0
G1 X1.666S0
G1 X0.598S700
G1 X1.667S0
G1 X-0.009Y0.05S0
G1 X-1.667S0
G1 X-0.601S700
G1 X-1.666S0
G1 X-0.009Y0.05S0
G1 X1.667S0
G1 X0.6S700
G1 X1.667S0
G1 X-0.009Y0.05S0
G1 X-1.667S0
G1 X-0.595S700
G1 X-1.666S0
G1 Y0.05S0
G1 X1.663S0
G1 X0.59S700
G1 X1.666S0
G1 Y0.05S0
G1 X-1.667S0
G1 X-0.593S700
G1 X-1.666S0
G1 Y0.05S0
G1 X1.663S0
G1 X0.595S700
G1 X1.667S0
G1 Y0.05S0
G1 X-1.668S0
G1 X-0.598S700
G1 X-1.666S0
G1 Y0.05S0
G1 X1.666S0
G1 X0.597S700
G1 X1.667S0
G1 Y0.05S0
G1 X-1.668S0
G1 X-0.592S700
G1 X-1.666S0
G1 Y0.05S0
G1 X1.671S0
G1 X0.591S700
G1 X1.666S0
G1 X0.007Y0.05S0
G1 X-1.667S0
G1 X-0.592S700
G1 X-1.667S0
G1 X0.005Y0.05S0
G1 X1.667S0
G1 X0.594S700
G1 X1.667S0
G1 X0.007Y0.05S0
G1 X-1.667S0
G1 X-0.596S700
G1 X-1.667S0
G1 X0.006Y0.05S0
G1 X1.667S0
G1 X0.597S700
G1 X1.667S0
G1 X0.008Y0.05S0
G1 X-1.667S0
G1 X-0.595S700
G1 X-1.666S0
G1 X0.01Y0.05S0
G1 X1.667S0
G1 X0.599S700
G1 X1.667S0
G1 X0.015Y0.05S0
G1 X-1.667S0
G1 X-0.604S700
G1 X-1.667S0
G1 X0.011Y0.05S0
G1 X1.667S0
G1 X0.608S700
G1 X1.231S0
G1 X0.081S700
G1 X1.667S0
G1 X0.209Y0.05S0
G1 X-1.667S0
G1 X-0.306S700
G1 X-1.2S0
G1 X-0.613S700
G1 X-1.667S0
G1 X0.019Y0.05S0
G1 X1.667S0
G1 X0.609S700
G1 X1.168S0
G1 X0.532S700
G1 X1.666S0
G1 X0.067Y0.05S0
G1 X-1.667S0
G1 X-0.621S700
G1 X-1.107S0
G1 X-0.625S700
G1 X-1.667S0
G1 X0.022Y0.05S0
G1 X1.667S0
G1 X0.642S700
G1 X1.034S0
G1 X0.636S700
G1 X1.666S0
G1 X-0.019Y0.05S0
G1 X-1.667S0
G1 X-0.649S700
G1 X-0.962S0
G1 X-0.659S700
G1 X-1.666S0
G1 X0.022Y0.05S0
G1 X1.666S0
G1 X0.682S700
G1 X0.865S0
G1 X0.682S700
G1 X1.666S0
G1 X-0.019Y0.05S0
G1 X-1.667S0
G1 X-0.719S700
G1 X-0.727S0
G1 X-0.732S700
G1 X-1.666S0
G1 X0.036Y0.05S0
G1 X1.667S0
G1 X0.775S700
G1 X0.555S0
G1 X0.791S700
G1 X1.667S0
G1 X-0.031Y0.05S0
G1 X-1.667S0
G1 X-0.957S700
G1 X-0.173S0
G1 X-0.924S700
G1 X-1.667S0
G1 X0.037Y0.05S0
G1 X1.666S0
G1 X1.978S700
G1 X1.666S0
G1 X-0.04Y0.05S0
G1 X-1.667S0
G1 X-1.899S700
G1 X-1.666S0
G1 X0.056Y0.05S0
G1 X1.666S0
G1 X1.803S700
G1 X1.666S0
G1 X-0.04Y0.05S0
G1 X-1.667S0
G1 X-1.706S700
G1 X-1.667S0
G1 X0.056Y0.05S0
G1 X1.667S0
G1 X1.588S700
G1 X1.667S0
G1 X-0.075Y0.05S0
G1 X-1.666S0
G1 X-1.445S700
G1 X-1.667S0
G1 X0.097Y0.05S0
G1 X1.666S0
G1 X1.274S700
G1 X1.666S0
G1 X-0.083Y0.05S0
G1 X-1.667S0
G1 X-1.093S700
G1 X-1.667S0
G1 X0.159Y0.05S0
G1 X1.666S0
G1 X0.763S700
G1 X1.667S0
G1 X-0.283Y0.05S0
G1 X-1.667S0
G1 X-0.199S700
G1 X-1.666S0
M9
G1 S0
M5
; return to starting pos
G0 X0.428Y-2.959
M2
