; LightBurn 1.2.01
; GRBL device profile, current position
; Bounds: X-1.67 Y0.01 to X4.07 Y2.86
G00 G17 G40 G21 G54
G91
M4
; Cut @ 5000 mm/min, 0% power
M8
G0 X0Y0.007
; Layer Lim
G1 X1S0F5000
; Scan @ 4000 mm/min, 70% power
M8
G0 X-2.667Y0.004
; Layer C02
G1 X1.667F4000S0
G1 X1.25S700
G1 X1.666S0
G1 X0.326Y0.05S0
G1 X-1.666S0
G1 X-1.576S700
G1 X-1.667S0
G1 Y0.05S0
G1 X1.667S0
G1 X1.715S700
G1 X1.666S0
G1 X0.093Y0.05S0
G1 X-1.666S0
G1 X-1.808S700
G1 X-1.667S0
G1 Y0.05S0
G1 X1.667S0
G1 X1.892S700
G1 X1.667S0
G1 X0.062Y0.05S0
G1 X-1.666S0
G1 X-1.955S700
G1 X-1.667S0
G1 Y0.05S0
G1 X1.667S0
G1 X2.018S700
G1 X1.666S0
G1 X0.046Y0.05S0
G1 X-1.667S0
G1 X-2.063S700
G1 X-1.667S0
G1 Y0.05S0
G1 X1.667S0
G1 X2.108S700
G1 X1.667S0
G1 X0.041Y0.05S0
G1 X-1.667S0
G1 X-2.149S700
G1 X-1.667S0
G1 Y0.05S0
G1 X1.667S0
G1 X0.578S700
G1 X0.751S0
G1 X0.852S700
G1 X1.667S0
G1 X0.032Y0.05S0
G1 X-1.666S0
G1 X-0.753S700
G1 X-0.883S0
G1 X-0.578S700
G1 X-1.667S0
G1 Y0.05S0
G1 X1.667S0
G1 X0.578S700
G1 X0.962S0
G1 X0.702S700
G1 X1.667S0
G1 X0.021Y0.05S0
G1 X-1.666S0
G1 X-0.667S700
G1 X-1.019S0
G1 X-0.578S700
G1 X-1.667S0
G1 Y0.05S0
G1 X1.667S0
G1 X0.578S700
G1 X1.065S0
G1 X0.642S700
G1 X1.667S0
G1 X0.021Y0.05S0
G1 X-1.667S0
G1 X-0.626S700
G1 X-1.102S0
G1 X-0.578S700
G1 X-1.667S0
G1 Y0.05S0
G1 X1.667S0
G1 X0.578S700
G1 X1.119S0
G1 X0.622S700
G1 X1.666S0
G1 X0.013Y0.05S0
G1 X-1.667S0
G1 X-0.618S700
G1 X-1.135S0
G1 X-0.578S700
G1 X-1.667S0
G1 Y0.05S0
G1 X1.667S0
G1 X0.578S700
G1 X1.152S0
G1 X0.613S700
G1 X1.667S0
G1 X0.01Y0.05S0
G1 X-1.667S0
G1 X-0.607S700
G1 X-1.168S0
G1 X-0.578S700
G1 X-1.667S0
G1 Y0.05S0
G1 X1.667S0
G1 X0.578S700
G1 X1.181S0
G1 X0.602S700
G1 X1.666S0
G1 X0.008Y0.05S0
G1 X-1.667S0
G1 X-0.6S700
G1 X-1.19S0
G1 X-0.578S700
G1 X-1.667S0
G1 Y0.05S0
G1 X1.667S0
G1 X0.578S700
G1 X1.199S0
G1 X0.598S700
G1 X1.667S0
G1 X0.008Y0.05S0
G1 X-1.667S0
G1 X-0.597S700
G1 X-1.208S0
G1 X-0.578S700
G1 X-1.667S0
G1 Y0.05S0
G1 X1.667S0
G1 X0.578S700
G1 X1.217S0
G1 X0.595S700
G1 X1.667S0
G1 X0.008Y0.05S0
G1 X-1.667S0
G1 X-0.598S700
G1 X-1.222S0
G1 X-0.578S700
G1 X-1.667S0
G1 Y0.05S0
G1 X1.667S0
G1 X0.578S700
G1 X1.224S0
G1 X0.603S700
G1 X1.667S0
G1 Y0.05S0
G1 X-1.666S0
G1 X-0.602S700
G1 X-1.226S0
G1 X-0.578S700
G1 X-1.667S0
G1 Y0.05S0
G1 X1.667S0
G1 X0.578S700
G1 X1.229S0
G1 X0.596S700
G1 X1.667S0
G1 Y0.05S0
G1 X-1.67S0
G1 X-0.591S700
G1 X-1.231S0
G1 X-0.578S700
G1 X-1.667S0
G1 Y0.05S0
G1 X1.667S0
G1 X0.578S700
G1 X1.229S0
G1 X0.591S700
G1 X1.666S0
G1 Y0.05S0
G1 X-1.669S0
G1 X-0.593S700
G1 X-1.224S0
G1 X-0.578S700
G1 X-1.667S0
G1 Y0.05S0
G1 X1.667S0
G1 X0.578S700
G1 X1.219S0
G1 X0.595S700
G1 X1.667S0
G1 Y0.05S0
G1 X-1.669S0
G1 X-0.597S700
G1 X-1.215S0
G1 X-0.578S700
G1 X-1.667S0
G1 Y0.05S0
G1 X1.667S0
G1 X0.578S700
G1 X1.21S0
G1 X0.599S700
G1 X1.667S0
G1 X-0.012Y0.05S0
G1 X-1.667S0
G1 X-0.593S700
G1 X-1.204S0
G1 X-0.578S700
G1 X-1.667S0
G1 Y0.05S0
G1 X1.667S0
G1 X0.578S700
G1 X1.196S0
G1 X0.588S700
G1 X1.667S0
G1 X-0.013Y0.05S0
G1 X-1.667S0
G1 X-0.583S700
G1 X-1.188S0
G1 X-0.578S700
G1 X-1.667S0
G1 Y0.05S0
G1 X1.667S0
G1 X0.578S700
G1 X1.18S0
G1 X0.578S700
G1 X1.667S0
G1 X-0.013Y0.05S0
G1 X-1.667S0
G1 X-0.581S700
G1 X-1.164S0
G1 X-0.578S700
G1 X-1.667S0
G1 Y0.05S0
G1 X1.667S0
G1 X0.578S700
G1 X1.138S0
G1 X0.595S700
G1 X1.666S0
G1 X-0.013Y0.05S0
G1 X-1.666S0
G1 X-0.608S700
G1 X-1.112S0
G1 X-0.578S700
G1 X-1.667S0
G1 Y0.05S0
G1 X1.667S0
G1 X0.578S700
G1 X1.085S0
G1 X0.618S700
G1 X1.667S0
G1 X-0.025Y0.05S0
G1 X-1.666S0
G1 X-0.639S700
G1 X-1.04S0
G1 X-0.578S700
G1 X-1.667S0
G1 Y0.05S0
G1 X1.667S0
G1 X0.578S700
G1 X0.987S0
G1 X0.667S700
G1 X1.667S0
G1 X-0.025Y0.05S0
G1 X-1.666S0
G1 X-0.695S700
G1 X-0.935S0
G1 X-0.578S700
G1 X-1.667S0
G1 Y0.05S0
G1 X1.667S0
G1 X0.578S700
G1 X0.833S0
G1 X0.772S700
G1 X1.667S0
G1 X-0.024Y0.05S0
G1 X-1.667S0
G1 X-0.903S700
G1 X-0.678S0
G1 X-0.578S700
G1 X-1.667S0
G1 Y0.05S0
G1 X1.667S0
G1 X2.135S700
G1 X1.666S0
G1 X-0.03Y0.05S0
G1 X-1.666S0
G1 X-2.105S700
G1 X-1.667S0
G1 Y0.05S0
G1 X1.667S0
G1 X2.056S700
G1 X1.667S0
G1 X-0.049Y0.05S0
G1 X-1.667S0
G1 X-2.007S700
G1 X-1.667S0
G1 Y0.05S0
G1 X1.667S0
G1 X1.959S700
G1 X1.666S0
G1 X-0.066Y0.05S0
G1 X-1.666S0
G1 X-1.893S700
G1 X-1.667S0
G1 Y0.05S0
G1 X1.667S0
G1 X1.812S700
G1 X1.667S0
G1 X-0.081Y0.05S0
G1 X-1.666S0
G1 X-1.732S700
G1 X-1.667S0
G1 Y0.05S0
G1 X1.667S0
G1 X1.587S700
G1 X1.667S0
G1 X-0.323Y0.05S0
G1 X-1.667S0
G1 X-1.264S700
G1 X-1.667S0
M9
G1 S0
M5
; return to starting pos
G0 X1.667Y-2.861
M2
