; LightBurn 1.2.01
; GRBL device profile, current position
; Bounds: X-1.67 Y0.01 to X4.34 Y2.96
G00 G17 G40 G21 G54
G91
M4
; Cut @ 5000 mm/min, 0% power
M8
G0 X0Y0.051
; Layer Lim
G1 X1S0F5000
; Scan @ 4000 mm/min, 70% power
M8
G0 X-1.363Y-0.042
; Layer C02
G1 X1.666F4000S0
G1 X0.311S700
G1 X1.667S0
G1 X0.306Y0.05S0
G1 X-1.667S0
G1 X-0.902S700
G1 X-1.667S0
G1 X-0.162Y0.05S0
G1 X1.667S0
G1 X1.217S700
G1 X1.667S0
G1 X0.138Y0.05S0
G1 X-1.667S0
G1 X-1.471S700
G1 X-1.667S0
G1 X-0.097Y0.05S0
G1 X1.667S0
G1 X1.667S700
G1 X1.667S0
G1 X0.098Y0.05S0
G1 X-1.666S0
G1 X-1.835S700
G1 X-1.666S0
G1 X-0.067Y0.05S0
G1 X1.666S0
G1 X1.981S700
G1 X1.667S0
G1 X0.069Y0.05S0
G1 X-1.666S0
G1 X-2.103S700
G1 X-1.667S0
G1 X-0.052Y0.05S0
G1 X1.667S0
G1 X2.224S700
G1 X1.667S0
G1 X0.049Y0.05S0
G1 X-1.667S0
G1 X-2.32S700
G1 X-1.666S0
G1 X-0.04Y0.05S0
G1 X1.666S0
G1 X1.001S700
G1 X0.159S0
G1 X1.2S700
G1 X1.667S0
G1 Y0.05S0
G1 X-1.667S0
G1 X-0.926S700
G1 X-0.667S0
G1 X-0.807S700
G1 X-1.666S0
G1 X-0.036Y0.05S0
G1 X1.667S0
G1 X0.766S700
G1 X0.88S0
G1 X0.789S700
G1 X1.667S0
G1 Y0.05S0
G1 X-1.667S0
G1 X-0.71S700
G1 X-1.034S0
G1 X-0.721S700
G1 X-1.667S0
G1 X-0.03Y0.05S0
G1 X1.667S0
G1 X0.691S700
G1 X1.173S0
G1 X0.631S700
G1 X1.667S0
G1 Y0.05S0
G1 X-1.667S0
G1 X-0.584S700
G1 X-1.264S0
G1 X-0.675S700
G1 X-1.667S0
G1 X-0.022Y0.05S0
G1 X1.667S0
G1 X0.654S700
G1 X1.307S0
G1 X0.584S700
G1 X1.667S0
G1 Y0.05S0
G1 X-1.667S0
G1 X-0.584S700
G1 X-1.348S0
G1 X-0.635S700
G1 X-1.666S0
G1 X-0.022Y0.05S0
G1 X1.667S0
G1 X0.632S700
G1 X1.372S0
G1 X0.584S700
G1 X1.667S0
G1 Y0.05S0
G1 X-1.667S0
G1 X-0.584S700
G1 X-1.396S0
G1 X-0.625S700
G1 X-1.666S0
G1 X-0.015Y0.05S0
G1 X1.667S0
G1 X0.614S700
G1 X1.421S0
G1 X0.584S700
G1 X1.667S0
G1 Y0.05S0
G1 X-1.667S0
G1 X-0.584S700
G1 X-1.443S0
G1 X-0.606S700
G1 X-1.667S0
G1 X-0.014Y0.05S0
G1 X1.667S0
G1 X0.611S700
G1 X0.791S0
G1 X1.245S700
G1 X1.667S0
G1 Y0.05S0
G1 X-1.667S0
G1 X-1.245S700
G1 X-0.8S0
G1 X-0.609S700
G1 X-1.667S0
G1 X-0.007Y0.05S0
G1 X1.667S0
G1 X0.607S700
G1 X0.809S0
G1 X1.245S700
G1 X1.667S0
G1 Y0.05S0
G1 X-1.667S0
G1 X-1.245S700
G1 X-0.819S0
G1 X-0.605S700
G1 X-1.666S0
G1 X-0.006Y0.05S0
G1 X1.667S0
G1 X0.604S700
G1 X0.825S0
G1 X1.245S700
G1 X1.667S0
G1 Y0.05S0
G1 X-1.667S0
G1 X-1.245S700
G1 X-0.829S0
G1 X-0.601S700
G1 X-1.666S0
G1 Y0.05S0
G1 X1.666S0
G1 X0.596S700
G1 X0.834S0
G1 X1.245S700
G1 X1.667S0
G1 Y0.05S0
G1 X-1.667S0
G1 X-1.245S700
G1 X-0.839S0
G1 X-0.592S700
G1 X-1.666S0
G1 Y0.05S0
G1 X1.667S0
G1 X0.591S700
G1 X0.839S0
G1 X1.245S700
G1 X1.667S0
G1 Y0.05S0
G1 X-1.667S0
G1 X-1.245S700
G1 X-0.836S0
G1 X-0.59S700
G1 X-1.667S0
G1 Y0.05S0
G1 X1.671S0
G1 X0.589S700
G1 X1.666S0
G1 Y0.05S0
G1 X-1.663S0
G1 X-0.588S700
G1 X-1.667S0
G1 Y0.05S0
G1 X1.67S0
G1 X0.59S700
G1 X1.667S0
G1 X0.011Y0.05S0
G1 X-1.667S0
G1 X-0.597S700
G1 X-1.667S0
G1 Y0.05S0
G1 X1.671S0
G1 X0.604S700
G1 X1.666S0
G1 X0.011Y0.05S0
G1 X-1.666S0
G1 X-0.607S700
G1 X-1.667S0
G1 X0.016Y0.05S0
G1 X1.667S0
G1 X0.603S700
G1 X1.667S0
G1 X0.019Y0.05S0
G1 X-1.666S0
G1 X-0.607S700
G1 X-1.666S0
G1 X0.016Y0.05S0
G1 X1.667S0
G1 X0.609S700
G1 X1.666S0
G1 X1.63Y0.05S0
G1 X-1.667S0
G1 X-0.272S700
G1 X-1.338S0
G1 X-0.612S700
G1 X-1.667S0
G1 X0.016Y0.05S0
G1 X1.667S0
G1 X0.621S700
G1 X1.294S0
G1 X0.558S700
G1 X1.667S0
G1 X0.041Y0.05S0
G1 X-1.667S0
G1 X-0.626S700
G1 X-1.228S0
G1 X-0.644S700
G1 X-1.666S0
G1 X0.027Y0.05S0
G1 X1.666S0
G1 X0.656S700
G1 X1.156S0
G1 X0.644S700
G1 X1.667S0
G1 X-0.014Y0.05S0
G1 X-1.667S0
G1 X-0.67S700
G1 X-1.061S0
G1 X-0.68S700
G1 X-1.666S0
G1 X0.03Y0.05S0
G1 X1.667S0
G1 X0.705S700
G1 X0.954S0
G1 X0.702S700
G1 X1.667S0
G1 X-0.024Y0.05S0
G1 X-1.667S0
G1 X-0.745S700
G1 X-0.806S0
G1 X-0.755S700
G1 X-1.667S0
G1 X0.031Y0.05S0
G1 X1.667S0
G1 X0.827S700
G1 X0.609S0
G1 X0.815S700
G1 X1.666S0
G1 X-0.028Y0.05S0
G1 X-1.667S0
G1 X-0.973S700
G1 X-0.243S0
G1 X-0.976S700
G1 X-1.666S0
G1 X0.047Y0.05S0
G1 X1.667S0
G1 X2.109S700
G1 X1.667S0
G1 X-0.036Y0.05S0
G1 X-1.667S0
G1 X-2.022S700
G1 X-1.667S0
G1 X0.051Y0.05S0
G1 X1.666S0
G1 X1.928S700
G1 X1.667S0
G1 X-0.049Y0.05S0
G1 X-1.667S0
G1 X-1.828S700
G1 X-1.667S0
G1 X0.051Y0.05S0
G1 X1.667S0
G1 X1.723S700
G1 X1.667S0
G1 X-0.069Y0.05S0
G1 X-1.667S0
G1 X-1.565S700
G1 X-1.667S0
G1 X0.095Y0.05S0
G1 X1.666S0
G1 X1.395S700
G1 X1.667S0
G1 X-0.101Y0.05S0
G1 X-1.666S0
G1 X-1.189S700
G1 X-1.667S0
G1 X0.162Y0.05S0
G1 X1.667S0
G1 X0.881S700
G1 X1.667S0
G1 X-0.397Y0.05S0
G1 X-1.667S0
G1 X-0.189S700
G1 X-1.667S0
M9
G1 S0
M5
; return to starting pos
G0 X0.36Y-2.959
M2
