; LightBurn 1.2.01
; GRBL device profile, current position
; Bounds: X-1.67 Y0.03 to X3.51 Y2.88
G00 G17 G40 G21 G54
G91
M4
; Cut @ 5000 mm/min, 0% power
M8
G0 X0Y0.055
; Layer Lim
G1 X1S0F5000
; Scan @ 4000 mm/min, 70% power
M8
G0 X-2.038Y-0.022
; Layer C02
G1 X1.667F4000S0
G1 X0.519S700
G1 X1.667S0
G1 X0.162Y0.05S0
G1 X-1.667S0
G1 X-0.813S700
G1 X-1.667S0
G1 X-0.107Y0.05S0
G1 X1.666S0
G1 X1.022S700
G1 X1.667S0
G1 X0.077Y0.05S0
G1 X-1.667S0
G1 X-1.171S700
G1 X-1.667S0
G1 X-0.072Y0.05S0
G1 X1.667S0
G1 X1.302S700
G1 X1.667S0
G1 X0.051Y0.05S0
G1 X-1.666S0
G1 X-1.396S700
G1 X-1.667S0
G1 X-0.035Y0.05S0
G1 X1.667S0
G1 X1.476S700
G1 X1.667S0
G1 X0.034Y0.05S0
G1 X-1.667S0
G1 X-1.545S700
G1 X-1.667S0
G1 X-0.025Y0.05S0
G1 X1.666S0
G1 X1.605S700
G1 X1.667S0
G1 X0.026Y0.05S0
G1 X-1.666S0
G1 X-1.654S700
G1 X-1.667S0
G1 X-0.022Y0.05S0
G1 X1.667S0
G1 X0.703S700
G1 X0.296S0
G1 X0.698S700
G1 X1.666S0
G1 X0.022Y0.05S0
G1 X-1.667S0
G1 X-0.639S700
G1 X-0.457S0
G1 X-0.641S700
G1 X-1.667S0
G1 X-0.011Y0.05S0
G1 X1.667S0
G1 X0.604S700
G1 X0.546S0
G1 X0.614S700
G1 X1.666S0
G1 X0.011Y0.05S0
G1 X-1.667S0
G1 X-0.608S700
G1 X-0.595S0
G1 X-0.583S700
G1 X-1.666S0
G1 X-0.012Y0.05S0
G1 X1.667S0
G1 X0.57S700
G1 X0.634S0
G1 X0.603S700
G1 X1.667S0
G1 X0.008Y0.05S0
G1 X-1.667S0
G1 X-0.595S700
G1 X-0.666S0
G1 X-0.559S700
G1 X-1.667S0
G1 Y0.05S0
G1 X1.665S0
G1 X0.556S700
G1 X0.687S0
G1 X0.58S700
G1 X1.667S0
G1 Y0.05S0
G1 X-1.666S0
G1 X-0.579S700
G1 X-0.695S0
G1 X-0.551S700
G1 X-1.667S0
G1 Y0.05S0
G1 X1.665S0
G1 X0.55S700
G1 X0.7S0
G1 X0.577S700
G1 X1.667S0
G1 Y0.05S0
G1 X-1.666S0
G1 X-0.576S700
G1 X-0.706S0
G1 X-0.16S700
G1 X-1.667S0
G1 X0.868Y0.05S0
G1 X1.667S0
G1 X0.575S700
G1 X1.666S0
G1 Y0.05S0
G1 X-1.666S0
G1 X-0.574S700
G1 X-1.666S0
G1 Y0.05S0
G1 X1.666S0
G1 X0.575S700
G1 X1.667S0
G1 Y0.05S0
G1 X-1.666S0
G1 X-0.576S700
G1 X-1.666S0
G1 Y0.05S0
G1 X1.666S0
G1 X0.576S700
G1 X1.667S0
G1 Y0.05S0
G1 X-1.666S0
G1 X-0.577S700
G1 X-1.666S0
G1 Y0.05S0
G1 X1.666S0
G1 X0.578S700
G1 X1.666S0
G1 Y0.05S0
G1 X-1.666S0
G1 X-0.578S700
G1 X-1.666S0
G1 Y0.05S0
G1 X1.666S0
G1 X0.579S700
G1 X1.667S0
G1 Y0.05S0
G1 X-1.666S0
G1 X-0.58S700
G1 X-1.666S0
G1 Y0.05S0
G1 X1.666S0
G1 X0.58S700
G1 X1.667S0
G1 Y0.05S0
G1 X-1.666S0
G1 X-0.581S700
G1 X-1.666S0
G1 Y0.05S0
G1 X1.666S0
G1 X0.582S700
G1 X1.666S0
G1 Y0.05S0
G1 X-1.666S0
G1 X-0.582S700
G1 X-1.666S0
G1 Y0.05S0
G1 X1.666S0
G1 X0.583S700
G1 X1.667S0
G1 Y0.05S0
G1 X-1.666S0
G1 X-0.584S700
G1 X-1.666S0
G1 Y0.05S0
G1 X1.666S0
G1 X0.584S700
G1 X1.667S0
G1 Y0.05S0
G1 X-1.666S0
G1 X-0.585S700
G1 X-1.666S0
G1 Y0.05S0
G1 X1.666S0
G1 X0.586S700
G1 X1.666S0
G1 Y0.05S0
G1 X-1.667S0
G1 X-0.585S700
G1 X-1.666S0
G1 Y0.05S0
G1 X1.666S0
G1 X0.585S700
G1 X1.666S0
G1 Y0.05S0
G1 X-1.667S0
G1 X-0.584S700
G1 X-1.666S0
G1 Y0.05S0
G1 X1.666S0
G1 X0.584S700
G1 X1.666S0
G1 Y0.05S0
G1 X-1.667S0
G1 X-0.583S700
G1 X-1.666S0
G1 Y0.05S0
G1 X1.666S0
G1 X0.583S700
G1 X1.666S0
G1 Y0.05S0
G1 X-1.667S0
G1 X-0.582S700
G1 X-1.666S0
G1 Y0.05S0
G1 X1.666S0
G1 X0.582S700
G1 X1.666S0
G1 Y0.05S0
G1 X-1.667S0
G1 X-0.581S700
G1 X-1.666S0
G1 Y0.05S0
G1 X1.666S0
G1 X0.581S700
G1 X1.666S0
G1 Y0.05S0
G1 X-1.667S0
G1 X-0.58S700
G1 X-1.666S0
G1 Y0.05S0
G1 X1.666S0
G1 X0.58S700
G1 X1.666S0
G1 Y0.05S0
G1 X-1.667S0
G1 X-0.579S700
G1 X-1.666S0
G1 Y0.05S0
G1 X1.666S0
G1 X0.579S700
G1 X1.666S0
G1 Y0.05S0
G1 X-1.667S0
G1 X-0.578S700
G1 X-1.666S0
G1 Y0.05S0
G1 X1.666S0
G1 X0.578S700
G1 X1.667S0
G1 Y0.05S0
G1 X-1.668S0
G1 X-0.577S700
G1 X-1.666S0
G1 Y0.05S0
G1 X1.666S0
G1 X0.577S700
G1 X1.667S0
G1 Y0.05S0
G1 X-1.668S0
G1 X-0.576S700
G1 X-1.666S0
M9
G1 S0
M5
; return to starting pos
G0 X0.411Y-2.883
M2
