; LightBurn 1.2.01
; GRBL device profile, current position
; Bounds: X-1.67 Y0 to X4.24 Y2.86
G00 G17 G40 G21 G54
G91
M4
; Cut @ 5000 mm/min, 0% power
M8
G0 X0Y0.001
; Layer Lim
G1 X1S0F5000
; Scan @ 4000 mm/min, 70% power
M8
G0 X-2.667Y0.005
; Layer C02
G1 X1.667F4000S0
G1 X0.578S700
G1 X1.252S0
G1 X0.746S700
G1 X1.667S0
G1 X-0.032Y0.05S0
G1 X-1.667S0
G1 X-0.744S700
G1 X-1.222S0
G1 X-0.578S700
G1 X-1.667S0
G1 Y0.05S0
G1 X1.667S0
G1 X0.578S700
G1 X1.193S0
G1 X0.74S700
G1 X1.667S0
G1 X-0.032Y0.05S0
G1 X-1.667S0
G1 X-0.737S700
G1 X-1.164S0
G1 X-0.578S700
G1 X-1.667S0
G1 Y0.05S0
G1 X1.667S0
G1 X0.578S700
G1 X1.135S0
G1 X0.733S700
G1 X1.667S0
G1 X-0.032Y0.05S0
G1 X-1.667S0
G1 X-0.731S700
G1 X-1.105S0
G1 X-0.578S700
G1 X-1.667S0
G1 Y0.05S0
G1 X1.667S0
G1 X0.578S700
G1 X1.076S0
G1 X0.727S700
G1 X1.667S0
G1 X-0.032Y0.05S0
G1 X-1.667S0
G1 X-0.724S700
G1 X-1.047S0
G1 X-0.578S700
G1 X-1.667S0
G1 Y0.05S0
G1 X1.667S0
G1 X0.578S700
G1 X1.017S0
G1 X0.721S700
G1 X1.667S0
G1 X-0.032Y0.05S0
G1 X-1.667S0
G1 X-0.718S700
G1 X-0.988S0
G1 X-0.578S700
G1 X-1.667S0
G1 Y0.05S0
G1 X1.667S0
G1 X0.578S700
G1 X0.959S0
G1 X0.714S700
G1 X1.667S0
G1 X-0.032Y0.05S0
G1 X-1.667S0
G1 X-0.712S700
G1 X-0.929S0
G1 X-0.578S700
G1 X-1.667S0
G1 Y0.05S0
G1 X1.667S0
G1 X0.578S700
G1 X0.9S0
G1 X0.708S700
G1 X1.667S0
G1 X-0.032Y0.05S0
G1 X-1.667S0
G1 X-0.705S700
G1 X-0.871S0
G1 X-0.578S700
G1 X-1.667S0
G1 Y0.05S0
G1 X1.667S0
G1 X0.578S700
G1 X0.842S0
G1 X0.701S700
G1 X1.667S0
G1 X-0.032Y0.05S0
G1 X-1.667S0
G1 X-0.699S700
G1 X-0.812S0
G1 X-0.578S700
G1 X-1.667S0
G1 Y0.05S0
G1 X1.667S0
G1 X0.578S700
G1 X0.783S0
G1 X0.695S700
G1 X1.667S0
G1 X-0.032Y0.05S0
G1 X-1.667S0
G1 X-0.692S700
G1 X-0.754S0
G1 X-0.578S700
G1 X-1.667S0
G1 Y0.05S0
G1 X1.667S0
G1 X0.618S700
G1 X0.684S0
G1 X0.689S700
G1 X1.667S0
G1 X-0.032Y0.05S0
G1 X-1.667S0
G1 X-0.686S700
G1 X-0.606S0
G1 X-0.667S700
G1 X-1.667S0
G1 Y0.05S0
G1 X1.667S0
G1 X0.716S700
G1 X0.528S0
G1 X0.682S700
G1 X1.667S0
G1 X-0.032Y0.05S0
G1 X-1.667S0
G1 X-0.68S700
G1 X-0.449S0
G1 X-0.765S700
G1 X-1.667S0
G1 Y0.05S0
G1 X1.667S0
G1 X0.814S700
G1 X0.371S0
G1 X0.676S700
G1 X1.667S0
G1 X-0.032Y0.05S0
G1 X-1.667S0
G1 X-0.673S700
G1 X-0.293S0
G1 X-0.863S700
G1 X-1.667S0
G1 Y0.05S0
G1 X1.667S0
G1 X0.912S700
G1 X0.215S0
G1 X0.669S700
G1 X1.667S0
G1 X-0.032Y0.05S0
G1 X-1.667S0
G1 X-0.667S700
G1 X-0.136S0
G1 X-0.961S700
G1 X-1.667S0
G1 Y0.05S0
G1 X1.667S0
G1 X1.01S700
G1 X0.058S0
G1 X0.663S700
G1 X1.667S0
G1 X-0.032Y0.05S0
G1 X-1.667S0
G1 X-1.699S700
G1 X-1.667S0
G1 Y0.05S0
G1 X1.667S0
G1 X1.666S700
G1 X1.667S0
G1 X-0.032Y0.05S0
G1 X-1.667S0
G1 X-1.634S700
G1 X-1.667S0
G1 Y0.05S0
G1 X1.667S0
G1 X1.601S700
G1 X1.667S0
G1 X-0.032Y0.05S0
G1 X-1.667S0
G1 X-1.569S700
G1 X-1.667S0
G1 Y0.05S0
G1 X1.667S0
G1 X0.578S700
G1 X0.013S0
G1 X0.945S700
G1 X1.667S0
G1 X-0.032Y0.05S0
G1 X-1.667S0
G1 X-0.867S700
G1 X-0.059S0
G1 X-0.578S700
G1 X-1.667S0
G1 Y0.05S0
G1 X1.667S0
G1 X0.578S700
G1 X0.105S0
G1 X0.788S700
G1 X1.667S0
G1 X-0.018Y0.05S0
G1 X-1.667S0
G1 X-0.724S700
G1 X-0.151S0
G1 X-0.578S700
G1 X-1.667S0
G1 Y0.05S0
G1 X1.667S0
G1 X0.578S700
G1 X0.197S0
G1 X0.726S700
G1 X1.667S0
G1 X0.048Y0.05S0
G1 X-1.666S0
G1 X-0.729S700
G1 X-0.243S0
G1 X-0.578S700
G1 X-1.667S0
G1 Y0.05S0
G1 X1.667S0
G1 X0.578S700
G1 X0.289S0
G1 X0.731S700
G1 X1.667S0
G1 X0.048Y0.05S0
G1 X-1.667S0
G1 X-0.733S700
G1 X-0.335S0
G1 X-0.578S700
G1 X-1.667S0
G1 Y0.05S0
G1 X1.667S0
G1 X0.578S700
G1 X0.381S0
G1 X0.736S700
G1 X1.666S0
G1 X0.049Y0.05S0
G1 X-1.667S0
G1 X-0.738S700
G1 X-0.427S0
G1 X-0.578S700
G1 X-1.667S0
G1 Y0.05S0
G1 X1.667S0
G1 X0.578S700
G1 X0.473S0
G1 X0.74S700
G1 X1.667S0
G1 X0.048Y0.05S0
G1 X-1.666S0
G1 X-0.743S700
G1 X-0.519S0
G1 X-0.578S700
G1 X-1.667S0
G1 Y0.05S0
G1 X1.667S0
G1 X0.578S700
G1 X0.565S0
G1 X0.745S700
G1 X1.667S0
G1 X0.048Y0.05S0
G1 X-1.667S0
G1 X-0.748S700
G1 X-0.61S0
G1 X-0.578S700
G1 X-1.667S0
G1 Y0.05S0
G1 X1.667S0
G1 X0.578S700
G1 X0.656S0
G1 X0.751S700
G1 X1.666S0
G1 X0.049Y0.05S0
G1 X-1.667S0
G1 X-0.753S700
G1 X-0.702S0
G1 X-0.578S700
G1 X-1.667S0
G1 Y0.05S0
G1 X1.667S0
G1 X0.578S700
G1 X0.748S0
G1 X0.756S700
G1 X1.666S0
G1 X0.049Y0.05S0
G1 X-1.667S0
G1 X-0.758S700
G1 X-0.794S0
G1 X-0.578S700
G1 X-1.667S0
G1 Y0.05S0
G1 X1.667S0
G1 X0.578S700
G1 X0.84S0
G1 X0.76S700
G1 X1.667S0
G1 X0.048Y0.05S0
G1 X-1.666S0
G1 X-0.763S700
G1 X-0.886S0
G1 X-0.578S700
G1 X-1.667S0
G1 Y0.05S0
G1 X1.667S0
G1 X0.578S700
G1 X0.932S0
G1 X0.765S700
G1 X1.667S0
G1 X0.048Y0.05S0
G1 X-1.667S0
G1 X-0.767S700
G1 X-0.978S0
G1 X-0.578S700
G1 X-1.667S0
G1 Y0.05S0
G1 X1.667S0
G1 X0.578S700
G1 X1.024S0
G1 X0.77S700
G1 X1.666S0
G1 X0.049Y0.05S0
G1 X-1.667S0
G1 X-0.772S700
G1 X-1.07S0
G1 X-0.578S700
G1 X-1.667S0
G1 Y0.05S0
G1 X1.667S0
G1 X0.578S700
G1 X1.116S0
G1 X0.774S700
G1 X1.667S0
G1 X0.048Y0.05S0
G1 X-1.666S0
G1 X-0.777S700
G1 X-1.162S0
G1 X-0.578S700
G1 X-1.667S0
M9
G1 S0
M5
; return to starting pos
G0 X1.667Y-2.856
M2
