; LightBurn 1.2.01
; GRBL device profile, current position
; Bounds: X-1.67 Y0 to X4.43 Y2.86
G00 G17 G40 G21 G54
G91
M4
; Cut @ 5000 mm/min, 0% power
M8
G0 X0Y0.001
; Layer Lim
G1 X1S0F5000
; Scan @ 4000 mm/min, 70% power
M8
G0 X-2.667Y0.005
; Layer C02
G1 X1.667F4000S0
G1 X0.537S700
G1 X0.565S0
G1 X0.558S700
G1 X0.567S0
G1 X0.537S700
G1 X1.666S0
G1 Y0.05S0
G1 X-1.666S0
G1 X-0.537S700
G1 X-0.554S0
G1 X-0.584S700
G1 X-0.552S0
G1 X-0.537S700
G1 X-1.667S0
G1 Y0.05S0
G1 X1.667S0
G1 X0.537S700
G1 X0.54S0
G1 X0.608S700
G1 X0.542S0
G1 X0.537S700
G1 X1.666S0
G1 Y0.05S0
G1 X-1.666S0
G1 X-0.537S700
G1 X-0.529S0
G1 X-0.634S700
G1 X-0.527S0
G1 X-0.537S700
G1 X-1.667S0
G1 Y0.05S0
G1 X1.667S0
G1 X0.537S700
G1 X0.514S0
G1 X0.66S700
G1 X0.516S0
G1 X0.537S700
G1 X1.666S0
G1 Y0.05S0
G1 X-1.666S0
G1 X-0.537S700
G1 X-0.504S0
G1 X-0.684S700
G1 X-0.502S0
G1 X-0.537S700
G1 X-1.667S0
G1 Y0.05S0
G1 X1.667S0
G1 X0.537S700
G1 X0.489S0
G1 X0.71S700
G1 X0.491S0
G1 X0.537S700
G1 X1.666S0
G1 Y0.05S0
G1 X-1.666S0
G1 X-0.537S700
G1 X-0.479S0
G1 X-0.734S700
G1 X-0.477S0
G1 X-0.537S700
G1 X-1.667S0
G1 Y0.05S0
G1 X1.667S0
G1 X0.537S700
G1 X0.464S0
G1 X0.76S700
G1 X0.466S0
G1 X0.537S700
G1 X1.666S0
G1 Y0.05S0
G1 X-1.666S0
G1 X-0.537S700
G1 X-0.453S0
G1 X-0.785S700
G1 X-0.452S0
G1 X-0.537S700
G1 X-1.667S0
G1 Y0.05S0
G1 X1.667S0
G1 X0.537S700
G1 X0.439S0
G1 X0.81S700
G1 X0.441S0
G1 X0.537S700
G1 X1.666S0
G1 Y0.05S0
G1 X-1.666S0
G1 X-0.537S700
G1 X-0.428S0
G1 X-0.836S700
G1 X-0.426S0
G1 X-0.537S700
G1 X-1.667S0
G1 Y0.05S0
G1 X1.667S0
G1 X0.537S700
G1 X0.414S0
G1 X0.861S700
G1 X0.415S0
G1 X0.537S700
G1 X1.666S0
G1 Y0.05S0
G1 X-1.666S0
G1 X-0.537S700
G1 X-0.403S0
G1 X-0.886S700
G1 X-0.401S0
G1 X-0.537S700
G1 X-1.667S0
G1 Y0.05S0
G1 X1.667S0
G1 X0.537S700
G1 X0.389S0
G1 X0.911S700
G1 X0.39S0
G1 X0.537S700
G1 X1.666S0
G1 Y0.05S0
G1 X-1.666S0
G1 X-0.537S700
G1 X-0.378S0
G1 X-0.936S700
G1 X-0.376S0
G1 X-0.537S700
G1 X-1.667S0
G1 Y0.05S0
G1 X1.667S0
G1 X0.537S700
G1 X0.364S0
G1 X0.961S700
G1 X0.365S0
G1 X0.537S700
G1 X1.666S0
G1 Y0.05S0
G1 X-1.666S0
G1 X-0.537S700
G1 X-0.352S0
G1 X-0.987S700
G1 X-0.351S0
G1 X-0.537S700
G1 X-1.667S0
G1 Y0.05S0
G1 X1.667S0
G1 X0.537S700
G1 X0.339S0
G1 X1.011S700
G1 X0.34S0
G1 X0.537S700
G1 X1.666S0
G1 Y0.05S0
G1 X-1.666S0
G1 X-0.537S700
G1 X-0.327S0
G1 X-0.504S700
G1 X-0.024S0
G1 X-0.509S700
G1 X-0.326S0
G1 X-0.537S700
G1 X-1.667S0
G1 Y0.05S0
G1 X1.667S0
G1 X0.537S700
G1 X0.313S0
G1 X0.508S700
G1 X0.051S0
G1 X0.503S700
G1 X0.315S0
G1 X0.537S700
G1 X1.666S0
G1 Y0.05S0
G1 X-1.666S0
G1 X-0.537S700
G1 X-0.302S0
G1 X-0.503S700
G1 X-0.077S0
G1 X-0.507S700
G1 X-0.301S0
G1 X-0.537S700
G1 X-1.667S0
G1 Y0.05S0
G1 X1.667S0
G1 X0.537S700
G1 X0.288S0
G1 X0.507S700
G1 X0.104S0
G1 X0.502S700
G1 X0.289S0
G1 X0.537S700
G1 X1.666S0
G1 Y0.05S0
G1 X-1.666S0
G1 X-0.537S700
G1 X-0.277S0
G1 X-0.501S700
G1 X-0.13S0
G1 X-0.506S700
G1 X-0.276S0
G1 X-0.537S700
G1 X-1.667S0
G1 Y0.05S0
G1 X1.667S0
G1 X0.537S700
G1 X0.263S0
G1 X0.505S700
G1 X0.157S0
G1 X0.501S700
G1 X0.264S0
G1 X0.537S700
G1 X1.666S0
G1 Y0.05S0
G1 X-1.666S0
G1 X-0.537S700
G1 X-0.251S0
G1 X-0.501S700
G1 X-0.183S0
G1 X-0.504S700
G1 X-0.251S0
G1 X-0.537S700
G1 X-1.667S0
G1 Y0.05S0
G1 X1.667S0
G1 X0.537S700
G1 X0.238S0
G1 X0.504S700
G1 X0.209S0
G1 X0.5S700
G1 X0.239S0
G1 X0.537S700
G1 X1.666S0
G1 Y0.05S0
G1 X-1.666S0
G1 X-0.537S700
G1 X-0.226S0
G1 X-0.5S700
G1 X-0.236S0
G1 X-0.503S700
G1 X-0.225S0
G1 X-0.537S700
G1 X-1.667S0
G1 Y0.05S0
G1 X1.667S0
G1 X0.537S700
G1 X0.213S0
G1 X0.502S700
G1 X0.263S0
G1 X0.498S700
G1 X0.214S0
G1 X0.537S700
G1 X1.666S0
G1 Y0.05S0
G1 X-1.666S0
G1 X-0.537S700
G1 X-0.201S0
G1 X-0.498S700
G1 X-0.289S0
G1 X-0.502S700
G1 X-0.2S0
G1 X-0.537S700
G1 X-1.667S0
G1 Y0.05S0
G1 X1.667S0
G1 X0.537S700
G1 X0.188S0
G1 X0.501S700
G1 X0.315S0
G1 X0.498S700
G1 X0.188S0
G1 X0.537S700
G1 X1.666S0
G1 Y0.05S0
G1 X-1.666S0
G1 X-0.537S700
G1 X-0.176S0
G1 X-0.497S700
G1 X-0.342S0
G1 X-0.5S700
G1 X-0.175S0
G1 X-0.537S700
G1 X-1.667S0
G1 Y0.05S0
G1 X1.667S0
G1 X0.537S700
G1 X0.163S0
G1 X0.499S700
G1 X0.368S0
G1 X0.497S700
G1 X0.163S0
G1 X0.537S700
G1 X1.666S0
G1 Y0.05S0
G1 X-1.666S0
G1 X-0.537S700
G1 X-0.151S0
G1 X-0.496S700
G1 X-0.394S0
G1 X-0.499S700
G1 X-0.15S0
G1 X-0.537S700
G1 X-1.667S0
G1 Y0.05S0
G1 X1.667S0
G1 X0.537S700
G1 X0.137S0
G1 X0.498S700
G1 X0.421S0
G1 X0.496S700
G1 X0.138S0
G1 X0.537S700
G1 X1.666S0
G1 Y0.05S0
G1 X-1.666S0
G1 X-0.537S700
G1 X-0.125S0
G1 X-0.495S700
G1 X-0.448S0
G1 X-0.497S700
G1 X-0.125S0
G1 X-0.537S700
G1 X-1.667S0
G1 Y0.05S0
G1 X1.667S0
G1 X0.537S700
G1 X0.112S0
G1 X0.497S700
G1 X0.474S0
G1 X0.494S700
G1 X0.113S0
G1 X0.537S700
G1 X1.666S0
G1 Y0.05S0
G1 X-1.666S0
G1 X-0.537S700
G1 X-0.1S0
G1 X-0.494S700
G1 X-0.501S0
G1 X-0.495S700
G1 X-0.1S0
G1 X-0.537S700
G1 X-1.667S0
G1 Y0.05S0
G1 X1.667S0
G1 X0.537S700
G1 X0.087S0
G1 X0.495S700
G1 X0.527S0
G1 X0.494S700
G1 X0.087S0
G1 X0.537S700
G1 X1.666S0
G1 Y0.05S0
G1 X-1.666S0
G1 X-0.537S700
G1 X-0.075S0
G1 X-0.493S700
G1 X-0.553S0
G1 X-0.494S700
G1 X-0.075S0
G1 X-0.537S700
G1 X-1.667S0
G1 Y0.05S0
G1 X1.667S0
G1 X0.537S700
G1 X0.062S0
G1 X0.494S700
G1 X0.579S0
G1 X0.493S700
G1 X0.062S0
G1 X0.537S700
G1 X1.666S0
G1 Y0.05S0
G1 X-1.666S0
G1 X-0.537S700
G1 X-0.05S0
G1 X-0.492S700
G1 X-0.606S0
G1 X-0.492S700
G1 X-0.05S0
G1 X-0.537S700
G1 X-1.667S0
G1 Y0.05S0
G1 X1.667S0
G1 X0.537S700
G1 X0.037S0
G1 X0.492S700
G1 X0.633S0
G1 X0.491S700
G1 X0.037S0
G1 X0.537S700
G1 X1.666S0
G1 Y0.05S0
G1 X-1.666S0
G1 X-0.537S700
G1 X-0.024S0
G1 X-0.491S700
G1 X-0.659S0
G1 X-0.492S700
G1 X-0.024S0
G1 X-0.537S700
G1 X-1.667S0
G1 Y0.05S0
G1 X1.667S0
G1 X0.537S700
G1 X0.012S0
G1 X0.49S700
G1 X0.686S0
G1 X0.49S700
G1 X0.012S0
G1 X0.537S700
G1 X1.666S0
G1 Y0.05S0
G1 X-1.666S0
G1 X-1.026S700
G1 X-0.712S0
G1 X-1.026S700
G1 X-1.667S0
G1 Y0.05S0
G1 X1.667S0
G1 X1.013S700
G1 X0.738S0
G1 X1.013S700
G1 X1.666S0
G1 Y0.05S0
G1 X-1.666S0
G1 X-1S700
G1 X-0.765S0
G1 X-0.999S700
G1 X-1.667S0
G1 Y0.05S0
G1 X1.667S0
G1 X0.986S700
G1 X0.791S0
G1 X0.987S700
G1 X1.666S0
G1 Y0.05S0
G1 X-1.666S0
G1 X-0.973S700
G1 X-0.818S0
G1 X-0.973S700
G1 X-1.667S0
G1 Y0.05S0
G1 X1.667S0
G1 X0.96S700
G1 X0.844S0
G1 X0.96S700
G1 X1.666S0
G1 Y0.05S0
G1 X-1.666S0
G1 X-0.947S700
G1 X-0.871S0
G1 X-0.946S700
G1 X-1.667S0
G1 Y0.05S0
G1 X1.667S0
G1 X0.933S700
G1 X0.897S0
G1 X0.934S700
G1 X1.666S0
G1 Y0.05S0
G1 X-1.666S0
G1 X-0.921S700
G1 X-0.923S0
G1 X-0.92S700
G1 X-1.667S0
G1 Y0.05S0
G1 X1.667S0
G1 X0.906S700
G1 X0.95S0
G1 X0.908S700
G1 X1.666S0
G1 Y0.05S0
G1 X-1.666S0
G1 X-0.895S700
G1 X-0.976S0
G1 X-0.893S700
G1 X-1.667S0
G1 Y0.05S0
G1 X1.667S0
G1 X0.88S700
G1 X1.003S0
G1 X0.881S700
G1 X1.666S0
G1 Y0.05S0
G1 X-1.666S0
G1 X-0.868S700
G1 X-1.03S0
G1 X-0.866S700
G1 X-1.667S0
M9
G1 S0
M5
; return to starting pos
G0 X1.667Y-2.856
M2
