; LightBurn 1.2.01
; GRBL device profile, current position
; Bounds: X-1.67 Y0 to X3.94 Y2.86
G00 G17 G40 G21 G54
G91
M4
; Cut @ 5000 mm/min, 0% power
M8
G0 X0Y0.001
; Layer Lim
G1 X1S0F5000
; Scan @ 4000 mm/min, 70% power
M8
G0 X-2.667Y0.005
; Layer C02
G1 X1.667F4000S0
G1 X0.537S700
G1 X1.149S0
G1 X0.583S700
G1 X1.667S0
G1 Y0.05S0
G1 X-1.667S0
G1 X-0.613S700
G1 X-1.119S0
G1 X-0.537S700
G1 X-1.667S0
G1 Y0.05S0
G1 X1.667S0
G1 X0.537S700
G1 X1.088S0
G1 X0.644S700
G1 X1.667S0
G1 Y0.05S0
G1 X-1.667S0
G1 X-0.675S700
G1 X-1.057S0
G1 X-0.537S700
G1 X-1.667S0
G1 Y0.05S0
G1 X1.667S0
G1 X0.537S700
G1 X1.026S0
G1 X0.706S700
G1 X1.667S0
G1 Y0.05S0
G1 X-1.667S0
G1 X-0.737S700
G1 X-0.995S0
G1 X-0.537S700
G1 X-1.667S0
G1 Y0.05S0
G1 X1.667S0
G1 X0.537S700
G1 X0.964S0
G1 X0.768S700
G1 X1.667S0
G1 Y0.05S0
G1 X-1.667S0
G1 X-0.799S700
G1 X-0.933S0
G1 X-0.537S700
G1 X-1.667S0
G1 Y0.05S0
G1 X1.667S0
G1 X0.537S700
G1 X0.902S0
G1 X0.83S700
G1 X1.667S0
G1 Y0.05S0
G1 X-1.667S0
G1 X-0.861S700
G1 X-0.871S0
G1 X-0.537S700
G1 X-1.667S0
G1 Y0.05S0
G1 X1.667S0
G1 X0.537S700
G1 X0.84S0
G1 X0.892S700
G1 X1.667S0
G1 Y0.05S0
G1 X-1.667S0
G1 X-0.922S700
G1 X-0.81S0
G1 X-0.537S700
G1 X-1.667S0
G1 Y0.05S0
G1 X1.667S0
G1 X0.537S700
G1 X0.779S0
G1 X0.953S700
G1 X1.667S0
G1 Y0.05S0
G1 X-1.667S0
G1 X-0.984S700
G1 X-0.748S0
G1 X-0.537S700
G1 X-1.667S0
G1 Y0.05S0
G1 X1.667S0
G1 X0.537S700
G1 X0.717S0
G1 X1.015S700
G1 X1.667S0
G1 Y0.05S0
G1 X-1.667S0
G1 X-1.046S700
G1 X-0.686S0
G1 X-0.537S700
G1 X-1.667S0
G1 Y0.05S0
G1 X1.667S0
G1 X0.537S700
G1 X0.655S0
G1 X1.077S700
G1 X1.667S0
G1 Y0.05S0
G1 X-1.667S0
G1 X-1.108S700
G1 X-0.624S0
G1 X-0.537S700
G1 X-1.667S0
G1 Y0.05S0
G1 X1.667S0
G1 X0.537S700
G1 X0.593S0
G1 X1.139S700
G1 X1.667S0
G1 Y0.05S0
G1 X-1.667S0
G1 X-0.536S700
G1 X-0.634
G1 X-0.562S0
G1 X-0.537S700
G1 X-1.667S0
G1 Y0.05S0
G1 X1.667S0
G1 X0.537S700
G1 X0.531S0
G1 X0.631S700
G1 X0.034S0
G1 X0.536S700
G1 X1.667S0
G1 Y0.05S0
G1 X-1.667S0
G1 X-0.536S700
G1 X-0.064S0
G1 X-0.631S700
G1 X-0.501S0
G1 X-0.537S700
G1 X-1.667S0
G1 Y0.05S0
G1 X1.667S0
G1 X0.537S700
G1 X0.47S0
G1 X0.631S700
G1 X0.095S0
G1 X0.536S700
G1 X1.667S0
G1 Y0.05S0
G1 X-1.667S0
G1 X-0.536S700
G1 X-0.125S0
G1 X-0.632S700
G1 X-0.439S0
G1 X-0.537S700
G1 X-1.667S0
G1 Y0.05S0
G1 X1.667S0
G1 X0.537S700
G1 X0.408S0
G1 X0.632S700
G1 X0.156S0
G1 X0.536S700
G1 X1.667S0
G1 Y0.05S0
G1 X-1.667S0
G1 X-0.536S700
G1 X-0.187S0
G1 X-0.632S700
G1 X-0.377S0
G1 X-0.537S700
G1 X-1.667S0
G1 Y0.05S0
G1 X1.667S0
G1 X0.537S700
G1 X0.346S0
G1 X0.633S700
G1 X0.217S0
G1 X0.536S700
G1 X1.667S0
G1 Y0.05S0
G1 X-1.667S0
G1 X-0.536S700
G1 X-0.248S0
G1 X-0.633S700
G1 X-0.315S0
G1 X-0.537S700
G1 X-1.667S0
G1 Y0.05S0
G1 X1.667S0
G1 X0.537S700
G1 X0.284S0
G1 X0.633S700
G1 X0.279S0
G1 X0.536S700
G1 X1.667S0
G1 Y0.05S0
G1 X-1.667S0
G1 X-0.536S700
G1 X-0.309S0
G1 X-0.634S700
G1 X-0.253S0
G1 X-0.537S700
G1 X-1.667S0
G1 Y0.05S0
G1 X1.667S0
G1 X0.537S700
G1 X0.223S0
G1 X0.633S700
G1 X0.34S0
G1 X0.536S700
G1 X1.667S0
G1 Y0.05S0
G1 X-1.667S0
G1 X-0.536S700
G1 X-0.371S0
G1 X-0.633S700
G1 X-0.192S0
G1 X-0.537S700
G1 X-1.667S0
G1 Y0.05S0
G1 X1.667S0
G1 X0.537S700
G1 X0.161S0
G1 X0.634S700
G1 X0.401S0
G1 X0.536S700
G1 X1.667S0
G1 Y0.05S0
G1 X-1.667S0
G1 X-0.536S700
G1 X-0.432S0
G1 X-0.634S700
G1 X-0.13S0
G1 X-0.537S700
G1 X-1.667S0
G1 Y0.05S0
G1 X1.667S0
G1 X0.537S700
G1 X0.099S0
G1 X0.634S700
G1 X0.463S0
G1 X0.536S700
G1 X1.667S0
G1 Y0.05S0
G1 X-1.667S0
G1 X-0.536S700
G1 X-0.493S0
G1 X-0.635S700
G1 X-0.068S0
G1 X-0.537S700
G1 X-1.667S0
G1 Y0.05S0
G1 X1.667S0
G1 X0.537S700
G1 X0.037S0
G1 X0.635S700
G1 X0.524S0
G1 X0.536S700
G1 X1.667S0
G1 Y0.05S0
G1 X-1.667S0
G1 X-0.536S700
G1 X-0.555S0
G1 X-0.635S700
G1 X-0.543
G1 X-1.667S0
G1 Y0.05S0
G1 X1.667S0
G1 X1.148S700
G1 X0.585S0
G1 X0.536S700
G1 X1.667S0
G1 Y0.05S0
G1 X-1.667S0
G1 X-0.536S700
G1 X-0.616S0
G1 X-1.117S700
G1 X-1.667S0
G1 Y0.05S0
G1 X1.667S0
G1 X1.086S700
G1 X0.647S0
G1 X0.536S700
G1 X1.667S0
G1 Y0.05S0
G1 X-1.667S0
G1 X-0.536S700
G1 X-0.677S0
G1 X-1.056S700
G1 X-1.667S0
G1 Y0.05S0
G1 X1.667S0
G1 X1.025S700
G1 X0.708S0
G1 X0.536S700
G1 X1.667S0
G1 Y0.05S0
G1 X-1.667S0
G1 X-0.536S700
G1 X-0.738S0
G1 X-0.995S700
G1 X-1.667S0
G1 Y0.05S0
G1 X1.667S0
G1 X0.964S700
G1 X0.769S0
G1 X0.536S700
G1 X1.667S0
G1 Y0.05S0
G1 X-1.667S0
G1 X-0.536S700
G1 X-0.8S0
G1 X-0.933S700
G1 X-1.667S0
G1 Y0.05S0
G1 X1.667S0
G1 X0.903S700
G1 X0.83S0
G1 X0.536S700
G1 X1.667S0
G1 Y0.05S0
G1 X-1.667S0
G1 X-0.536S700
G1 X-0.861S0
G1 X-0.872S700
G1 X-1.667S0
G1 Y0.05S0
G1 X1.667S0
G1 X0.841S700
G1 X0.892S0
G1 X0.536S700
G1 X1.667S0
G1 Y0.05S0
G1 X-1.667S0
G1 X-0.536S700
G1 X-0.922S0
G1 X-0.811S700
G1 X-1.667S0
G1 Y0.05S0
G1 X1.667S0
G1 X0.78S700
G1 X0.953S0
G1 X0.536S700
G1 X1.667S0
G1 Y0.05S0
G1 X-1.667S0
G1 X-0.536S700
G1 X-0.984S0
G1 X-0.749S700
G1 X-1.667S0
G1 Y0.05S0
G1 X1.667S0
G1 X0.719S700
G1 X1.014S0
G1 X0.536S700
G1 X1.667S0
G1 Y0.05S0
G1 X-1.667S0
G1 X-0.536S700
G1 X-1.045S0
G1 X-0.688S700
G1 X-1.667S0
G1 Y0.05S0
G1 X1.667S0
G1 X0.657S700
G1 X1.076S0
G1 X0.536S700
G1 X1.667S0
G1 Y0.05S0
G1 X-1.667S0
G1 X-0.536S700
G1 X-1.106S0
G1 X-0.627S700
G1 X-1.667S0
G1 Y0.05S0
G1 X1.667S0
G1 X0.596S700
G1 X1.137S0
G1 X0.536S700
G1 X1.667S0
G1 Y0.05S0
G1 X-1.667S0
G1 X-0.536S700
G1 X-1.168S0
G1 X-0.565S700
G1 X-1.667S0
M9
G1 S0
M5
; return to starting pos
G0 X1.667Y-2.856
M2
