; LightBurn 1.2.01
; GRBL device profile, current position
; Bounds: X-1.67 Y0 to X4.45 Y2.95
G00 G17 G40 G21 G54
G91
M4
; Cut @ 5000 mm/min, 0% power
M8
G0 X0.004Y0.049
; Layer Lim
G1 X1S0F5000
; Scan @ 4000 mm/min, 70% power
M8
G0 X-1.33Y-0.045
; Layer C02
G1 X1.667F4000S0
G1 X0.106S700
G1 X1.667S0
G1 X0.367Y0.05S0
G1 X-1.667S0
G1 X-0.843S700
G1 X-1.666S0
G1 X-0.141Y0.05S0
G1 X1.667S0
G1 X1.136S700
G1 X1.666S0
G1 X0.116Y0.05S0
G1 X-1.667S0
G1 X-1.375S700
G1 X-1.667S0
G1 X-0.073Y0.05S0
G1 X1.667S0
G1 X1.529S700
G1 X1.666S0
G1 X0.078Y0.05S0
G1 X-1.667S0
G1 X-1.679S700
G1 X-1.666S0
G1 X-0.073Y0.05S0
G1 X1.667S0
G1 X1.814S700
G1 X1.666S0
G1 X0.056Y0.05S0
G1 X-1.667S0
G1 X-1.931S700
G1 X-1.667S0
G1 X-0.043Y0.05S0
G1 X1.667S0
G1 X2.03S700
G1 X1.666S0
G1 X0.041Y0.05S0
G1 X-1.667S0
G1 X-2.112S700
G1 X-1.667S0
G1 X-0.043Y0.05S0
G1 X1.667S0
G1 X1.015S700
G1 X0.198S0
G1 X0.982S700
G1 X1.667S0
G1 X0.04Y0.05S0
G1 X-1.666S0
G1 X-0.837S700
G1 X-0.577S0
G1 X-0.864S700
G1 X-1.667S0
G1 X-0.042Y0.05S0
G1 X1.667S0
G1 X0.786S700
G1 X0.778S0
G1 X0.787S700
G1 X1.666S0
G1 X0.029Y0.05S0
G1 X-1.667S0
G1 X-0.74S700
G1 X-0.917S0
G1 X-0.744S700
G1 X-1.667S0
G1 X-0.022Y0.05S0
G1 X1.666S0
G1 X0.71S700
G1 X1.039S0
G1 X0.703S700
G1 X1.667S0
G1 X0.026Y0.05S0
G1 X-1.666S0
G1 X-0.691S700
G1 X-1.135S0
G1 X-0.675S700
G1 X-1.667S0
G1 X-0.022Y0.05S0
G1 X1.667S0
G1 X0.654S700
G1 X1.216S0
G1 X0.671S700
G1 X1.667S0
G1 X0.018Y0.05S0
G1 X-1.667S0
G1 X-0.65S700
G1 X-1.284S0
G1 X-0.648S700
G1 X-1.666S0
G1 X-0.014Y0.05S0
G1 X1.667S0
G1 X0.631S700
G1 X1.344S0
G1 X0.639S700
G1 X1.666S0
G1 X0.016Y0.05S0
G1 X-1.667S0
G1 X-0.636S700
G1 X-1.391S0
G1 X-0.616S700
G1 X-1.667S0
G1 X-0.013Y0.05S0
G1 X1.666S0
G1 X0.603S700
G1 X1.437S0
G1 X0.627S700
G1 X1.666S0
G1 X0.01Y0.05S0
G1 X-1.667S0
G1 X-0.618S700
G1 X-1.465S0
G1 X-0.606S700
G1 X-1.667S0
G1 X-0.013Y0.05S0
G1 X1.666S0
G1 X0.609S700
G1 X1.491S0
G1 X0.612S700
G1 X1.667S0
G1 X0.009Y0.05S0
G1 X-1.667S0
G1 X-0.611S700
G1 X-1.511S0
G1 X-0.607S700
G1 X-1.667S0
G1 X-0.005Y0.05S0
G1 X1.666S0
G1 X0.602S700
G1 X1.532S0
G1 X0.606S700
G1 X1.667S0
G1 Y0.05S0
G1 X-1.662S0
G1 X-0.6S700
G1 X-1.553S0
G1 X-0.597S700
G1 X-1.667S0
G1 X-0.006Y0.05S0
G1 X1.667S0
G1 X0.599S700
G1 X1.565S0
G1 X0.596S700
G1 X1.667S0
G1 Y0.05S0
G1 X-1.662S0
G1 X-0.597S700
G1 X-1.574S0
G1 X-0.599S700
G1 X-1.667S0
G1 Y0.05S0
G1 X1.662S0
G1 X0.6S700
G1 X1.581S0
G1 X0.599S700
G1 X1.667S0
G1 Y0.05S0
G1 X-1.662S0
G1 X-0.601S700
G1 X-1.588S0
G1 X-0.593S700
G1 X-1.667S0
G1 Y0.05S0
G1 X1.669S0
G1 X0.592S700
G1 X1.59S0
G1 X0.594S700
G1 X1.667S0
G1 Y0.05S0
G1 X-1.67S0
G1 X-0.595S700
G1 X-1.583S0
G1 X-0.593S700
G1 X-1.667S0
G1 Y0.05S0
G1 X1.669S0
G1 X0.594S700
G1 X1.575S0
G1 X0.596S700
G1 X1.667S0
G1 Y0.05S0
G1 X-1.671S0
G1 X-0.596S700
G1 X-1.568S0
G1 X-0.595S700
G1 X-1.666S0
G1 Y0.05S0
G1 X1.671S0
G1 X0.597S700
G1 X1.557S0
G1 X0.597S700
G1 X1.666S0
G1 Y0.05S0
G1 X-1.67S0
G1 X-0.601S700
G1 X-1.539S0
G1 X-0.601S700
G1 X-1.667S0
G1 X0.006Y0.05S0
G1 X1.667S0
G1 X0.606S700
G1 X1.519S0
G1 X0.6S700
G1 X1.666S0
G1 X-0.012Y0.05S0
G1 X-1.666S0
G1 X-0.597S700
G1 X-1.5S0
G1 X-0.611S700
G1 X-1.666S0
G1 X0.006Y0.05S0
G1 X1.666S0
G1 X0.619S700
G1 X1.477S0
G1 X0.593S700
G1 X1.667S0
G1 X-0.012Y0.05S0
G1 X-1.667S0
G1 X-0.596S700
G1 X-1.444S0
G1 X-0.627S700
G1 X-1.666S0
G1 X0.016Y0.05S0
G1 X1.667S0
G1 X0.628S700
G1 X1.402S0
G1 X0.608S700
G1 X1.667S0
G1 X-0.013Y0.05S0
G1 X-1.666S0
G1 X-0.62S700
G1 X-1.36S0
G1 X-0.63S700
G1 X-1.667S0
G1 X0.017Y0.05S0
G1 X1.666S0
G1 X0.64S700
G1 X1.309S0
G1 X0.625S700
G1 X1.667S0
G1 X-0.022Y0.05S0
G1 X-1.666S0
G1 X-0.639S700
G1 X-1.238S0
G1 X-0.659S700
G1 X-1.667S0
G1 X0.022Y0.05S0
G1 X1.666S0
G1 X0.674S700
G1 X1.158S0
G1 X0.661S700
G1 X1.667S0
G1 X-0.022Y0.05S0
G1 X-1.667S0
G1 X-0.683S700
G1 X-1.061S0
G1 X-0.698S700
G1 X-1.667S0
G1 X0.028Y0.05S0
G1 X1.667S0
G1 X0.724S700
G1 X0.952S0
G1 X0.717S700
G1 X1.667S0
G1 X-0.023Y0.05S0
G1 X-1.667S0
G1 X-0.771S700
G1 X-0.799S0
G1 X-0.772S700
G1 X-1.666S0
G1 X0.028Y0.05S0
G1 X1.667S0
G1 X0.841S700
G1 X0.625S0
G1 X0.805S700
G1 X1.667S0
G1 X-0.043Y0.05S0
G1 X-1.666S0
G1 X-0.926S700
G1 X-0.302S0
G1 X-0.959S700
G1 X-1.667S0
G1 X0.044Y0.05S0
G1 X1.666S0
G1 X2.102S700
G1 X1.666S0
G1 X-0.042Y0.05S0
G1 X-1.667S0
G1 X-2.015S700
G1 X-1.667S0
G1 X0.044Y0.05S0
G1 X1.667S0
G1 X1.929S700
G1 X1.667S0
G1 X-0.064Y0.05S0
G1 X-1.666S0
G1 X-1.802S700
G1 X-1.667S0
G1 X0.066Y0.05S0
G1 X1.666S0
G1 X1.664S700
G1 X1.667S0
G1 X-0.072Y0.05S0
G1 X-1.667S0
G1 X-1.526S700
G1 X-1.667S0
G1 X0.094Y0.05S0
G1 X1.667S0
G1 X1.36S700
G1 X1.667S0
G1 X-0.126Y0.05S0
G1 X-1.667S0
G1 X-1.131S700
G1 X-1.666S0
G1 X0.147Y0.05S0
G1 X1.666S0
G1 X0.845S700
G1 X1.667S0
G1 X-0.368Y0.05S0
G1 X-1.666S0
G1 X-0.138S700
G1 X-1.667S0
M9
G1 S0
M5
; return to starting pos
G0 X0.365Y-2.954
M2
