; LightBurn 1.2.01
; GRBL device profile, current position
; Bounds: X-1.67 Y0 to X3.86 Y2.86
G00 G17 G40 G21 G54
G91
M4
; Cut @ 5000 mm/min, 0% power
M8
G0 X0Y0
; Layer Lim
G1 X1S0F5000
; Scan @ 4000 mm/min, 70% power
M8
G0 X-2.667Y0.007
; Layer C02
G1 X1.667F4000S0
G1 X0.578S700
G1 X1.666S0
G1 Y0.05S0
G1 X-1.666S0
G1 X-0.578S700
G1 X-1.667S0
G1 Y0.05S0
G1 X1.667S0
G1 X0.578S700
G1 X1.666S0
G1 Y0.05S0
G1 X-1.666S0
G1 X-0.578S700
G1 X-1.667S0
G1 Y0.05S0
G1 X1.667S0
G1 X0.578S700
G1 X1.666S0
G1 Y0.05S0
G1 X-1.666S0
G1 X-0.578S700
G1 X-1.667S0
G1 Y0.05S0
G1 X1.667S0
G1 X0.578S700
G1 X1.666S0
G1 Y0.05S0
G1 X-1.666S0
G1 X-0.578S700
G1 X-1.667S0
G1 Y0.05S0
G1 X1.667S0
G1 X0.578S700
G1 X1.666S0
G1 Y0.05S0
G1 X-1.666S0
G1 X-0.578S700
G1 X-1.667S0
G1 Y0.05S0
G1 X1.667S0
G1 X0.578S700
G1 X1.666S0
G1 Y0.05S0
G1 X-1.666S0
G1 X-0.578S700
G1 X-1.667S0
G1 Y0.05S0
G1 X1.667S0
G1 X0.578S700
G1 X1.666S0
G1 Y0.05S0
G1 X-1.666S0
G1 X-0.578S700
G1 X-1.667S0
G1 Y0.05S0
G1 X1.667S0
G1 X0.578S700
G1 X1.666S0
G1 Y0.05S0
G1 X-1.666S0
G1 X-0.578S700
G1 X-1.667S0
G1 Y0.05S0
G1 X1.667S0
G1 X0.578S700
G1 X1.666S0
G1 Y0.05S0
G1 X-1.666S0
G1 X-0.578S700
G1 X-1.667S0
G1 Y0.05S0
G1 X1.667S0
G1 X0.578S700
G1 X1.666S0
G1 Y0.05S0
G1 X-1.666S0
G1 X-0.578S700
G1 X-1.667S0
G1 Y0.05S0
G1 X1.667S0
G1 X0.578S700
G1 X1.666S0
G1 Y0.05S0
G1 X-1.666S0
G1 X-0.578S700
G1 X-1.667S0
G1 Y0.05S0
G1 X1.667S0
G1 X1.475S700
G1 X1.667S0
G1 X0.167Y0.05S0
G1 X-1.666S0
G1 X-1.643S700
G1 X-1.667S0
G1 Y0.05S0
G1 X1.667S0
G1 X1.748S700
G1 X1.666S0
G1 X0.086Y0.05S0
G1 X-1.666S0
G1 X-1.834S700
G1 X-1.667S0
G1 Y0.05S0
G1 X1.667S0
G1 X1.898S700
G1 X1.666S0
G1 X0.064Y0.05S0
G1 X-1.667S0
G1 X-1.961S700
G1 X-1.667S0
G1 Y0.05S0
G1 X1.667S0
G1 X2.007S700
G1 X1.666S0
G1 X0.033Y0.05S0
G1 X-1.667S0
G1 X-2.039S700
G1 X-1.667S0
G1 Y0.05S0
G1 X1.667S0
G1 X2.072S700
G1 X1.667S0
G1 X0.025Y0.05S0
G1 X-1.667S0
G1 X-2.097S700
G1 X-1.667S0
G1 Y0.05S0
G1 X1.667S0
G1 X0.578S700
G1 X0.748S0
G1 X0.792S700
G1 X1.667S0
G1 X0.021Y0.05S0
G1 X-1.667S0
G1 X-0.707S700
G1 X-0.854S0
G1 X-0.578S700
G1 X-1.667S0
G1 Y0.05S0
G1 X1.667S0
G1 X0.578S700
G1 X0.913S0
G1 X0.664S700
G1 X1.667S0
G1 X0.011Y0.05S0
G1 X-1.666S0
G1 X-0.638S700
G1 X-0.951S0
G1 X-0.578S700
G1 X-1.667S0
G1 Y0.05S0
G1 X1.667S0
G1 X0.578S700
G1 X0.979S0
G1 X0.621S700
G1 X1.666S0
G1 X0.01Y0.05S0
G1 X-1.667S0
G1 X-0.609S700
G1 X-1S0
G1 X-0.578S700
G1 X-1.667S0
G1 Y0.05S0
G1 X1.667S0
G1 X0.578S700
G1 X1.008S0
G1 X0.604S700
G1 X1.666S0
G1 Y0.05S0
G1 X-1.664S0
G1 X-0.598S700
G1 X-1.016S0
G1 X-0.578S700
G1 X-1.667S0
G1 Y0.05S0
G1 X1.667S0
G1 X0.578S700
G1 X1.013S0
G1 X0.603S700
G1 X1.667S0
G1 Y0.05S0
G1 X-1.671S0
G1 X-0.607S700
G1 X-1.005S0
G1 X-0.578S700
G1 X-1.667S0
G1 Y0.05S0
G1 X1.667S0
G1 X0.578S700
G1 X0.998S0
G1 X0.607S700
G1 X1.667S0
G1 X-0.006Y0.05S0
G1 X-1.667S0
G1 X-0.629S700
G1 X-0.97S0
G1 X-0.578S700
G1 X-1.667S0
G1 Y0.05S0
G1 X1.667S0
G1 X0.578S700
G1 X0.942S0
G1 X0.646S700
G1 X1.667S0
G1 X-0.016Y0.05S0
G1 X-1.666S0
G1 X-0.679S700
G1 X-0.894S0
G1 X-0.578S700
G1 X-1.667S0
G1 Y0.05S0
G1 X1.667S0
G1 X0.578S700
G1 X0.833S0
G1 X0.724S700
G1 X1.667S0
G1 X-0.018Y0.05S0
G1 X-1.667S0
G1 X-0.844S700
G1 X-0.695S0
G1 X-0.578S700
G1 X-1.667S0
G1 Y0.05S0
G1 X1.667S0
G1 X2.091S700
G1 X1.667S0
G1 X-0.026Y0.05S0
G1 X-1.666S0
G1 X-2.066S700
G1 X-1.667S0
G1 Y0.05S0
G1 X1.667S0
G1 X2.037S700
G1 X1.667S0
G1 X-0.039Y0.05S0
G1 X-1.666S0
G1 X-1.999S700
G1 X-1.667S0
G1 Y0.05S0
G1 X1.667S0
G1 X1.96S700
G1 X1.667S0
G1 X-0.05Y0.05S0
G1 X-1.667S0
G1 X-1.91S700
G1 X-1.667S0
G1 Y0.05S0
G1 X1.667S0
G1 X1.844S700
G1 X1.666S0
G1 X-0.085Y0.05S0
G1 X-1.667S0
G1 X-1.758S700
G1 X-1.667S0
G1 Y0.05S0
G1 X1.667S0
G1 X1.643S700
G1 X1.666S0
G1 X-0.613Y0.05S0
G1 X-1.666S0
G1 X-1.03S700
G1 X-1.667S0
M9
G1 S0
M5
; return to starting pos
G0 X1.667Y-2.857
M2
