; LightBurn 1.2.01
; GRBL device profile, current position
; Bounds: X-1.67 Y0.02 to X4.53 Y3.17
G00 G17 G40 G21 G54
G91
M4
; Cut @ 5000 mm/min, 0% power
M8
G0 X0Y0.287
; Layer Lim
G1 X1S0F5000
; Scan @ 4000 mm/min, 70% power
M8
G0 X-0.062Y-0.264
; Layer C02
G1 X1.667F4000S0
G1 X0.077S700
G1 X1.667S0
G1 X0.026Y0.05S0
G1 X-1.667S0
G1 X-0.219S700
G1 X-1.666S0
G1 X-0.095Y0.05S0
G1 X1.667S0
G1 X0.339S700
G1 X1.667S0
G1 X0.026Y0.05S0
G1 X-1.667S0
G1 X-0.46S700
G1 X-1.667S0
G1 X-0.076Y0.05S0
G1 X1.666S0
G1 X0.564S700
G1 X1.666S0
G1 X0.026Y0.05S0
G1 X-1.666S0
G1 X-0.66S700
G1 X-0.408S0
G1 X-0.704S700
G1 X-1.666S0
G1 X-0.191Y0.05S0
G1 X1.667S0
G1 X1.056S700
G1 X0.176S0
G1 X0.756S700
G1 X1.666S0
G1 X0.027Y0.05S0
G1 X-1.667S0
G1 X-2.115S700
G1 X-1.667S0
G1 X-0.1Y0.05S0
G1 X1.667S0
G1 X2.198S700
G1 X1.666S0
G1 X-0.114Y0.05S0
G1 X-1.666S0
G1 X-2.167S700
G1 X-1.666S0
G1 X-0.064Y0.05S0
G1 X1.667S0
G1 X2.122S700
G1 X1.667S0
G1 X-0.082Y0.05S0
G1 X-1.666S0
G1 X-2.104S700
G1 X-1.667S0
G1 X-0.063Y0.05S0
G1 X1.667S0
G1 X2.085S700
G1 X1.667S0
G1 X-0.026Y0.05S0
G1 X-1.667S0
G1 X-2.097S700
G1 X-1.666S0
G1 X-0.036Y0.05S0
G1 X1.666S0
G1 X1.002S700
G1 X0.112S0
G1 X1.056S700
G1 X1.666S0
G1 X0.037Y0.05S0
G1 X-1.667S0
G1 X-0.928S700
G1 X-0.496S0
G1 X-0.818S700
G1 X-1.666S0
G1 X-0.036Y0.05S0
G1 X1.667S0
G1 X0.768S700
G1 X0.494S0
G1 X1.051S700
G1 X1.667S0
G1 X0.031Y0.05S0
G1 X-1.667S0
G1 X-1.175S700
G1 X-0.474S0
G1 X-0.73S700
G1 X-1.667S0
G1 X-0.022Y0.05S0
G1 X1.666S0
G1 X0.691S700
G1 X0.419S0
G1 X1.314S700
G1 X1.667S0
G1 X0.022Y0.05S0
G1 X-1.667S0
G1 X-1.355S700
G1 X-0.442S0
G1 X-0.671S700
G1 X-1.667S0
G1 X-0.023Y0.05S0
G1 X1.667S0
G1 X0.651S700
G1 X0.51S0
G1 X0.596S700
G1 X0.101S0
G1 X0.655S700
G1 X1.667S0
G1 X0.02Y0.05S0
G1 X-1.666S0
G1 X-0.643S700
G1 X-0.207S0
G1 X-0.499S700
G1 X-0.575S0
G1 X-0.633S700
G1 X-1.667S0
G1 X-0.022Y0.05S0
G1 X1.666S0
G1 X0.632S700
G1 X0.624S0
G1 X0.385S700
G1 X0.329S0
G1 X0.625S700
G1 X1.667S0
G1 X0.015Y0.05S0
G1 X-1.667S0
G1 X-0.621S700
G1 X-0.436S0
G1 X-0.272S700
G1 X-0.673S0
G1 X-0.622S700
G1 X-1.667S0
G1 X-0.012Y0.05S0
G1 X1.667S0
G1 X0.61S700
G1 X0.721S0
G1 X0.132S700
G1 X0.57S0
G1 X0.618S700
G1 X1.667S0
G1 X0.015Y0.05S0
G1 X-1.666S0
G1 X-0.616S700
G1 X-1.462S0
G1 X-0.601S700
G1 X-1.667S0
G1 X-0.011Y0.05S0
G1 X1.666S0
G1 X0.604S700
G1 X1.489S0
G1 X0.607S700
G1 X1.667S0
G1 X0.009Y0.05S0
G1 X-1.667S0
G1 X-0.605S700
G1 X-1.509S0
G1 X-0.607S700
G1 X-1.666S0
G1 X-0.012Y0.05S0
G1 X1.667S0
G1 X0.609S700
G1 X1.528S0
G1 X0.604S700
G1 X1.667S0
G1 X0.008Y0.05S0
G1 X-1.666S0
G1 X-0.602S700
G1 X-1.548S0
G1 X-0.602S700
G1 X-1.667S0
G1 Y0.05S0
G1 X1.665S0
G1 X0.598S700
G1 X1.564S0
G1 X0.598S700
G1 X1.667S0
G1 Y0.05S0
G1 X-1.664S0
G1 X-0.597S700
G1 X-1.572S0
G1 X-0.596S700
G1 X-1.666S0
G1 Y0.05S0
G1 X1.665S0
G1 X0.593S700
G1 X1.579S0
G1 X0.597S700
G1 X1.666S0
G1 Y0.05S0
G1 X-1.664S0
G1 X-0.596S700
G1 X-1.587S0
G1 X-0.59S700
G1 X-1.667S0
G1 Y0.05S0
G1 X1.665S0
G1 X0.592S700
G1 X1.59S0
G1 X0.596S700
G1 X1.667S0
G1 Y0.05S0
G1 X-1.67S0
G1 X-0.595S700
G1 X-1.585S0
G1 X-0.593S700
G1 X-1.667S0
G1 Y0.05S0
G1 X1.669S0
G1 X0.594S700
G1 X1.577S0
G1 X0.597S700
G1 X1.667S0
G1 Y0.05S0
G1 X-1.67S0
G1 X-0.598S700
G1 X-1.57S0
G1 X-0.595S700
G1 X-1.667S0
G1 Y0.05S0
G1 X1.669S0
G1 X0.598S700
G1 X1.561S0
G1 X0.599S700
G1 X1.667S0
G1 X-0.007Y0.05S0
G1 X-1.666S0
G1 X-0.6S700
G1 X-1.544S0
G1 X-0.606S700
G1 X-1.667S0
G1 Y0.05S0
G1 X1.671S0
G1 X0.613S700
G1 X1.524S0
G1 X0.6S700
G1 X1.666S0
G1 X-0.009Y0.05S0
G1 X-1.666S0
G1 X-0.6S700
G1 X-1.505S0
G1 X-0.612S700
G1 X-1.666S0
G1 X0.012Y0.05S0
G1 X1.666S0
G1 X0.611S700
G1 X1.485S0
G1 X0.599S700
G1 X1.667S0
G1 X-0.01Y0.05S0
G1 X-1.666S0
G1 X-0.602S700
G1 X-1.455S0
G1 X-0.617S700
G1 X-1.666S0
G1 X0.012Y0.05S0
G1 X1.666S0
G1 X0.623S700
G1 X1.413S0
G1 X0.61S700
G1 X1.667S0
G1 X-0.016Y0.05S0
G1 X-1.666S0
G1 X-0.619S700
G1 X-1.371S0
G1 X-0.629S700
G1 X-1.667S0
G1 X0.017Y0.05S0
G1 X1.667S0
G1 X0.632S700
G1 X1.327S0
G1 X0.627S700
G1 X1.667S0
G1 X-0.016Y0.05S0
G1 X-1.666S0
G1 X-0.642S700
G1 X-1.261S0
G1 X-0.645S700
G1 X-1.667S0
G1 X0.023Y0.05S0
G1 X1.667S0
G1 X0.657S700
G1 X1.182S0
G1 X0.665S700
G1 X1.667S0
G1 X-0.023Y0.05S0
G1 X-1.666S0
G1 X-0.686S700
G1 X-1.092S0
G1 X-0.681S700
G1 X-1.667S0
G1 X0.023Y0.05S0
G1 X1.667S0
G1 X0.71S700
G1 X0.995S0
G1 X0.708S700
G1 X1.667S0
G1 X-0.022Y0.05S0
G1 X-1.667S0
G1 X-0.762S700
G1 X-0.851S0
G1 X-0.754S700
G1 X-1.667S0
G1 X0.036Y0.05S0
G1 X1.667S0
G1 X0.801S700
G1 X0.692S0
G1 X0.804S700
G1 X1.667S0
G1 X-0.042Y0.05S0
G1 X-1.667S0
G1 X-0.884S700
G1 X-0.446S0
G1 X-0.889S700
G1 X-1.667S0
G1 X0.036Y0.05S0
G1 X1.667S0
G1 X2.141S700
G1 X1.667S0
G1 X-0.042Y0.05S0
G1 X-1.667S0
G1 X-2.063S700
G1 X-1.667S0
G1 X0.045Y0.05S0
G1 X1.666S0
G1 X1.977S700
G1 X1.667S0
G1 X-0.05Y0.05S0
G1 X-1.667S0
G1 X-1.864S700
G1 X-1.667S0
G1 X0.062Y0.05S0
G1 X1.667S0
G1 X1.73S700
G1 X1.667S0
G1 X-0.072Y0.05S0
G1 X-1.667S0
G1 X-1.596S700
G1 X-1.666S0
G1 X0.091Y0.05S0
G1 X1.667S0
G1 X1.432S700
G1 X1.667S0
G1 X-0.098Y0.05S0
G1 X-1.667S0
G1 X-1.236S700
G1 X-1.666S0
G1 X0.123Y0.05S0
G1 X1.667S0
G1 X0.973S700
G1 X1.666S0
G1 X-0.177Y0.05S0
G1 X-1.667S0
G1 X-0.609S700
G1 X-1.666S0
M9
G1 S0
M5
; return to starting pos
G0 X0.585Y-3.173
M2
