; LightBurn 1.2.01
; GRBL device profile, current position
; Bounds: X-1.67 Y0 to X4.23 Y2.86
G00 G17 G40 G21 G54
G91
M4
; Cut @ 5000 mm/min, 0% power
M8
G0 X0Y0
; Layer Lim
G1 X1S0F5000
; Scan @ 4000 mm/min, 70% power
M8
G0 X-2.667Y0.011
; Layer C02
G1 X1.667F4000S0
G1 X0.578S700
G1 X1.296S0
G1 X0.692S700
G1 X1.667S0
G1 X-0.031Y0.05S0
G1 X-1.667S0
G1 X-0.695S700
G1 X-1.262S0
G1 X-0.578S700
G1 X-1.667S0
G1 Y0.05S0
G1 X1.667S0
G1 X0.578S700
G1 X1.229S0
G1 X0.698S700
G1 X1.666S0
G1 X-0.03Y0.05S0
G1 X-1.667S0
G1 X-0.701S700
G1 X-1.195S0
G1 X-0.578S700
G1 X-1.667S0
G1 Y0.05S0
G1 X1.667S0
G1 X0.578S700
G1 X1.161S0
G1 X0.705S700
G1 X1.666S0
G1 X-0.03Y0.05S0
G1 X-1.667S0
G1 X-0.707S700
G1 X-1.128S0
G1 X-0.578S700
G1 X-1.667S0
G1 Y0.05S0
G1 X1.667S0
G1 X0.578S700
G1 X1.094S0
G1 X0.711S700
G1 X1.666S0
G1 X-0.03Y0.05S0
G1 X-1.667S0
G1 X-0.713S700
G1 X-1.061S0
G1 X-0.578S700
G1 X-1.667S0
G1 Y0.05S0
G1 X1.667S0
G1 X0.578S700
G1 X1.027S0
G1 X0.717S700
G1 X1.666S0
G1 X-0.03Y0.05S0
G1 X-1.667S0
G1 X-0.719S700
G1 X-0.994S0
G1 X-0.578S700
G1 X-1.667S0
G1 Y0.05S0
G1 X1.667S0
G1 X0.578S700
G1 X0.96S0
G1 X0.72S700
G1 X1.667S0
G1 X-0.034Y0.05S0
G1 X-1.667S0
G1 X-0.72S700
G1 X-0.926S0
G1 X-0.578S700
G1 X-1.667S0
G1 Y0.05S0
G1 X1.667S0
G1 X0.578S700
G1 X0.893S0
G1 X0.718S700
G1 X1.667S0
G1 X-0.034Y0.05S0
G1 X-1.667S0
G1 X-0.718S700
G1 X-0.859S0
G1 X-0.578S700
G1 X-1.667S0
G1 Y0.05S0
G1 X1.667S0
G1 X0.578S700
G1 X0.826S0
G1 X0.717S700
G1 X1.666S0
G1 X-0.034Y0.05S0
G1 X-1.667S0
G1 X-0.716S700
G1 X-0.792S0
G1 X-0.578S700
G1 X-1.667S0
G1 Y0.05S0
G1 X1.667S0
G1 X0.578S700
G1 X0.757S0
G1 X0.717S700
G1 X1.667S0
G1 X-0.035Y0.05S0
G1 X-1.666S0
G1 X-0.718S700
G1 X-0.722S0
G1 X-0.578S700
G1 X-1.667S0
G1 Y0.05S0
G1 X1.667S0
G1 X0.578S700
G1 X0.687S0
G1 X0.718S700
G1 X1.667S0
G1 X-0.039Y0.05S0
G1 X-1.667S0
G1 X-0.716S700
G1 X-0.65S0
G1 X-0.578S700
G1 X-1.667S0
G1 Y0.05S0
G1 X1.667S0
G1 X0.578S700
G1 X0.601S0
G1 X0.717S700
G1 X1.666S0
G1 X-0.048Y0.05S0
G1 X-1.667S0
G1 X-0.718S700
G1 X-0.551S0
G1 X-0.578S700
G1 X-1.667S0
G1 Y0.05S0
G1 X1.667S0
G1 X0.578S700
G1 X0.502S0
G1 X0.718S700
G1 X1.667S0
G1 X-0.067Y0.05S0
G1 X-1.666S0
G1 X-0.769S700
G1 X-0.385S0
G1 X-0.578S700
G1 X-1.667S0
G1 Y0.05S0
G1 X1.667S0
G1 X1.659S700
G1 X1.667S0
G1 X-0.072Y0.05S0
G1 X-1.667S0
G1 X-1.587S700
G1 X-1.667S0
G1 Y0.05S0
G1 X1.667S0
G1 X1.793S700
G1 X1.667S0
G1 X0.131Y0.05S0
G1 X-1.667S0
G1 X-1.924S700
G1 X-1.667S0
G1 Y0.05S0
G1 X1.667S0
G1 X2.01S700
G1 X1.667S0
G1 X0.063Y0.05S0
G1 X-1.666S0
G1 X-2.074S700
G1 X-1.667S0
G1 Y0.05S0
G1 X1.667S0
G1 X2.131S700
G1 X1.667S0
G1 X0.041Y0.05S0
G1 X-1.667S0
G1 X-2.172S700
G1 X-1.667S0
G1 Y0.05S0
G1 X1.667S0
G1 X2.212S700
G1 X1.666S0
G1 X0.03Y0.05S0
G1 X-1.666S0
G1 X-0.976S700
G1 X-0.688S0
G1 X-0.578S700
G1 X-1.667S0
G1 Y0.05S0
G1 X1.667S0
G1 X0.578S700
G1 X1.001S0
G1 X0.689S700
G1 X1.667S0
G1 X0.024Y0.05S0
G1 X-1.667S0
G1 X-0.652S700
G1 X-1.062S0
G1 X-0.578S700
G1 X-1.667S0
G1 Y0.05S0
G1 X1.667S0
G1 X0.578S700
G1 X1.106S0
G1 X0.623S700
G1 X1.667S0
G1 X0.015Y0.05S0
G1 X-1.667S0
G1 X-0.61S700
G1 X-1.134S0
G1 X-0.578S700
G1 X-1.667S0
G1 Y0.05S0
G1 X1.667S0
G1 X0.578S700
G1 X1.154S0
G1 X0.601S700
G1 X1.667S0
G1 X0.005Y0.05S0
G1 X-1.667S0
G1 X-0.6S700
G1 X-1.16S0
G1 X-0.578S700
G1 X-1.667S0
G1 Y0.05S0
G1 X1.667S0
G1 X0.578S700
G1 X1.166S0
G1 X0.6S700
G1 X1.666S0
G1 Y0.05S0
G1 X-1.667S0
G1 X-0.603S700
G1 X-1.162S0
G1 X-0.578S700
G1 X-1.667S0
G1 Y0.05S0
G1 X1.667S0
G1 X0.578S700
G1 X1.155S0
G1 X0.606S700
G1 X1.667S0
G1 X-0.005Y0.05S0
G1 X-1.667S0
G1 X-0.613S700
G1 X-1.143S0
G1 X-0.578S700
G1 X-1.667S0
G1 Y0.05S0
G1 X1.667S0
G1 X0.578S700
G1 X1.114S0
G1 X0.632S700
G1 X1.667S0
G1 X-0.015Y0.05S0
G1 X-1.667S0
G1 X-0.649S700
G1 X-1.082S0
G1 X-0.578S700
G1 X-1.667S0
G1 Y0.05S0
G1 X1.667S0
G1 X0.578S700
G1 X1.019S0
G1 X0.698S700
G1 X1.666S0
G1 X-0.014Y0.05S0
G1 X-1.667S0
G1 X-0.807S700
G1 X-0.895S0
G1 X-0.578S700
G1 X-1.667S0
G1 Y0.05S0
G1 X1.667S0
G1 X2.265S700
G1 X1.667S0
G1 X-0.024Y0.05S0
G1 X-1.666S0
G1 X-2.242S700
G1 X-1.667S0
G1 Y0.05S0
G1 X1.667S0
G1 X2.204S700
G1 X1.666S0
G1 X-0.038Y0.05S0
G1 X-1.666S0
G1 X-2.166S700
G1 X-1.667S0
G1 Y0.05S0
G1 X1.667S0
G1 X2.127S700
G1 X1.667S0
G1 X-0.047Y0.05S0
G1 X-1.667S0
G1 X-2.08S700
G1 X-1.667S0
G1 Y0.05S0
G1 X1.667S0
G1 X2.001S700
G1 X1.666S0
G1 X-0.079Y0.05S0
G1 X-1.667S0
G1 X-1.921S700
G1 X-1.667S0
G1 Y0.05S0
G1 X1.667S0
G1 X1.767S700
G1 X1.667S0
G1 X-0.668Y0.05S0
G1 X-1.667S0
G1 X-1.099S700
G1 X-1.667S0
M9
G1 S0
M5
; return to starting pos
G0 X1.667Y-2.861
M2
