; LightBurn 1.2.01
; GRBL device profile, current position
; Bounds: X-1.66 Y0.01 to X4 Y2.96
G00 G17 G40 G21 G54
G91
M4
; Cut @ 5000 mm/min, 0% power
M8
G0 X0Y0.056
; Layer Lim
G1 X1S0F5000
; Scan @ 4000 mm/min, 70% power
M8
G0 X-1.622Y-0.047
; Layer C02
G1 X1.667F4000S0
G1 X0.279S700
G1 X1.667S0
G1 X0.345Y0.05S0
G1 X-1.667S0
G1 X-0.916S700
G1 X-1.667S0
G1 X-0.148Y0.05S0
G1 X1.667S0
G1 X1.204S700
G1 X1.666S0
G1 X0.084Y0.05S0
G1 X-1.667S0
G1 X-1.402S700
G1 X-1.666S0
G1 X-0.066Y0.05S0
G1 X1.666S0
G1 X1.544S700
G1 X1.666S0
G1 X0.069Y0.05S0
G1 X-1.667S0
G1 X-1.678S700
G1 X-1.666S0
G1 X-0.062Y0.05S0
G1 X1.667S0
G1 X1.785S700
G1 X1.667S0
G1 X0.045Y0.05S0
G1 X-1.666S0
G1 X-1.871S700
G1 X-1.667S0
G1 X-0.039Y0.05S0
G1 X1.666S0
G1 X1.956S700
G1 X1.667S0
G1 X0.033Y0.05S0
G1 X-1.666S0
G1 X-2.029S700
G1 X-1.667S0
G1 X-0.036Y0.05S0
G1 X1.667S0
G1 X0.915S700
G1 X0.33S0
G1 X0.847S700
G1 X1.666S0
G1 X0.027Y0.05S0
G1 X-1.667S0
G1 X-0.764S700
G1 X-0.604S0
G1 X-0.773S700
G1 X-1.666S0
G1 X-0.023Y0.05S0
G1 X1.667S0
G1 X0.726S700
G1 X0.782S0
G1 X0.674S700
G1 X1.667S0
G1 X0.015Y0.05S0
G1 X-1.667S0
G1 X-0.638S700
G1 X-0.902S0
G1 X-0.679S700
G1 X-1.667S0
G1 X-0.022Y0.05S0
G1 X1.667S0
G1 X0.64S700
G1 X1.001S0
G1 X0.616S700
G1 X1.666S0
G1 X0.009Y0.05S0
G1 X-1.666S0
G1 X-0.599S700
G1 X-1.054S0
G1 X-0.628S700
G1 X-1.667S0
G1 X-0.008Y0.05S0
G1 X1.667S0
G1 X0.609S700
G1 X1.096S0
G1 X0.589S700
G1 X1.667S0
G1 X0.005Y0.05S0
G1 X-1.666S0
G1 X-0.586S700
G1 X-1.132S0
G1 X-0.591S700
G1 X-1.666S0
G1 X-0.009Y0.05S0
G1 X1.667S0
G1 X0.585S700
G1 X1.145S0
G1 X0.587S700
G1 X1.667S0
G1 Y0.05S0
G1 X-1.67S0
G1 X-0.59S700
G1 X-1.153S0
G1 X-0.58S700
G1 X-1.666S0
G1 X0.235Y0.05S0
G1 X1.667S0
G1 X0.331S700
G1 X1.143S0
G1 X0.609S700
G1 X1.666S0
G1 X-0.007Y0.05S0
G1 X-1.667S0
G1 X-0.636S700
G1 X-1.666S0
G1 X-0.055Y0.05S0
G1 X1.667S0
G1 X0.677S700
G1 X1.667S0
G1 X-0.014Y0.05S0
G1 X-1.667S0
G1 X-0.74S700
G1 X-1.667S0
G1 X-0.149Y0.05S0
G1 X1.666S0
G1 X0.874S700
G1 X1.666S0
G1 X-0.024Y0.05S0
G1 X-1.667S0
G1 X-1.039S700
G1 X-1.667S0
G1 X-0.192Y0.05S0
G1 X1.667S0
G1 X1.207S700
G1 X1.667S0
G1 X-0.03Y0.05S0
G1 X-1.667S0
G1 X-1.355S700
G1 X-1.666S0
G1 X-0.153Y0.05S0
G1 X1.667S0
G1 X1.47S700
G1 X1.667S0
G1 X-0.037Y0.05S0
G1 X-1.667S0
G1 X-1.549S700
G1 X-1.667S0
G1 X-0.083Y0.05S0
G1 X1.667S0
G1 X1.579S700
G1 X1.667S0
G1 X-0.055Y0.05S0
G1 X-1.667S0
G1 X-1.596S700
G1 X-1.667S0
G1 X-0.052Y0.05S0
G1 X1.666S0
G1 X1.564S700
G1 X1.667S0
G1 X-0.101Y0.05S0
G1 X-1.667S0
G1 X-1.515S700
G1 X-1.667S0
G1 X-0.043Y0.05S0
G1 X1.667S0
G1 X1.444S700
G1 X1.667S0
G1 X-0.127Y0.05S0
G1 X-1.667S0
G1 X-1.351S700
G1 X-1.667S0
G1 X-0.034Y0.05S0
G1 X1.667S0
G1 X1.228S700
G1 X1.667S0
G1 X-0.196Y0.05S0
G1 X-1.666S0
G1 X-1.065S700
G1 X-1.666S0
G1 X-0.018Y0.05S0
G1 X1.667S0
G1 X0.87S700
G1 X1.667S0
G1 X-0.161Y0.05S0
G1 X-1.667S0
G1 X-0.726S700
G1 X-1.667S0
G1 X-0.012Y0.05S0
G1 X1.666S0
G1 X0.652S700
G1 X1.667S0
G1 X-0.049Y0.05S0
G1 X-1.666S0
G1 X-0.611S700
G1 X-1.667S0
G1 X-0.007Y0.05S0
G1 X1.667S0
G1 X0.581S700
G1 X0.97S0
G1 X0.586S700
G1 X1.666S0
G1 X-0.008Y0.05S0
G1 X-1.666S0
G1 X-0.591S700
G1 X-0.973S0
G1 X-0.566S700
G1 X-1.666S0
G1 Y0.05S0
G1 X1.668S0
G1 X0.549S700
G1 X0.975S0
G1 X0.595S700
G1 X1.667S0
G1 X-0.008Y0.05S0
G1 X-1.667S0
G1 X-0.614S700
G1 X-0.938S0
G1 X-0.557S700
G1 X-1.666S0
G1 X0.011Y0.05S0
G1 X1.667S0
G1 X0.565S700
G1 X0.891S0
G1 X0.633S700
G1 X1.666S0
G1 X-0.008Y0.05S0
G1 X-1.666S0
G1 X-0.679S700
G1 X-0.803S0
G1 X-0.588S700
G1 X-1.667S0
G1 X0.015Y0.05S0
G1 X1.667S0
G1 X0.639S700
G1 X0.657S0
G1 X0.736S700
G1 X1.667S0
G1 X-0.027Y0.05S0
G1 X-1.667S0
G1 X-0.831S700
G1 X-0.397S0
G1 X-0.756S700
G1 X-1.667S0
G1 X0.021Y0.05S0
G1 X1.667S0
G1 X1.936S700
G1 X1.667S0
G1 X-0.027Y0.05S0
G1 X-1.667S0
G1 X-1.878S700
G1 X-1.666S0
G1 X0.032Y0.05S0
G1 X1.667S0
G1 X1.818S700
G1 X1.667S0
G1 X-0.054Y0.05S0
G1 X-1.666S0
G1 X-1.723S700
G1 X-1.667S0
G1 X0.048Y0.05S0
G1 X1.667S0
G1 X1.621S700
G1 X1.666S0
G1 X-0.053Y0.05S0
G1 X-1.667S0
G1 X-1.506S700
G1 X-1.666S0
G1 X0.069Y0.05S0
G1 X1.667S0
G1 X1.364S700
G1 X1.666S0
G1 X-0.113Y0.05S0
G1 X-1.666S0
G1 X-1.122S700
G1 X-1.667S0
G1 X0.13Y0.05S0
G1 X1.667S0
G1 X0.869S700
G1 X1.667S0
G1 X-0.245Y0.05S0
G1 X-1.667S0
G1 X-0.367S700
G1 X-1.667S0
M9
G1 S0
M5
; return to starting pos
G0 X0.677Y-2.959
M2
