; LightBurn 1.2.01
; GRBL device profile, current position
; Bounds: X-1.67 Y0.03 to X3.96 Y2.88
G00 G17 G40 G21 G54
G91
M4
; Cut @ 5000 mm/min, 0% power
M8
G0 X0.005Y0.049
; Layer Lim
G1 X1S0F5000
; Scan @ 4000 mm/min, 70% power
M8
G0 X-1.909Y-0.019
; Layer C02
G1 X1.667F4000S0
G1 X0.803S700
G1 X1.666S0
G1 X0.162Y0.05S0
G1 X-1.667S0
G1 X-1.116S700
G1 X-1.667S0
G1 X-0.125Y0.05S0
G1 X1.667S0
G1 X1.336S700
G1 X1.667S0
G1 X0.08Y0.05S0
G1 X-1.667S0
G1 X-1.482S700
G1 X-1.667S0
G1 X-0.065Y0.05S0
G1 X1.666S0
G1 X1.608S700
G1 X1.667S0
G1 X0.06Y0.05S0
G1 X-1.667S0
G1 X-1.734S700
G1 X-1.666S0
G1 X-0.041Y0.05S0
G1 X1.666S0
G1 X1.815S700
G1 X1.666S0
G1 X0.039Y0.05S0
G1 X-1.666S0
G1 X-1.891S700
G1 X-1.667S0
G1 X-0.038Y0.05S0
G1 X1.667S0
G1 X1.967S700
G1 X1.667S0
G1 X0.024Y0.05S0
G1 X-1.666S0
G1 X-2.03S700
G1 X-1.667S0
G1 X-0.021Y0.05S0
G1 X1.667S0
G1 X0.809S700
G1 X0.476S0
G1 X0.79S700
G1 X1.667S0
G1 X0.024Y0.05S0
G1 X-1.666S0
G1 X-0.719S700
G1 X-0.674S0
G1 X-0.721S700
G1 X-1.667S0
G1 X-0.013Y0.05S0
G1 X1.666S0
G1 X0.668S700
G1 X0.802S0
G1 X0.674S700
G1 X1.667S0
G1 X0.013Y0.05S0
G1 X-1.667S0
G1 X-0.635S700
G1 X-0.905S0
G1 X-0.631S700
G1 X-1.666S0
G1 X-0.014Y0.05S0
G1 X1.667S0
G1 X0.61S700
G1 X0.972S0
G1 X0.615S700
G1 X1.666S0
G1 X0.013Y0.05S0
G1 X-1.667S0
G1 X-0.615S700
G1 X-1.013S0
G1 X-0.595S700
G1 X-1.667S0
G1 X-0.012Y0.05S0
G1 X1.667S0
G1 X0.586S700
G1 X1.046S0
G1 X0.605S700
G1 X1.667S0
G1 Y0.05S0
G1 X-1.664S0
G1 X-0.596S700
G1 X-1.073S0
G1 X-0.575S700
G1 X-1.666S0
G1 Y0.05S0
G1 X1.663S0
G1 X0.568S700
G1 X1.095S0
G1 X0.586S700
G1 X1.667S0
G1 Y0.05S0
G1 X-1.665S0
G1 X-0.576S700
G1 X-1.112S0
G1 X-0.567S700
G1 X-1.666S0
G1 Y0.05S0
G1 X1.663S0
G1 X0.57S700
G1 X1.12S0
G1 X0.569S700
G1 X1.667S0
G1 Y0.05S0
G1 X-1.666S0
G1 X-0.569S700
G1 X-1.121S0
G1 X-0.574S700
G1 X-1.666S0
G1 Y0.05S0
G1 X1.663S0
G1 X0.577S700
G1 X1.121S0
G1 X0.57S700
G1 X1.667S0
G1 Y0.05S0
G1 X-1.666S0
G1 X-0.571S700
G1 X-1.122S0
G1 X-0.578S700
G1 X-1.667S0
G1 Y0.05S0
G1 X1.666S0
G1 X0.578S700
G1 X1.123S0
G1 X0.572S700
G1 X1.667S0
G1 Y0.05S0
G1 X-1.666S0
G1 X-0.573S700
G1 X-1.123S0
G1 X-0.578S700
G1 X-1.667S0
G1 Y0.05S0
G1 X1.666S0
G1 X0.578S700
G1 X1.125S0
G1 X0.573S700
G1 X1.667S0
G1 Y0.05S0
G1 X-1.666S0
G1 X-0.574S700
G1 X-1.126S0
G1 X-0.577S700
G1 X-1.667S0
G1 Y0.05S0
G1 X1.666S0
G1 X0.578S700
G1 X1.126S0
G1 X0.575S700
G1 X1.667S0
G1 Y0.05S0
G1 X-1.666S0
G1 X-0.576S700
G1 X-1.127S0
G1 X-0.577S700
G1 X-1.667S0
G1 Y0.05S0
G1 X1.666S0
G1 X0.578S700
G1 X1.127S0
G1 X0.577S700
G1 X1.667S0
G1 Y0.05S0
G1 X-1.666S0
G1 X-0.578S700
G1 X-1.128S0
G1 X-0.577S700
G1 X-1.667S0
G1 Y0.05S0
G1 X1.666S0
G1 X0.577S700
G1 X1.129S0
G1 X0.579S700
G1 X1.667S0
G1 Y0.05S0
G1 X-1.666S0
G1 X-0.58S700
G1 X-1.129S0
G1 X-0.577S700
G1 X-1.667S0
G1 Y0.05S0
G1 X1.666S0
G1 X0.577S700
G1 X1.13S0
G1 X0.581S700
G1 X1.667S0
G1 Y0.05S0
G1 X-1.666S0
G1 X-0.582S700
G1 X-1.131S0
G1 X-0.576S700
G1 X-1.667S0
G1 Y0.05S0
G1 X1.666S0
G1 X0.577S700
G1 X1.131S0
G1 X0.583S700
G1 X1.667S0
G1 Y0.05S0
G1 X-1.666S0
G1 X-0.584S700
G1 X-1.132S0
G1 X-0.576S700
G1 X-1.667S0
G1 Y0.05S0
G1 X1.666S0
G1 X0.577S700
G1 X1.132S0
G1 X0.585S700
G1 X1.667S0
G1 Y0.05S0
G1 X-1.667S0
G1 X-0.585S700
G1 X-1.133S0
G1 X-0.576S700
G1 X-1.667S0
G1 Y0.05S0
G1 X1.666S0
G1 X0.577S700
G1 X1.133S0
G1 X0.584S700
G1 X1.667S0
G1 Y0.05S0
G1 X-1.667S0
G1 X-0.584S700
G1 X-1.132S0
G1 X-0.578S700
G1 X-1.666S0
G1 Y0.05S0
G1 X1.667S0
G1 X0.577S700
G1 X1.132S0
G1 X0.584S700
G1 X1.666S0
G1 Y0.05S0
G1 X-1.667S0
G1 X-0.583S700
G1 X-1.132S0
G1 X-0.577S700
G1 X-1.667S0
G1 Y0.05S0
G1 X1.667S0
G1 X0.578S700
G1 X1.131S0
G1 X0.583S700
G1 X1.666S0
G1 Y0.05S0
G1 X-1.667S0
G1 X-0.582S700
G1 X-1.131S0
G1 X-0.578S700
G1 X-1.666S0
G1 Y0.05S0
G1 X1.667S0
G1 X0.577S700
G1 X1.131S0
G1 X0.582S700
G1 X1.667S0
G1 Y0.05S0
G1 X-1.667S0
G1 X-0.582S700
G1 X-1.131S0
G1 X-0.577S700
G1 X-1.667S0
G1 Y0.05S0
G1 X1.667S0
G1 X0.578S700
G1 X1.13S0
G1 X0.581S700
G1 X1.667S0
G1 Y0.05S0
G1 X-1.667S0
G1 X-0.581S700
G1 X-1.13S0
G1 X-0.577S700
G1 X-1.667S0
G1 Y0.05S0
G1 X1.667S0
G1 X0.577S700
G1 X1.13S0
G1 X0.58S700
G1 X1.667S0
G1 Y0.05S0
G1 X-1.667S0
G1 X-0.58S700
G1 X-1.129S0
G1 X-0.578S700
G1 X-1.666S0
G1 Y0.05S0
G1 X1.667S0
G1 X0.577S700
G1 X1.129S0
G1 X0.58S700
G1 X1.666S0
G1 Y0.05S0
G1 X-1.667S0
G1 X-0.579S700
G1 X-1.129S0
G1 X-0.577S700
G1 X-1.667S0
G1 Y0.05S0
G1 X1.667S0
G1 X0.578S700
G1 X1.128S0
G1 X0.579S700
G1 X1.667S0
G1 Y0.05S0
G1 X-1.668S0
G1 X-0.578S700
G1 X-1.128S0
G1 X-0.577S700
G1 X-1.667S0
G1 Y0.05S0
G1 X1.667S0
G1 X0.577S700
G1 X1.128S0
G1 X0.578S700
G1 X1.667S0
G1 Y0.05S0
G1 X-1.667S0
G1 X-0.578S700
G1 X-1.127S0
G1 X-0.578S700
G1 X-1.667S0
M9
G1 S0
M5
; return to starting pos
G0 X1.662Y-2.88
M2
