; LightBurn 1.2.01
; GRBL device profile, current position
; Bounds: X-1.66 Y0 to X4.33 Y2.86
G00 G17 G40 G21 G54
G91
M4
; Cut @ 5000 mm/min, 0% power
M8
G0 X0Y0.001
; Layer Lim
G1 X1S0F5000
; Scan @ 4000 mm/min, 70% power
M8
G0 X-1.646Y0.005
; Layer C02
G1 X1.666F4000S0
G1 X0.621S700
G1 X1.667S0
G1 X0.018Y0.05S0
G1 X-1.667S0
G1 X-0.656S700
G1 X-1.667S0
G1 X-0.018Y0.05S0
G1 X1.667S0
G1 X0.692S700
G1 X1.667S0
G1 X0.018Y0.05S0
G1 X-1.667S0
G1 X-0.728S700
G1 X-1.667S0
G1 X-0.018Y0.05S0
G1 X1.667S0
G1 X0.764S700
G1 X1.667S0
G1 X0.018Y0.05S0
G1 X-1.667S0
G1 X-0.8S700
G1 X-1.667S0
G1 X-0.017Y0.05S0
G1 X1.666S0
G1 X0.836S700
G1 X1.666S0
G1 X0.018Y0.05S0
G1 X-1.666S0
G1 X-0.872S700
G1 X-1.666S0
G1 X-0.018Y0.05S0
G1 X1.667S0
G1 X0.907S700
G1 X1.666S0
G1 X0.018Y0.05S0
G1 X-1.666S0
G1 X-0.943S700
G1 X-1.667S0
G1 X-0.018Y0.05S0
G1 X1.667S0
G1 X0.978S700
G1 X1.667S0
G1 X0.018Y0.05S0
G1 X-1.667S0
G1 X-1.014S700
G1 X-1.667S0
G1 X-0.018Y0.05S0
G1 X1.667S0
G1 X1.05S700
G1 X1.667S0
G1 X0.018Y0.05S0
G1 X-1.667S0
G1 X-1.086S700
G1 X-1.666S0
G1 X-0.018Y0.05S0
G1 X1.666S0
G1 X1.122S700
G1 X1.667S0
G1 X0.018Y0.05S0
G1 X-1.667S0
G1 X-0.556S700
G1 X-0.602
G1 X-1.666S0
G1 X-0.018Y0.05S0
G1 X1.667S0
G1 X0.594S700
G1 X0.042S0
G1 X0.557S700
G1 X1.667S0
G1 X0.018Y0.05S0
G1 X-1.667S0
G1 X-0.559S700
G1 X-0.075S0
G1 X-0.595S700
G1 X-1.667S0
G1 X-0.018Y0.05S0
G1 X1.667S0
G1 X0.596S700
G1 X0.109S0
G1 X0.56S700
G1 X1.666S0
G1 X0.018Y0.05S0
G1 X-1.666S0
G1 X-0.562S700
G1 X-0.142S0
G1 X-0.597S700
G1 X-1.667S0
G1 X-0.018Y0.05S0
G1 X1.667S0
G1 X0.598S700
G1 X0.176S0
G1 X0.563S700
G1 X1.666S0
G1 X0.018Y0.05S0
G1 X-1.667S0
G1 X-0.564S700
G1 X-0.209S0
G1 X-0.599S700
G1 X-1.666S0
G1 X-0.018Y0.05S0
G1 X1.666S0
G1 X0.6S700
G1 X0.243S0
G1 X0.565S700
G1 X1.667S0
G1 X0.018Y0.05S0
G1 X-1.667S0
G1 X-0.566S700
G1 X-0.277S0
G1 X-0.601S700
G1 X-1.666S0
G1 X-0.018Y0.05S0
G1 X1.667S0
G1 X0.6S700
G1 X0.311S0
G1 X0.568S700
G1 X1.667S0
G1 X0.018Y0.05S0
G1 X-1.667S0
G1 X-0.569S700
G1 X-0.345S0
G1 X-0.601S700
G1 X-1.667S0
G1 X-0.018Y0.05S0
G1 X1.667S0
G1 X0.602S700
G1 X0.378S0
G1 X0.571S700
G1 X1.667S0
G1 X0.018Y0.05S0
G1 X-1.667S0
G1 X-0.572S700
G1 X-0.412S0
G1 X-0.603S700
G1 X-1.667S0
G1 X-0.018Y0.05S0
G1 X1.667S0
G1 X0.604S700
G1 X0.445S0
G1 X0.574S700
G1 X1.667S0
G1 X0.017Y0.05S0
G1 X-1.666S0
G1 X-0.575S700
G1 X-0.479S0
G1 X-0.605S700
G1 X-1.666S0
G1 X-0.018Y0.05S0
G1 X1.666S0
G1 X0.606S700
G1 X0.512S0
G1 X0.577S700
G1 X1.666S0
G1 X0.018Y0.05S0
G1 X-1.666S0
G1 X-0.578S700
G1 X-0.546S0
G1 X-0.606S700
G1 X-1.667S0
G1 X-0.018Y0.05S0
G1 X1.667S0
G1 X0.607S700
G1 X0.579S0
G1 X0.58S700
G1 X1.666S0
G1 X0.018Y0.05S0
G1 X-1.667S0
G1 X-0.58S700
G1 X-0.613S0
G1 X-0.608S700
G1 X-1.667S0
G1 X-0.018Y0.05S0
G1 X1.667S0
G1 X0.609S700
G1 X0.647S0
G1 X0.581S700
G1 X1.667S0
G1 X0.018Y0.05S0
G1 X-1.667S0
G1 X-0.583S700
G1 X-0.681S0
G1 X-0.609S700
G1 X-1.667S0
G1 X-0.017Y0.05S0
G1 X1.666S0
G1 X0.61S700
G1 X0.715S0
G1 X0.584S700
G1 X1.667S0
G1 X0.018Y0.05S0
G1 X-1.667S0
G1 X-0.586S700
G1 X-0.748S0
G1 X-0.611S700
G1 X-1.666S0
G1 X-0.018Y0.05S0
G1 X1.666S0
G1 X0.612S700
G1 X0.782S0
G1 X0.587S700
G1 X1.667S0
G1 X0.018Y0.05S0
G1 X-1.667S0
G1 X-0.589S700
G1 X-0.815S0
G1 X-0.612S700
G1 X-1.667S0
G1 X-0.018Y0.05S0
G1 X1.667S0
G1 X0.613S700
G1 X0.849S0
G1 X0.59S700
G1 X1.666S0
G1 X0.018Y0.05S0
G1 X-1.666S0
G1 X-0.592S700
G1 X-0.882S0
G1 X-0.614S700
G1 X-1.667S0
G1 X-0.018Y0.05S0
G1 X1.667S0
G1 X0.615S700
G1 X0.916S0
G1 X0.593S700
G1 X1.666S0
G1 X0.018Y0.05S0
G1 X-1.666S0
G1 X-0.595S700
G1 X-0.949S0
G1 X-0.616S700
G1 X-1.667S0
G1 X-0.017Y0.05S0
G1 X1.666S0
G1 X0.617S700
G1 X0.983S0
G1 X0.595S700
G1 X1.667S0
G1 X0.018Y0.05S0
G1 X-1.667S0
G1 X-0.596S700
G1 X-1.018S0
G1 X-0.617S700
G1 X-1.666S0
G1 X-0.018Y0.05S0
G1 X1.667S0
G1 X0.617S700
G1 X1.051S0
G1 X0.598S700
G1 X1.667S0
G1 X0.018Y0.05S0
G1 X-1.667S0
G1 X-0.599S700
G1 X-1.085S0
G1 X-0.618S700
G1 X-1.667S0
G1 X-0.018Y0.05S0
G1 X1.667S0
G1 X0.619S700
G1 X1.118S0
G1 X0.601S700
G1 X1.667S0
G1 X0.018Y0.05S0
G1 X-1.667S0
G1 X-0.602S700
G1 X-1.152S0
G1 X-0.62S700
G1 X-1.667S0
G1 X-0.018Y0.05S0
G1 X1.667S0
G1 X0.621S700
G1 X1.185S0
G1 X0.604S700
G1 X1.667S0
G1 X0.017Y0.05S0
G1 X-1.666S0
G1 X-0.605S700
G1 X-1.219S0
G1 X-0.622S700
G1 X-1.666S0
G1 X-0.018Y0.05S0
G1 X1.666S0
G1 X0.623S700
G1 X1.252S0
G1 X0.607S700
G1 X1.666S0
G1 X0.018Y0.05S0
G1 X-1.666S0
G1 X-0.608S700
G1 X-1.286S0
G1 X-0.624S700
G1 X-1.666S0
G1 X-0.018Y0.05S0
G1 X1.667S0
G1 X0.624S700
G1 X1.32S0
G1 X0.609S700
G1 X1.666S0
G1 X0.018Y0.05S0
G1 X-1.667S0
G1 X-0.61S700
G1 X-1.353S0
G1 X-0.625S700
G1 X-1.667S0
G1 X-0.018Y0.05S0
G1 X1.667S0
G1 X0.625S700
G1 X1.388S0
G1 X0.611S700
G1 X1.667S0
G1 X0.018Y0.05S0
G1 X-1.667S0
G1 X-0.613S700
G1 X-1.421S0
G1 X-0.626S700
G1 X-1.667S0
M9
G1 S0
M5
; return to starting pos
G0 X1.665Y-2.856
M2
