; LightBurn 1.2.01
; GRBL device profile, current position
; Bounds: X-1.67 Y0 to X5.42 Y2.86
G00 G17 G40 G21 G54
G91
M4
; Cut @ 5000 mm/min, 0% power
M8
G0 X0Y0
; Layer Lim
G1 X1S0F5000
; Scan @ 4000 mm/min, 70% power
M8
G0 X-1.985Y0.006
; Layer C02
G1 X1.667F4000S0
G1 X0.629S700
G1 X1.135S0
G1 X0.616S700
G1 X1.666S0
G1 X0.012Y0.05S0
G1 X-1.666S0
G1 X-0.641S700
G1 X-1.108S0
G1 X-0.655S700
G1 X-1.667S0
G1 X-0.012Y0.05S0
G1 X1.667S0
G1 X0.68S700
G1 X1.082S0
G1 X0.666S700
G1 X1.667S0
G1 X0.012Y0.05S0
G1 X-1.667S0
G1 X-0.692S700
G1 X-1.055S0
G1 X-0.705S700
G1 X-1.666S0
G1 X-0.012Y0.05S0
G1 X1.666S0
G1 X0.73S700
G1 X1.029S0
G1 X0.717S700
G1 X1.667S0
G1 X0.012Y0.05S0
G1 X-1.667S0
G1 X-0.742S700
G1 X-1.002S0
G1 X-0.756S700
G1 X-1.666S0
G1 X-0.012Y0.05S0
G1 X1.666S0
G1 X0.781S700
G1 X0.975S0
G1 X0.768S700
G1 X1.667S0
G1 X0.012Y0.05S0
G1 X-1.666S0
G1 X-0.794S700
G1 X-0.949S0
G1 X-0.806S700
G1 X-1.666S0
G1 X-0.012Y0.05S0
G1 X1.666S0
G1 X0.831S700
G1 X0.923S0
G1 X0.819S700
G1 X1.666S0
G1 X0.013Y0.05S0
G1 X-1.667S0
G1 X-0.845S700
G1 X-0.895S0
G1 X-0.856S700
G1 X-1.667S0
G1 X-0.012Y0.05S0
G1 X1.667S0
G1 X0.881S700
G1 X0.869S0
G1 X0.87S700
G1 X1.667S0
G1 X0.012Y0.05S0
G1 X-1.667S0
G1 X-0.895S700
G1 X-0.843S0
G1 X-0.906S700
G1 X-1.667S0
G1 X-0.012Y0.05S0
G1 X1.667S0
G1 X0.931S700
G1 X0.816S0
G1 X0.921S700
G1 X1.667S0
G1 X0.012Y0.05S0
G1 X-1.667S0
G1 X-0.946S700
G1 X-0.789S0
G1 X-0.957S700
G1 X-1.667S0
G1 X-0.012Y0.05S0
G1 X1.667S0
G1 X0.982S700
G1 X0.763S0
G1 X0.972S700
G1 X1.666S0
G1 X0.012Y0.05S0
G1 X-1.666S0
G1 X-0.998S700
G1 X-0.736S0
G1 X-1.007S700
G1 X-1.667S0
G1 X-0.012Y0.05S0
G1 X1.667S0
G1 X1.033S700
G1 X0.709S0
G1 X1.023S700
G1 X1.666S0
G1 X0.013Y0.05S0
G1 X-1.667S0
G1 X-1.048S700
G1 X-0.683S0
G1 X-1.058S700
G1 X-1.667S0
G1 X-0.012Y0.05S0
G1 X1.667S0
G1 X0.553S700
G1 X0.53
G1 X0.656S0
G1 X0.518S700
G1 X0.02S0
G1 X0.536S700
G1 X1.667S0
G1 X0.012Y0.05S0
G1 X-1.667S0
G1 X-0.537S700
G1 X-0.044S0
G1 X-0.518S700
G1 X-0.63S0
G1 X-0.525S700
G1 X-0.029S0
G1 X-0.554S700
G1 X-1.667S0
G1 X-0.011Y0.05S0
G1 X1.666S0
G1 X0.555S700
G1 X0.054S0
G1 X0.525S700
G1 X0.603S0
G1 X0.518S700
G1 X0.068S0
G1 X0.538S700
G1 X1.667S0
G1 X0.012Y0.05S0
G1 X-1.666S0
G1 X-0.54S700
G1 X-0.091S0
G1 X-0.52S700
G1 X-0.576S0
G1 X-0.525S700
G1 X-0.078S0
G1 X-0.556S700
G1 X-1.666S0
G1 X-0.012Y0.05S0
G1 X1.666S0
G1 X0.557S700
G1 X0.102S0
G1 X0.525S700
G1 X0.55S0
G1 X0.52S700
G1 X0.115S0
G1 X0.541S700
G1 X1.666S0
G1 X0.012Y0.05S0
G1 X-1.666S0
G1 X-0.542S700
G1 X-0.138S0
G1 X-0.521S700
G1 X-0.524S0
G1 X-0.524S700
G1 X-0.127S0
G1 X-0.558S700
G1 X-1.666S0
G1 X-0.012Y0.05S0
G1 X1.666S0
G1 X0.559S700
G1 X0.151S0
G1 X0.525S700
G1 X0.496S0
G1 X0.522S700
G1 X0.162S0
G1 X0.543S700
G1 X1.667S0
G1 X0.012Y0.05S0
G1 X-1.667S0
G1 X-0.544S700
G1 X-0.185S0
G1 X-0.523S700
G1 X-0.47S0
G1 X-0.525S700
G1 X-0.174S0
G1 X-0.561S700
G1 X-1.666S0
G1 X-0.012Y0.05S0
G1 X1.667S0
G1 X0.561S700
G1 X0.199S0
G1 X0.524S700
G1 X0.444S0
G1 X0.523S700
G1 X0.209S0
G1 X0.545S700
G1 X1.667S0
G1 X0.012Y0.05S0
G1 X-1.667S0
G1 X-0.546S700
G1 X-0.232S0
G1 X-0.525S700
G1 X-0.417S0
G1 X-0.524S700
G1 X-0.223S0
G1 X-0.562S700
G1 X-1.667S0
G1 X-0.012Y0.05S0
G1 X1.667S0
G1 X0.563S700
G1 X0.247S0
G1 X0.525S700
G1 X0.39S0
G1 X0.525S700
G1 X0.256S0
G1 X0.547S700
G1 X1.667S0
G1 X0.012Y0.05S0
G1 X-1.666S0
G1 X-0.549S700
G1 X-0.279S0
G1 X-0.526S700
G1 X-0.364S0
G1 X-0.524S700
G1 X-0.272S0
G1 X-0.564S700
G1 X-1.667S0
G1 X-0.012Y0.05S0
G1 X1.667S0
G1 X0.565S700
G1 X0.296S0
G1 X0.524S700
G1 X0.337S0
G1 X0.527S700
G1 X0.303S0
G1 X0.55S700
G1 X1.666S0
G1 X0.013Y0.05S0
G1 X-1.667S0
G1 X-0.551S700
G1 X-0.327S0
G1 X-0.527S700
G1 X-0.31S0
G1 X-0.525S700
G1 X-0.32S0
G1 X-0.566S700
G1 X-1.667S0
G1 X-0.012Y0.05S0
G1 X1.667S0
G1 X0.567S700
G1 X0.345S0
G1 X0.524S700
G1 X0.284S0
G1 X0.528S700
G1 X0.35S0
G1 X0.552S700
G1 X1.667S0
G1 X0.012Y0.05S0
G1 X-1.667S0
G1 X-0.553S700
G1 X-0.374S0
G1 X-0.529S700
G1 X-0.257S0
G1 X-0.524S700
G1 X-0.369S0
G1 X-0.568S700
G1 X-1.667S0
G1 X-0.012Y0.05S0
G1 X1.667S0
G1 X0.569S700
G1 X0.393S0
G1 X0.524S700
G1 X0.231S0
G1 X0.53S700
G1 X0.396S0
G1 X0.555S700
G1 X1.667S0
G1 X0.012Y0.05S0
G1 X-1.667S0
G1 X-0.556S700
G1 X-0.42S0
G1 X-0.53S700
G1 X-0.204S0
G1 X-0.525S700
G1 X-0.417S0
G1 X-0.57S700
G1 X-1.667S0
G1 X-0.012Y0.05S0
G1 X1.667S0
G1 X0.571S700
G1 X0.442S0
G1 X0.524S700
G1 X0.177S0
G1 X0.532S700
G1 X0.443S0
G1 X0.558S700
G1 X1.666S0
G1 X0.012Y0.05S0
G1 X-1.666S0
G1 X-0.559S700
G1 X-0.467S0
G1 X-0.532S700
G1 X-0.151S0
G1 X-0.524S700
G1 X-0.466S0
G1 X-0.572S700
G1 X-1.667S0
G1 X-0.011Y0.05S0
G1 X1.666S0
G1 X0.573S700
G1 X0.49S0
G1 X0.524S700
G1 X0.125S0
G1 X0.533S700
G1 X0.49S0
G1 X0.56S700
G1 X1.667S0
G1 X0.012Y0.05S0
G1 X-1.667S0
G1 X-0.561S700
G1 X-0.514S0
G1 X-0.534S700
G1 X-0.097S0
G1 X-0.524S700
G1 X-0.515S0
G1 X-0.574S700
G1 X-1.666S0
G1 X-0.012Y0.05S0
G1 X1.666S0
G1 X0.575S700
G1 X0.539S0
G1 X0.524S700
G1 X0.071S0
G1 X0.535S700
G1 X0.537S0
G1 X0.562S700
G1 X1.667S0
G1 X0.012Y0.05S0
G1 X-1.667S0
G1 X-0.563S700
G1 X-0.561S0
G1 X-0.535S700
G1 X-0.045S0
G1 X-0.524S700
G1 X-0.563S0
G1 X-0.576S700
G1 X-1.666S0
G1 X-0.012Y0.05S0
G1 X1.666S0
G1 X0.577S700
G1 X0.588S0
G1 X0.523S700
G1 X0.018S0
G1 X0.536S700
G1 X0.585S0
G1 X0.564S700
G1 X1.667S0
G1 X0.012Y0.05S0
G1 X-1.666S0
G1 X-0.566S700
G1 X-0.608S0
G1 X-1.052S700
G1 X-0.612S0
G1 X-0.577S700
G1 X-1.667S0
G1 X-0.012Y0.05S0
G1 X1.667S0
G1 X0.578S700
G1 X0.636S0
G1 X1.026S700
G1 X0.632S0
G1 X0.567S700
G1 X1.666S0
G1 X0.012Y0.05S0
G1 X-1.666S0
G1 X-0.568S700
G1 X-0.655S0
G1 X-1S700
G1 X-0.661S0
G1 X-0.579S700
G1 X-1.667S0
G1 X-0.012Y0.05S0
G1 X1.667S0
G1 X0.58S700
G1 X0.685S0
G1 X0.974S700
G1 X0.679S0
G1 X0.569S700
G1 X1.667S0
G1 X0.012Y0.05S0
G1 X-1.667S0
G1 X-0.57S700
G1 X-0.702S0
G1 X-0.949S700
G1 X-0.709S0
G1 X-0.581S700
G1 X-1.667S0
G1 X-0.012Y0.05S0
G1 X1.667S0
G1 X0.582S700
G1 X0.734S0
G1 X0.922S700
G1 X0.726S0
G1 X0.571S700
G1 X1.667S0
G1 X0.012Y0.05S0
G1 X-1.667S0
G1 X-0.572S700
G1 X-0.749S0
G1 X-0.897S700
G1 X-0.758S0
G1 X-0.583S700
G1 X-1.667S0
G1 X-0.012Y0.05S0
G1 X1.667S0
G1 X0.584S700
G1 X0.782S0
G1 X0.871S700
G1 X0.773S0
G1 X0.574S700
G1 X1.666S0
G1 X0.012Y0.05S0
G1 X-1.666S0
G1 X-0.575S700
G1 X-0.796S0
G1 X-0.845S700
G1 X-0.806S0
G1 X-0.586S700
G1 X-1.667S0
G1 X-0.012Y0.05S0
G1 X1.667S0
G1 X0.587S700
G1 X0.83S0
G1 X0.819S700
G1 X0.82S0
G1 X0.576S700
G1 X1.666S0
G1 X0.013Y0.05S0
G1 X-1.667S0
G1 X-0.577S700
G1 X-0.844S0
G1 X-0.793S700
G1 X-0.854S0
G1 X-0.588S700
G1 X-1.667S0
G1 X-0.012Y0.05S0
G1 X1.667S0
G1 X0.589S700
G1 X0.878S0
G1 X0.768S700
G1 X0.867S0
G1 X0.578S700
G1 X1.667S0
G1 X0.012Y0.05S0
G1 X-1.667S0
G1 X-0.579S700
G1 X-0.891S0
G1 X-0.741S700
G1 X-0.903S0
G1 X-0.59S700
G1 X-1.666S0
G1 X-0.012Y0.05S0
G1 X1.666S0
G1 X0.591S700
G1 X0.927S0
G1 X0.716S700
G1 X0.914S0
G1 X0.58S700
G1 X1.667S0
G1 X0.012Y0.05S0
G1 X-1.667S0
G1 X-0.581S700
G1 X-0.938S0
G1 X-0.69S700
G1 X-0.951S0
G1 X-0.592S700
G1 X-1.666S0
M9
G1 S0
M5
; return to starting pos
G0 X1.665Y-2.856
M2
