; LightBurn 1.2.01
; GRBL device profile, current position
; Bounds: X-1.66 Y0 to X4.32 Y2.86
G00 G17 G40 G21 G54
G91
M4
; Cut @ 5000 mm/min, 0% power
M8
G0 X0Y0.001
; Layer Lim
G1 X1S0F5000
; Scan @ 4000 mm/min, 70% power
M8
G0 X-2.663Y0.005
; Layer C02
G1 X1.667F4000S0
G1 X0.692S700
G1 X1.264S0
G1 X0.696S700
G1 X1.667S0
G1 X-0.033Y0.05S0
G1 X-1.667S0
G1 X-0.695S700
G1 X-1.2S0
G1 X-0.692S700
G1 X-1.666S0
G1 X0.032Y0.05S0
G1 X1.667S0
G1 X0.692S700
G1 X1.135S0
G1 X0.694S700
G1 X1.666S0
G1 X-0.033Y0.05S0
G1 X-1.666S0
G1 X-0.693S700
G1 X-1.071S0
G1 X-0.691S700
G1 X-1.667S0
G1 X0.033Y0.05S0
G1 X1.667S0
G1 X0.69S700
G1 X1.007S0
G1 X0.691S700
G1 X1.667S0
G1 X-0.033Y0.05S0
G1 X-1.667S0
G1 X-0.69S700
G1 X-0.943S0
G1 X-0.69S700
G1 X-1.666S0
G1 X0.032Y0.05S0
G1 X1.667S0
G1 X0.689S700
G1 X0.879S0
G1 X0.689S700
G1 X1.667S0
G1 X-0.034Y0.05S0
G1 X-1.666S0
G1 X-0.688S700
G1 X-0.815S0
G1 X-0.688S700
G1 X-1.667S0
G1 X0.033Y0.05S0
G1 X1.667S0
G1 X0.688S700
G1 X0.749S0
G1 X0.688S700
G1 X1.666S0
G1 X-0.033Y0.05S0
G1 X-1.667S0
G1 X-0.686S700
G1 X-0.685S0
G1 X-0.688S700
G1 X-1.666S0
G1 X0.032Y0.05S0
G1 X1.667S0
G1 X0.687S700
G1 X0.621S0
G1 X0.685S700
G1 X1.667S0
G1 X-0.033Y0.05S0
G1 X-1.667S0
G1 X-0.684S700
G1 X-0.557S0
G1 X-0.686S700
G1 X-1.667S0
G1 X0.033Y0.05S0
G1 X1.667S0
G1 X0.685S700
G1 X0.493S0
G1 X0.683S700
G1 X1.666S0
G1 X-0.033Y0.05S0
G1 X-1.667S0
G1 X-0.681S700
G1 X-0.429S0
G1 X-0.685S700
G1 X-1.666S0
G1 X0.032Y0.05S0
G1 X1.667S0
G1 X0.685S700
G1 X0.364S0
G1 X0.68S700
G1 X1.667S0
G1 X-0.033Y0.05S0
G1 X-1.667S0
G1 X-0.679S700
G1 X-0.3S0
G1 X-0.684S700
G1 X-1.667S0
G1 X0.033Y0.05S0
G1 X1.667S0
G1 X0.683S700
G1 X0.236S0
G1 X0.678S700
G1 X1.667S0
G1 X-0.034Y0.05S0
G1 X-1.666S0
G1 X-0.677S700
G1 X-0.172S0
G1 X-0.683S700
G1 X-1.666S0
G1 X0.032Y0.05S0
G1 X1.667S0
G1 X0.682S700
G1 X0.108S0
G1 X0.675S700
G1 X1.667S0
G1 X-0.033Y0.05S0
G1 X-1.667S0
G1 X-0.674S700
G1 X-0.044S0
G1 X-0.681S700
G1 X-1.667S0
G1 X0.033Y0.05S0
G1 X1.667S0
G1 X1.333S700
G1 X1.667S0
G1 X-0.034Y0.05S0
G1 X-1.666S0
G1 X-1.268S700
G1 X-1.666S0
G1 X0.032Y0.05S0
G1 X1.667S0
G1 X1.202S700
G1 X1.666S0
G1 X-0.033Y0.05S0
G1 X-1.667S0
G1 X-1.135S700
G1 X-1.667S0
G1 X0.033Y0.05S0
G1 X1.666S0
G1 X1.07S700
G1 X1.667S0
G1 X-0.033Y0.05S0
G1 X-1.667S0
G1 X-1.004S700
G1 X-1.666S0
G1 X0.032Y0.05S0
G1 X1.667S0
G1 X0.938S700
G1 X1.666S0
G1 X-0.033Y0.05S0
G1 X-1.666S0
G1 X-0.872S700
G1 X-1.667S0
G1 X0.033Y0.05S0
G1 X1.666S0
G1 X0.806S700
G1 X1.667S0
G1 X-0.033Y0.05S0
G1 X-1.667S0
G1 X-0.74S700
G1 X-1.666S0
G1 X0.016Y0.05S0
G1 X1.667S0
G1 X0.734S700
G1 X1.667S0
G1 X0.032Y0.05S0
G1 X-1.667S0
G1 X-0.798S700
G1 X-1.667S0
G1 X-0.032Y0.05S0
G1 X1.666S0
G1 X0.863S700
G1 X1.667S0
G1 X0.032Y0.05S0
G1 X-1.667S0
G1 X-0.927S700
G1 X-1.667S0
G1 X-0.032Y0.05S0
G1 X1.667S0
G1 X0.992S700
G1 X1.666S0
G1 X0.032Y0.05S0
G1 X-1.666S0
G1 X-1.057S700
G1 X-1.667S0
G1 X-0.032Y0.05S0
G1 X1.667S0
G1 X1.121S700
G1 X1.666S0
G1 X0.032Y0.05S0
G1 X-1.666S0
G1 X-1.186S700
G1 X-1.666S0
G1 X-0.033Y0.05S0
G1 X1.667S0
G1 X1.25S700
G1 X1.666S0
G1 X0.032Y0.05S0
G1 X-1.666S0
G1 X-0.644S700
G1 X-0.017S0
G1 X-0.653S700
G1 X-1.667S0
G1 X-0.033Y0.05S0
G1 X1.667S0
G1 X0.655S700
G1 X0.079S0
G1 X0.645S700
G1 X1.666S0
G1 X0.032Y0.05S0
G1 X-1.666S0
G1 X-0.647S700
G1 X-0.14S0
G1 X-0.656S700
G1 X-1.667S0
G1 X-0.032Y0.05S0
G1 X1.666S0
G1 X0.657S700
G1 X0.203S0
G1 X0.648S700
G1 X1.666S0
G1 X0.032Y0.05S0
G1 X-1.666S0
G1 X-0.649S700
G1 X-0.265S0
G1 X-0.658S700
G1 X-1.667S0
G1 X-0.032Y0.05S0
G1 X1.667S0
G1 X0.659S700
G1 X0.326S0
G1 X0.651S700
G1 X1.666S0
G1 X0.032Y0.05S0
G1 X-1.666S0
G1 X-0.652S700
G1 X-0.388S0
G1 X-0.661S700
G1 X-1.666S0
G1 X-0.033Y0.05S0
G1 X1.667S0
G1 X0.662S700
G1 X0.449S0
G1 X0.654S700
G1 X1.666S0
G1 X0.032Y0.05S0
G1 X-1.666S0
G1 X-0.655S700
G1 X-0.512S0
G1 X-0.663S700
G1 X-1.666S0
G1 X-0.033Y0.05S0
G1 X1.667S0
G1 X0.664S700
G1 X0.573S0
G1 X0.657S700
G1 X1.666S0
G1 X0.032Y0.05S0
G1 X-1.666S0
G1 X-0.658S700
G1 X-0.635S0
G1 X-0.665S700
G1 X-1.667S0
G1 X-0.032Y0.05S0
G1 X1.666S0
G1 X0.667S700
G1 X0.697S0
G1 X0.659S700
G1 X1.666S0
G1 X0.032Y0.05S0
G1 X-1.666S0
G1 X-0.661S700
G1 X-0.758S0
G1 X-0.668S700
G1 X-1.667S0
G1 X-0.032Y0.05S0
G1 X1.666S0
G1 X0.669S700
G1 X0.821S0
G1 X0.662S700
G1 X1.666S0
G1 X0.033Y0.05S0
G1 X-1.667S0
G1 X-0.664S700
G1 X-0.882S0
G1 X-0.67S700
G1 X-1.667S0
G1 X-0.032Y0.05S0
G1 X1.667S0
G1 X0.671S700
G1 X0.944S0
G1 X0.665S700
G1 X1.667S0
G1 X0.032Y0.05S0
G1 X-1.667S0
G1 X-0.666S700
G1 X-1.006S0
G1 X-0.673S700
G1 X-1.666S0
G1 X-0.033Y0.05S0
G1 X1.667S0
G1 X0.674S700
G1 X1.067S0
G1 X0.668S700
G1 X1.667S0
G1 X0.032Y0.05S0
G1 X-1.667S0
G1 X-0.669S700
G1 X-1.13S0
G1 X-0.675S700
G1 X-1.666S0
M9
G1 S0
M5
; return to starting pos
G0 X1.571Y-2.856
M2
