; LightBurn 1.2.01
; GRBL device profile, current position
; Bounds: X-1.66 Y0 to X4.34 Y2.86
G00 G17 G40 G21 G54
G91
M4
; Cut @ 5000 mm/min, 0% power
M8
G0 X0Y0.001
; Layer Lim
G1 X1S0F5000
; Scan @ 4000 mm/min, 70% power
M8
G0 X-1.619Y0.005
; Layer C02
G1 X1.667F4000S0
G1 X0.576S700
G1 X1.666S0
G1 Y0.05S0
G1 X-1.666S0
G1 X-0.576S700
G1 X-1.667S0
G1 Y0.05S0
G1 X1.667S0
G1 X0.576S700
G1 X1.666S0
G1 Y0.05S0
G1 X-1.666S0
G1 X-0.576S700
G1 X-1.667S0
G1 Y0.05S0
G1 X1.667S0
G1 X0.576S700
G1 X1.666S0
G1 Y0.05S0
G1 X-1.666S0
G1 X-0.576S700
G1 X-1.667S0
G1 Y0.05S0
G1 X1.667S0
G1 X0.576S700
G1 X1.666S0
G1 Y0.05S0
G1 X-1.666S0
G1 X-0.576S700
G1 X-1.667S0
G1 Y0.05S0
G1 X1.667S0
G1 X0.576S700
G1 X1.666S0
G1 Y0.05S0
G1 X-1.666S0
G1 X-0.576S700
G1 X-1.667S0
G1 Y0.05S0
G1 X1.667S0
G1 X0.576S700
G1 X1.666S0
G1 Y0.05S0
G1 X-1.666S0
G1 X-0.576S700
G1 X-1.667S0
G1 Y0.05S0
G1 X1.667S0
G1 X0.576S700
G1 X1.666S0
G1 Y0.05S0
G1 X-1.666S0
G1 X-0.576S700
G1 X-1.667S0
G1 Y0.05S0
G1 X1.667S0
G1 X0.576S700
G1 X1.666S0
G1 Y0.05S0
G1 X-1.666S0
G1 X-0.576S700
G1 X-1.667S0
G1 Y0.05S0
G1 X1.667S0
G1 X0.576S700
G1 X1.666S0
G1 Y0.05S0
G1 X-1.666S0
G1 X-0.576S700
G1 X-1.667S0
G1 Y0.05S0
G1 X1.667S0
G1 X0.576S700
G1 X1.666S0
G1 Y0.05S0
G1 X-1.666S0
G1 X-0.576S700
G1 X-1.667S0
G1 Y0.05S0
G1 X1.667S0
G1 X0.576S700
G1 X1.666S0
G1 Y0.05S0
G1 X-1.666S0
G1 X-0.576S700
G1 X-1.667S0
G1 Y0.05S0
G1 X1.667S0
G1 X0.576S700
G1 X1.666S0
G1 Y0.05S0
G1 X-1.666S0
G1 X-0.576S700
G1 X-1.667S0
G1 Y0.05S0
G1 X1.666S0
G1 X0.58S700
G1 X1.667S0
G1 X0.031Y0.05S0
G1 X-1.666S0
G1 X-0.643S700
G1 X-1.667S0
G1 X-0.032Y0.05S0
G1 X1.667S0
G1 X0.706S700
G1 X1.667S0
G1 X0.032Y0.05S0
G1 X-1.667S0
G1 X-0.77S700
G1 X-1.666S0
G1 X-0.032Y0.05S0
G1 X1.667S0
G1 X0.833S700
G1 X1.666S0
G1 X0.032Y0.05S0
G1 X-1.667S0
G1 X-0.896S700
G1 X-1.667S0
G1 X-0.031Y0.05S0
G1 X1.666S0
G1 X0.96S700
G1 X1.667S0
G1 X0.031Y0.05S0
G1 X-1.666S0
G1 X-1.023S700
G1 X-1.667S0
G1 X-0.032Y0.05S0
G1 X1.667S0
G1 X1.086S700
G1 X1.667S0
G1 X0.032Y0.05S0
G1 X-1.667S0
G1 X-1.149S700
G1 X-1.667S0
G1 X-0.032Y0.05S0
G1 X1.667S0
G1 X1.213S700
G1 X1.666S0
G1 X0.032Y0.05S0
G1 X-1.667S0
G1 X-0.609S700
G1 X-0.031S0
G1 X-0.636S700
G1 X-1.666S0
G1 X-0.032Y0.05S0
G1 X1.667S0
G1 X0.637S700
G1 X0.09S0
G1 X0.612S700
G1 X1.667S0
G1 X0.031Y0.05S0
G1 X-1.666S0
G1 X-0.615S700
G1 X-0.149S0
G1 X-0.639S700
G1 X-1.667S0
G1 X-0.031Y0.05S0
G1 X1.666S0
G1 X0.642S700
G1 X0.207S0
G1 X0.617S700
G1 X1.667S0
G1 X0.032Y0.05S0
G1 X-1.667S0
G1 X-0.62S700
G1 X-0.266S0
G1 X-0.643S700
G1 X-1.667S0
G1 X-0.032Y0.05S0
G1 X1.667S0
G1 X0.645S700
G1 X0.325S0
G1 X0.623S700
G1 X1.666S0
G1 X0.032Y0.05S0
G1 X-1.667S0
G1 X-0.625S700
G1 X-0.384S0
G1 X-0.646S700
G1 X-1.667S0
G1 X-0.032Y0.05S0
G1 X1.667S0
G1 X0.649S700
G1 X0.442S0
G1 X0.628S700
G1 X1.667S0
G1 X0.031Y0.05S0
G1 X-1.666S0
G1 X-0.63S700
G1 X-0.502S0
G1 X-0.651S700
G1 X-1.666S0
G1 X-0.032Y0.05S0
G1 X1.667S0
G1 X0.652S700
G1 X0.561S0
G1 X0.632S700
G1 X1.667S0
G1 X0.032Y0.05S0
G1 X-1.667S0
G1 X-0.635S700
G1 X-0.62S0
G1 X-0.654S700
G1 X-1.667S0
G1 X-0.031Y0.05S0
G1 X1.666S0
G1 X0.657S700
G1 X0.678S0
G1 X0.638S700
G1 X1.666S0
G1 X0.032Y0.05S0
G1 X-1.667S0
G1 X-0.64S700
G1 X-0.737S0
G1 X-0.658S700
G1 X-1.667S0
G1 X-0.032Y0.05S0
G1 X1.667S0
G1 X0.66S700
G1 X0.796S0
G1 X0.643S700
G1 X1.667S0
G1 X0.031Y0.05S0
G1 X-1.666S0
G1 X-0.646S700
G1 X-0.855S0
G1 X-0.661S700
G1 X-1.667S0
G1 X-0.032Y0.05S0
G1 X1.667S0
G1 X0.664S700
G1 X0.914S0
G1 X0.647S700
G1 X1.667S0
G1 X0.032Y0.05S0
G1 X-1.667S0
G1 X-0.65S700
G1 X-0.973S0
G1 X-0.666S700
G1 X-1.666S0
G1 X-0.032Y0.05S0
G1 X1.667S0
G1 X0.667S700
G1 X1.032S0
G1 X0.653S700
G1 X1.666S0
G1 X0.032Y0.05S0
G1 X-1.667S0
G1 X-0.655S700
G1 X-1.091S0
G1 X-0.669S700
G1 X-1.667S0
G1 X-0.031Y0.05S0
G1 X1.666S0
G1 X0.672S700
G1 X1.149S0
G1 X0.658S700
G1 X1.667S0
G1 X0.031Y0.05S0
G1 X-1.666S0
G1 X-0.661S700
G1 X-1.208S0
G1 X-0.673S700
G1 X-1.667S0
G1 X-0.032Y0.05S0
G1 X1.667S0
G1 X0.675S700
G1 X1.267S0
G1 X0.663S700
G1 X1.667S0
G1 X0.032Y0.05S0
G1 X-1.667S0
G1 X-0.665S700
G1 X-1.327S0
G1 X-0.676S700
G1 X-1.667S0
M9
G1 S0
M5
; return to starting pos
G0 X1.663Y-2.856
M2
