; LightBurn 1.2.01
; GRBL device profile, current position
; Bounds: X-1.67 Y0.01 to X3 Y3.76
G00 G17 G40 G21 G54
G91
M4
; Cut @ 5000 mm/min, 0% power
M8
G0 X0Y0.843
; Layer Lim
G1 X1S0F5000
; Scan @ 4000 mm/min, 70% power
M8
G0 X-1.584Y-0.837
; Layer C02
G1 X1.667F4000S0
G1 X0.252S700
G1 X1.666S0
G1 Y0.05S0
G1 X-1.666S0
G1 X-0.552S700
G1 X-1.666S0
G1 X-0.082Y0.05S0
G1 X1.667S0
G1 X0.633S700
G1 X1.666S0
G1 Y0.05S0
G1 X-1.666S0
G1 X-0.711S700
G1 X-1.667S0
G1 X-0.039Y0.05S0
G1 X1.667S0
G1 X0.75S700
G1 X1.666S0
G1 Y0.05S0
G1 X-1.666S0
G1 X-0.789S700
G1 X-1.667S0
G1 X-0.039Y0.05S0
G1 X1.667S0
G1 X0.828S700
G1 X1.666S0
G1 Y0.05S0
G1 X-1.666S0
G1 X-0.844S700
G1 X-1.667S0
G1 X-0.015Y0.05S0
G1 X1.667S0
G1 X0.859S700
G1 X1.666S0
G1 Y0.05S0
G1 X-1.666S0
G1 X-0.874S700
G1 X-1.667S0
G1 X-0.015Y0.05S0
G1 X1.667S0
G1 X0.6S700
G1 X1.667S0
G1 X-0.058Y0.05S0
G1 X-1.667S0
G1 X-0.547S700
G1 X-1.667S0
G1 Y0.05S0
G1 X1.662S0
G1 X0.525S700
G1 X1.667S0
G1 X-0.02Y0.05S0
G1 X-1.666S0
G1 X-0.507S700
G1 X-1.667S0
G1 Y0.05S0
G1 X1.666S0
G1 X0.506S700
G1 X1.666S0
G1 Y0.05S0
G1 X-1.668S0
G1 X-0.505S700
G1 X-1.667S0
G1 Y0.05S0
G1 X1.666S0
G1 X0.504S700
G1 X1.666S0
G1 Y0.05S0
G1 X-1.668S0
G1 X-0.503S700
G1 X-1.667S0
G1 Y0.05S0
G1 X1.666S0
G1 X0.502S700
G1 X1.666S0
G1 Y0.05S0
G1 X-1.668S0
G1 X-0.502S700
G1 X-1.666S0
G1 Y0.05S0
G1 X1.663S0
G1 X0.503S700
G1 X1.666S0
G1 Y0.05S0
G1 X-1.668S0
G1 X-0.504S700
G1 X-1.666S0
G1 Y0.05S0
G1 X1.663S0
G1 X0.505S700
G1 X1.666S0
G1 Y0.05S0
G1 X-1.668S0
G1 X-0.506S700
G1 X-1.666S0
G1 Y0.05S0
G1 X1.664S0
G1 X0.503S700
G1 X1.667S0
G1 Y0.05S0
G1 X-1.672S0
G1 X-0.501S700
G1 X-1.667S0
G1 X-0.007Y0.05S0
G1 X1.666S0
G1 X0.505S700
G1 X1.666S0
G1 Y0.05S0
G1 X-1.671S0
G1 X-0.509S700
G1 X-1.667S0
G1 X-0.017Y0.05S0
G1 X1.667S0
G1 X0.516S700
G1 X1.666S0
G1 X-0.01Y0.05S0
G1 X-1.666S0
G1 X-0.532S700
G1 X-1.667S0
G1 X-0.037Y0.05S0
G1 X1.667S0
G1 X0.559S700
G1 X1.666S0
G1 X-0.021Y0.05S0
G1 X-1.667S0
G1 X-0.586S700
G1 X-1.667S0
G1 X-0.087Y0.05S0
G1 X1.667S0
G1 X0.649S700
G1 X1.667S0
G1 X-0.024Y0.05S0
G1 X-1.667S0
G1 X-0.803S700
G1 X-1.667S0
G1 Y0.05S0
G1 X1.667S0
G1 X0.763S700
G1 X1.666S0
G1 X-0.041Y0.05S0
G1 X-1.667S0
G1 X-0.721S700
G1 X-1.667S0
G1 Y0.05S0
G1 X1.667S0
G1 X0.666S700
G1 X1.666S0
G1 X-0.069Y0.05S0
G1 X-1.666S0
G1 X-0.597S700
G1 X-1.667S0
G1 Y0.05S0
G1 X1.667S0
G1 X0.611S700
G1 X1.667S0
G1 X0.069Y0.05S0
G1 X-1.667S0
G1 X-0.68S700
G1 X-1.667S0
G1 Y0.05S0
G1 X1.667S0
G1 X0.724S700
G1 X1.666S0
G1 X0.043Y0.05S0
G1 X-1.667S0
G1 X-0.766S700
G1 X-1.667S0
G1 Y0.05S0
G1 X1.667S0
G1 X0.802S700
G1 X1.666S0
G1 X0.027Y0.05S0
G1 X-1.667S0
G1 X-0.61S700
G1 X-1.667S0
G1 X0.049Y0.05S0
G1 X1.666S0
G1 X0.588S700
G1 X1.667S0
G1 X0.02Y0.05S0
G1 X-1.667S0
G1 X-0.559S700
G1 X-1.667S0
G1 X0.031Y0.05S0
G1 X1.667S0
G1 X0.542S700
G1 X1.666S0
G1 X0.014Y0.05S0
G1 X-1.666S0
G1 X-0.529S700
G1 X-1.666S0
G1 X0.024Y0.05S0
G1 X1.667S0
G1 X0.513S700
G1 X1.666S0
G1 Y0.05S0
G1 X-1.664S0
G1 X-0.503S700
G1 X-1.667S0
G1 X0.012Y0.05S0
G1 X1.667S0
G1 X0.494S700
G1 X1.667S0
G1 Y0.05S0
G1 X-1.664S0
G1 X-0.488S700
G1 X-1.667S0
G1 Y0.05S0
G1 X1.665S0
G1 X0.492S700
G1 X1.667S0
G1 Y0.05S0
G1 X-1.664S0
G1 X-0.496S700
G1 X-1.667S0
G1 Y0.05S0
G1 X1.665S0
G1 X0.5S700
G1 X1.667S0
G1 Y0.05S0
G1 X-1.664S0
G1 X-0.502S700
G1 X-1.667S0
G1 Y0.05S0
G1 X1.667S0
G1 X0.504S700
G1 X1.667S0
G1 Y0.05S0
G1 X-1.666S0
G1 X-0.504S700
G1 X-1.667S0
G1 Y0.05S0
G1 X1.668S0
G1 X0.505S700
G1 X1.666S0
G1 Y0.05S0
G1 X-1.665S0
G1 X-0.506S700
G1 X-1.666S0
G1 Y0.05S0
G1 X1.666S0
G1 X0.508S700
G1 X1.666S0
G1 Y0.05S0
G1 X-1.663S0
G1 X-0.511S700
G1 X-1.666S0
G1 Y0.05S0
G1 X1.666S0
G1 X0.514S700
G1 X1.667S0
G1 X0.016Y0.05S0
G1 X-1.667S0
G1 X-0.527S700
G1 X-1.666S0
G1 X0.009Y0.05S0
G1 X1.666S0
G1 X0.548S700
G1 X1.667S0
G1 X0.063Y0.05S0
G1 X-1.667S0
G1 X-0.602S700
G1 X-1.667S0
G1 X0.012Y0.05S0
G1 X1.667S0
G1 X0.873S700
G1 X1.666S0
G1 Y0.05S0
G1 X-1.666S0
G1 X-0.855S700
G1 X-1.667S0
G1 X0.019Y0.05S0
G1 X1.666S0
G1 X0.837S700
G1 X1.666S0
G1 Y0.05S0
G1 X-1.666S0
G1 X-0.814S700
G1 X-1.667S0
G1 X0.029Y0.05S0
G1 X1.667S0
G1 X0.785S700
G1 X1.666S0
G1 Y0.05S0
G1 X-1.666S0
G1 X-0.756S700
G1 X-1.667S0
G1 X0.068Y0.05S0
G1 X1.666S0
G1 X0.689S700
G1 X1.666S0
G1 Y0.05S0
G1 X-1.666S0
G1 X-0.602S700
G1 X-1.667S0
G1 X0.128Y0.05S0
G1 X1.666S0
G1 X0.475S700
G1 X1.666S0
G1 X-0.089Y0.05S0
G1 X-1.667S0
G1 X-0.149S700
G1 X-1.667S0
M9
G1 S0
M5
; return to starting pos
G0 X0.571Y-3.756
M2
