; LightBurn 1.2.01
; GRBL device profile, current position
; Bounds: X-1.67 Y0 to X3 Y3.75
G00 G17 G40 G21 G54
G91
M4
; Cut @ 5000 mm/min, 0% power
M8
G0 X0Y0.843
; Layer Lim
G1 X1S0F5000
; Scan @ 4000 mm/min, 70% power
M8
G0 X-2.667Y-0.843
; Layer C02
G1 X1.667F4000S0
G1 X0.133S700
G1 X1.667S0
G1 X0.38Y0.05S0
G1 X-1.667S0
G1 X-0.513S700
G1 X-1.667S0
G1 Y0.05S0
G1 X1.667S0
G1 X0.615S700
G1 X1.667S0
G1 X0.079Y0.05S0
G1 X-1.667S0
G1 X-0.694S700
G1 X-1.667S0
G1 Y0.05S0
G1 X1.667S0
G1 X0.746S700
G1 X1.666S0
G1 X0.047Y0.05S0
G1 X-1.666S0
G1 X-0.793S700
G1 X-1.667S0
G1 Y0.05S0
G1 X1.667S0
G1 X0.829S700
G1 X1.666S0
G1 X0.014Y0.05S0
G1 X-1.667S0
G1 X-0.842S700
G1 X-1.667S0
G1 Y0.05S0
G1 X1.667S0
G1 X0.855S700
G1 X1.667S0
G1 X0.013Y0.05S0
G1 X-1.667S0
G1 X-0.868S700
G1 X-1.667S0
G1 X0.28Y0.05S0
G1 X1.667S0
G1 X0.599S700
G1 X1.666S0
G1 X0.008Y0.05S0
G1 X-1.666S0
G1 X-0.544S700
G1 X-1.666S0
G1 X0.031Y0.05S0
G1 X1.666S0
G1 X0.521S700
G1 X1.666S0
G1 X0.008Y0.05S0
G1 X-1.666S0
G1 X-0.512S700
G1 X-1.666S0
G1 Y0.05S0
G1 X1.671S0
G1 X0.511S700
G1 X1.667S0
G1 Y0.05S0
G1 X-1.664S0
G1 X-0.511S700
G1 X-1.667S0
G1 Y0.05S0
G1 X1.668S0
G1 X0.513S700
G1 X1.667S0
G1 Y0.05S0
G1 X-1.664S0
G1 X-0.514S700
G1 X-1.667S0
G1 Y0.05S0
G1 X1.668S0
G1 X0.512S700
G1 X1.667S0
G1 Y0.05S0
G1 X-1.669S0
G1 X-0.509S700
G1 X-1.666S0
G1 Y0.05S0
G1 X1.668S0
G1 X0.505S700
G1 X1.666S0
G1 Y0.05S0
G1 X-1.668S0
G1 X-0.5S700
G1 X-1.667S0
G1 Y0.05S0
G1 X1.67S0
G1 X0.498S700
G1 X1.667S0
G1 Y0.05S0
G1 X-1.664S0
G1 X-0.499S700
G1 X-1.667S0
G1 Y0.05S0
G1 X1.67S0
G1 X0.498S700
G1 X1.666S0
G1 Y0.05S0
G1 X-1.664S0
G1 X-0.498S700
G1 X-1.667S0
G1 Y0.05S0
G1 X1.67S0
G1 X0.504S700
G1 X1.666S0
G1 X0.016Y0.05S0
G1 X-1.667S0
G1 X-0.517S700
G1 X-1.666S0
G1 X0.01Y0.05S0
G1 X1.667S0
G1 X0.523S700
G1 X1.666S0
G1 X0.031Y0.05S0
G1 X-1.666S0
G1 X-0.54S700
G1 X-1.667S0
G1 X0.015Y0.05S0
G1 X1.666S0
G1 X0.557S700
G1 X1.667S0
G1 X0.049Y0.05S0
G1 X-1.667S0
G1 X-0.586S700
G1 X-1.667S0
G1 X0.027Y0.05S0
G1 X1.667S0
G1 X0.616S700
G1 X1.667S0
G1 X0.208Y0.05S0
G1 X-1.666S0
G1 X-0.798S700
G1 X-1.666S0
G1 X0.034Y0.05S0
G1 X1.667S0
G1 X0.763S700
G1 X1.666S0
G1 Y0.05S0
G1 X-1.666S0
G1 X-0.72S700
G1 X-1.666S0
G1 X0.043Y0.05S0
G1 X1.667S0
G1 X0.676S700
G1 X1.666S0
G1 Y0.05S0
G1 X-1.666S0
G1 X-0.606S700
G1 X-1.667S0
G1 X0.006Y0.05S0
G1 X1.666S0
G1 X0.601S700
G1 X1.666S0
G1 Y0.05S0
G1 X-1.666S0
G1 X-0.662S700
G1 X-1.667S0
G1 X-0.061Y0.05S0
G1 X1.667S0
G1 X0.723S700
G1 X1.666S0
G1 Y0.05S0
G1 X-1.666S0
G1 X-0.763S700
G1 X-1.667S0
G1 X-0.031Y0.05S0
G1 X1.667S0
G1 X0.794S700
G1 X1.666S0
G1 X-0.181Y0.05S0
G1 X-1.667S0
G1 X-0.642S700
G1 X-1.667S0
G1 X-0.031Y0.05S0
G1 X1.667S0
G1 X0.597S700
G1 X1.667S0
G1 X-0.048Y0.05S0
G1 X-1.667S0
G1 X-0.564S700
G1 X-1.667S0
G1 X-0.013Y0.05S0
G1 X1.667S0
G1 X0.537S700
G1 X1.666S0
G1 X-0.026Y0.05S0
G1 X-1.667S0
G1 X-0.523S700
G1 X-1.667S0
G1 X-0.01Y0.05S0
G1 X1.666S0
G1 X0.514S700
G1 X1.667S0
G1 X-0.018Y0.05S0
G1 X-1.666S0
G1 X-0.5S700
G1 X-1.667S0
G1 Y0.05S0
G1 X1.664S0
G1 X0.499S700
G1 X1.667S0
G1 Y0.05S0
G1 X-1.671S0
G1 X-0.498S700
G1 X-1.667S0
G1 Y0.05S0
G1 X1.664S0
G1 X0.498S700
G1 X1.667S0
G1 Y0.05S0
G1 X-1.669S0
G1 X-0.499S700
G1 X-1.667S0
G1 Y0.05S0
G1 X1.664S0
G1 X0.501S700
G1 X1.666S0
G1 Y0.05S0
G1 X-1.668S0
G1 X-0.502S700
G1 X-1.667S0
G1 Y0.05S0
G1 X1.663S0
G1 X0.504S700
G1 X1.667S0
G1 Y0.05S0
G1 X-1.668S0
G1 X-0.507S700
G1 X-1.667S0
G1 Y0.05S0
G1 X1.663S0
G1 X0.511S700
G1 X1.667S0
G1 Y0.05S0
G1 X-1.667S0
G1 X-0.515S700
G1 X-1.667S0
G1 Y0.05S0
G1 X1.663S0
G1 X0.518S700
G1 X1.667S0
G1 Y0.05S0
G1 X-1.668S0
G1 X-0.521S700
G1 X-1.667S0
G1 Y0.05S0
G1 X1.662S0
G1 X0.523S700
G1 X1.667S0
G1 Y0.05S0
G1 X-1.669S0
G1 X-0.525S700
G1 X-1.666S0
G1 X-0.021Y0.05S0
G1 X1.667S0
G1 X0.542S700
G1 X1.667S0
G1 Y0.05S0
G1 X-1.67S0
G1 X-0.603S700
G1 X-1.666S0
G1 X-0.291Y0.05S0
G1 X1.667S0
G1 X0.882S700
G1 X1.667S0
G1 X-0.013Y0.05S0
G1 X-1.666S0
G1 X-0.87S700
G1 X-1.667S0
G1 Y0.05S0
G1 X1.667S0
G1 X0.85S700
G1 X1.667S0
G1 X-0.025Y0.05S0
G1 X-1.666S0
G1 X-0.826S700
G1 X-1.667S0
G1 Y0.05S0
G1 X1.667S0
G1 X0.794S700
G1 X1.666S0
G1 X-0.038Y0.05S0
G1 X-1.667S0
G1 X-0.755S700
G1 X-1.667S0
G1 Y0.05S0
G1 X1.667S0
G1 X0.702S700
G1 X1.667S0
G1 X-0.066Y0.05S0
G1 X-1.666S0
G1 X-0.637S700
G1 X-1.667S0
G1 Y0.05S0
G1 X1.667S0
G1 X0.538S700
G1 X1.666S0
G1 X-0.468Y0.05S0
G1 X-1.666S0
G1 X-0.07S700
G1 X-1.667S0
M9
G1 S0
M5
; return to starting pos
G0 X1.667Y-3.75
M2
