; LightBurn 1.2.01
; GRBL device profile, current position
; Bounds: X-1.47 Y0 to X3.93 Y1.78
G00 G17 G40 G21 G54
G91
M4
; Cut @ 5000 mm/min, 0% power
M8
G0 X0Y0
; Layer Lim
G1 X1S0F5000
; Scan @ 4000 mm/min, 70% power
M8
G0 X-2.474Y1.032
; Layer C02
G1 X1.667F4000S0
G1 X0.023S700
G1 X1.352S0
G1 X0.206S700
G1 X1.666S0
G1 X0.194Y0.05S0
G1 X-1.666S0
G1 X-0.6S700
G1 X-1.097S0
G1 X-0.078S700
G1 X-1.667S0
G1 Y0.05S0
G1 X1.667S0
G1 X0.133S700
G1 X0.92S0
G1 X0.84S700
G1 X1.666S0
G1 X0.063Y0.05S0
G1 X-1.667S0
G1 X-1.023S700
G1 X-0.72S0
G1 X-0.212S700
G1 X-1.667S0
G1 Y0.05S0
G1 X1.667S0
G1 X0.315S700
G1 X0.484S0
G1 X1.219S700
G1 X1.667S0
G1 X0.054Y0.05S0
G1 X-1.666S0
G1 X-2.073S700
G1 X-1.667S0
G1 Y0.05S0
G1 X1.667S0
G1 X2.073S700
G1 X1.666S0
G1 Y0.05S0
G1 X-1.666S0
G1 X-2.073S700
G1 X-1.667S0
G1 Y0.05S0
G1 X1.667S0
G1 X2.073S700
G1 X1.666S0
G1 Y0.05S0
G1 X-1.666S0
G1 X-2.073S700
G1 X-1.667S0
G1 X0.017Y0.05S0
G1 X1.667S0
G1 X1.489S700
G1 X0.089S0
G1 X0.478S700
G1 X1.666S0
G1 Y0.05S0
G1 X-1.666S0
G1 X-0.304S700
G1 X-0.425S0
G1 X-1.272S700
G1 X-1.667S0
G1 X0.055Y0.05S0
G1 X1.667S0
G1 X1.056S700
G1 X0.686S0
G1 X0.204S700
G1 X1.666S0
G1 Y0.05S0
G1 X-1.666S0
G1 X-0.128S700
G1 X-0.908S0
G1 X-0.829S700
G1 X-1.666S0
G1 X0.094Y0.05S0
G1 X1.667S0
G1 X0.589S700
G1 X1.11S0
G1 X0.071S700
G1 X1.666S0
G1 Y0.05S0
G1 X-1.666S0
G1 X-0.021S700
G1 X-1.458S0
G1 X-0.098S700
G1 X-1.667S0
M9
G1 S0
M5
; return to starting pos
G0 X0.978Y-1.782
M2
