; LightBurn 1.2.01
; GRBL device profile, current position
; Bounds: X-1.67 Y0 to X3.63 Y3.75
G00 G17 G40 G21 G54
G91
M4
; Cut @ 5000 mm/min, 0% power
M8
G0 X0Y0.842
; Layer Lim
G1 X1S0F5000
; Scan @ 4000 mm/min, 70% power
M8
G0 X-1.729Y-0.837
; Layer C02
G1 X1.666F4000S0
G1 X0.154S700
G1 X1.667S0
G1 X0.311Y0.05S0
G1 X-1.667S0
G1 X-0.737S700
G1 X-1.666S0
G1 X-0.136Y0.05S0
G1 X1.667S0
G1 X0.982S700
G1 X1.667S0
G1 X0.076Y0.05S0
G1 X-1.666S0
G1 X-1.132S700
G1 X-1.667S0
G1 X-0.072Y0.05S0
G1 X1.666S0
G1 X1.259S700
G1 X1.666S0
G1 X0.05Y0.05S0
G1 X-1.667S0
G1 X-1.364S700
G1 X-1.667S0
G1 X-0.037Y0.05S0
G1 X1.667S0
G1 X1.437S700
G1 X1.666S0
G1 X0.032Y0.05S0
G1 X-1.667S0
G1 X-1.504S700
G1 X-1.667S0
G1 X-0.037Y0.05S0
G1 X1.667S0
G1 X1.568S700
G1 X1.667S0
G1 X0.018Y0.05S0
G1 X-1.667S0
G1 X-0.623S700
G1 X-0.315S0
G1 X-0.681S700
G1 X-1.667S0
G1 X-0.015Y0.05S0
G1 X1.667S0
G1 X0.618S700
G1 X0.459S0
G1 X0.575S700
G1 X1.667S0
G1 X0.011Y0.05S0
G1 X-1.666S0
G1 X-0.553S700
G1 X-0.537S0
G1 X-0.589S700
G1 X-1.666S0
G1 X-0.015Y0.05S0
G1 X1.666S0
G1 X0.566S700
G1 X0.593S0
G1 X0.541S700
G1 X1.667S0
G1 X0.006Y0.05S0
G1 X-1.666S0
G1 X-0.54S700
G1 X-0.626S0
G1 X-0.556S700
G1 X-1.666S0
G1 X-0.015Y0.05S0
G1 X1.667S0
G1 X0.552S700
G1 X0.628S0
G1 X0.554S700
G1 X1.667S0
G1 Y0.05S0
G1 X-1.671S0
G1 X-0.57S700
G1 X-0.621S0
G1 X-0.155S700
G1 X-1.667S0
G1 X0.745Y0.05S0
G1 X1.666S0
G1 X0.598S700
G1 X1.667S0
G1 X-0.018Y0.05S0
G1 X-1.667S0
G1 X-0.624S700
G1 X-1.666S0
G1 X-0.064Y0.05S0
G1 X1.667S0
G1 X0.666S700
G1 X1.666S0
G1 X-0.021Y0.05S0
G1 X-1.666S0
G1 X-0.732S700
G1 X-1.666S0
G1 X-0.075Y0.05S0
G1 X1.667S0
G1 X0.785S700
G1 X1.666S0
G1 X-0.039Y0.05S0
G1 X-1.667S0
G1 X-0.821S700
G1 X-1.666S0
G1 X-0.077Y0.05S0
G1 X1.667S0
G1 X0.855S700
G1 X1.667S0
G1 X-0.043Y0.05S0
G1 X-1.666S0
G1 X-0.889S700
G1 X-1.667S0
G1 X-0.076Y0.05S0
G1 X1.666S0
G1 X0.988S700
G1 X1.667S0
G1 X0.064Y0.05S0
G1 X-1.666S0
G1 X-1.129S700
G1 X-1.667S0
G1 X-0.076Y0.05S0
G1 X1.667S0
G1 X1.259S700
G1 X1.667S0
G1 X0.039Y0.05S0
G1 X-1.667S0
G1 X-1.357S700
G1 X-1.667S0
G1 X-0.056Y0.05S0
G1 X1.667S0
G1 X1.452S700
G1 X1.667S0
G1 X0.029Y0.05S0
G1 X-1.667S0
G1 X-0.519S700
G1 X-0.102S0
G1 X-0.916S700
G1 X-1.666S0
G1 X-0.056Y0.05S0
G1 X1.666S0
G1 X0.899S700
G1 X0.219S0
G1 X0.497S700
G1 X1.667S0
G1 X0.022Y0.05S0
G1 X-1.667S0
G1 X-0.482S700
G1 X-0.33S0
G1 X-0.88S700
G1 X-1.667S0
G1 X-0.056Y0.05S0
G1 X1.667S0
G1 X0.863S700
G1 X0.428S0
G1 X0.474S700
G1 X1.667S0
G1 X0.008Y0.05S0
G1 X-1.667S0
G1 X-0.465S700
G1 X-0.519S0
G1 X-0.838S700
G1 X-1.666S0
G1 X-0.029Y0.05S0
G1 X1.666S0
G1 X0.794S700
G1 X0.595S0
G1 X0.47S700
G1 X1.667S0
G1 X0.008Y0.05S0
G1 X-1.667S0
G1 X-0.486S700
G1 X-0.66S0
G1 X-0.75S700
G1 X-1.666S0
G1 X-0.02Y0.05S0
G1 X1.667S0
G1 X0.697S700
G1 X0.716S0
G1 X0.501S700
G1 X1.666S0
G1 Y0.05S0
G1 X-1.671S0
G1 X-0.533S700
G1 X-0.743S0
G1 X-0.65S700
G1 X-1.667S0
G1 X-0.015Y0.05S0
G1 X1.667S0
G1 X0.607S700
G1 X0.747S0
G1 X0.582S700
G1 X1.667S0
G1 X-0.007Y0.05S0
G1 X-1.667S0
G1 X-0.635S700
G1 X-0.739S0
G1 X-0.563S700
G1 X-1.666S0
G1 X-0.007Y0.05S0
G1 X1.666S0
G1 X0.539S700
G1 X0.709S0
G1 X0.678S700
G1 X1.666S0
G1 X-0.018Y0.05S0
G1 X-1.667S0
G1 X-0.72S700
G1 X-0.67S0
G1 X-0.519S700
G1 X-1.666S0
G1 Y0.05S0
G1 X1.669S0
G1 X0.503S700
G1 X0.622S0
G1 X0.763S700
G1 X1.667S0
G1 X-0.031Y0.05S0
G1 X-1.667S0
G1 X-0.793S700
G1 X-0.562S0
G1 X-0.5S700
G1 X-1.667S0
G1 X0.011Y0.05S0
G1 X1.666S0
G1 X0.489S700
G1 X0.494S0
G1 X0.828S700
G1 X1.666S0
G1 X-0.034Y0.05S0
G1 X-1.666S0
G1 X-0.867S700
G1 X-0.403S0
G1 X-0.495S700
G1 X-1.666S0
G1 X0.014Y0.05S0
G1 X1.666S0
G1 X0.5S700
G1 X0.311S0
G1 X0.885S700
G1 X1.667S0
G1 X-0.057Y0.05S0
G1 X-1.666S0
G1 X-0.901S700
G1 X-0.205S0
G1 X-0.511S700
G1 X-1.667S0
G1 X0.023Y0.05S0
G1 X1.666S0
G1 X0.541S700
G1 X0.08S0
G1 X0.91S700
G1 X1.666S0
G1 X-0.07Y0.05S0
G1 X-1.667S0
G1 X-1.428S700
G1 X-1.667S0
G1 X0.036Y0.05S0
G1 X1.666S0
G1 X1.323S700
G1 X1.667S0
G1 X-0.071Y0.05S0
G1 X-1.667S0
G1 X-1.208S700
G1 X-1.667S0
G1 X0.052Y0.05S0
G1 X1.667S0
G1 X1.086S700
G1 X1.667S0
G1 X-0.071Y0.05S0
G1 X-1.667S0
G1 X-0.95S700
G1 X-1.667S0
G1 X0.032Y0.05S0
G1 X1.666S0
G1 X0.845S700
G1 X1.666S0
G1 X-0.075Y0.05S0
G1 X-1.667S0
G1 X-0.809S700
G1 X-1.667S0
G1 X-0.036Y0.05S0
G1 X1.667S0
G1 X0.77S700
G1 X1.667S0
G1 X-0.076Y0.05S0
G1 X-1.666S0
G1 X-0.719S700
G1 X-1.666S0
G1 X-0.024Y0.05S0
G1 X1.666S0
G1 X0.667S700
G1 X1.667S0
G1 X-0.068Y0.05S0
G1 X-1.667S0
G1 X-0.622S700
G1 X-1.667S0
G1 X-0.017Y0.05S0
G1 X1.667S0
G1 X0.586S700
G1 X1.666S0
G1 X0.676Y0.05S0
G1 X-1.667S0
G1 X-0.173S700
G1 X-0.534S0
G1 X-0.558S700
G1 X-1.666S0
G1 Y0.05S0
G1 X1.663S0
G1 X0.546S700
G1 X0.542S0
G1 X0.543S700
G1 X1.667S0
G1 X-0.015Y0.05S0
G1 X-1.667S0
G1 X-0.536S700
G1 X-0.538S0
G1 X-0.545S700
G1 X-1.667S0
G1 Y0.05S0
G1 X1.666S0
G1 X0.557S700
G1 X0.494S0
G1 X0.554S700
G1 X1.666S0
G1 X-0.015Y0.05S0
G1 X-1.667S0
G1 X-0.571S700
G1 X-0.416S0
G1 X-0.586S700
G1 X-1.667S0
G1 X0.016Y0.05S0
G1 X1.666S0
G1 X0.629S700
G1 X0.279S0
G1 X0.635S700
G1 X1.666S0
G1 X-0.022Y0.05S0
G1 X-1.667S0
G1 X-1.504S700
G1 X-1.666S0
G1 X0.018Y0.05S0
G1 X1.667S0
G1 X1.448S700
G1 X1.666S0
G1 X-0.037Y0.05S0
G1 X-1.667S0
G1 X-1.37S700
G1 X-1.666S0
G1 X0.041Y0.05S0
G1 X1.666S0
G1 X1.292S700
G1 X1.667S0
G1 X-0.05Y0.05S0
G1 X-1.667S0
G1 X-1.201S700
G1 X-1.666S0
G1 X0.071Y0.05S0
G1 X1.667S0
G1 X1.055S700
G1 X1.666S0
G1 X-0.074Y0.05S0
G1 X-1.667S0
G1 X-0.898S700
G1 X-1.666S0
G1 X0.124Y0.05S0
G1 X1.666S0
G1 X0.631S700
G1 X1.666S0
G1 X-0.288Y0.05S0
G1 X-1.667S0
G1 X-0.093S700
G1 X-1.666S0
M9
G1 S0
M5
; return to starting pos
G0 X0.78Y-3.755
M2
