; LightBurn 1.2.01
; GRBL device profile, current position
; Bounds: X-1.66 Y0 to X2.91 Y2.86
G00 G17 G40 G21 G54
G91
M4
; Cut @ 5000 mm/min, 0% power
M8
G0 X0Y0
; Layer Lim
G1 X1S0F5000
; Scan @ 4000 mm/min, 70% power
M8
G0 X-2.266Y1.707
; Layer C02
G1 X1.666F4000S0
G1 X0.448S700
G1 X1.667S0
G1 X0.085Y0.05S0
G1 X-1.666S0
G1 X-0.635S700
G1 X-1.666S0
G1 X-0.069Y0.05S0
G1 X1.666S0
G1 X0.782S700
G1 X1.667S0
G1 X0.055Y0.05S0
G1 X-1.667S0
G1 X-0.893S700
G1 X-1.667S0
G1 X-0.041Y0.05S0
G1 X1.667S0
G1 X0.973S700
G1 X1.666S0
G1 X0.039Y0.05S0
G1 X-1.667S0
G1 X-1.048S700
G1 X-1.667S0
G1 X-0.026Y0.05S0
G1 X1.666S0
G1 X0.465S700
G1 X0.191S0
G1 X0.453S700
G1 X1.666S0
G1 X0.017Y0.05S0
G1 X-1.667S0
G1 X-0.381S700
G1 X-0.375S0
G1 X-0.394S700
G1 X-1.666S0
G1 X-0.015Y0.05S0
G1 X1.666S0
G1 X0.36S700
G1 X0.467S0
G1 X0.355S700
G1 X1.666S0
G1 X0.017Y0.05S0
G1 X-1.667S0
G1 X-0.339S700
G1 X-0.529S0
G1 X-0.345S700
G1 X-1.666S0
G1 X-0.007Y0.05S0
G1 X1.667S0
G1 X0.331S700
G1 X0.568S0
G1 X0.332S700
G1 X1.667S0
G1 Y0.05S0
G1 X-1.668S0
G1 X-0.322S700
G1 X-0.586S0
G1 X-0.327S700
G1 X-1.667S0
G1 Y0.05S0
G1 X1.667S0
G1 X0.327S700
G1 X0.586S0
G1 X0.321S700
G1 X1.666S0
G1 Y0.05S0
G1 X-1.668S0
G1 X-0.324S700
G1 X-0.577S0
G1 X-0.322S700
G1 X-1.667S0
G1 X0.009Y0.05S0
G1 X1.666S0
G1 X0.335S700
G1 X0.535S0
G1 X0.344S700
G1 X1.667S0
G1 X-0.02Y0.05S0
G1 X-1.666S0
G1 X-0.348S700
G1 X-0.49S0
G1 X-0.348S700
G1 X-1.667S0
G1 X0.011Y0.05S0
G1 X1.667S0
G1 X0.388S700
G1 X0.39S0
G1 X0.376S700
G1 X1.666S0
G1 X-0.021Y0.05S0
G1 X-1.667S0
G1 X-0.434S700
G1 X-0.231S0
G1 X-0.439S700
G1 X-1.667S0
G1 X0.029Y0.05S0
G1 X1.666S0
G1 X1.055S700
G1 X1.667S0
G1 X-0.032Y0.05S0
G1 X-1.666S0
G1 X-0.995S700
G1 X-1.667S0
G1 X0.042Y0.05S0
G1 X1.667S0
G1 X0.902S700
G1 X1.667S0
G1 X-0.051Y0.05S0
G1 X-1.667S0
G1 X-0.794S700
G1 X-1.666S0
G1 X0.057Y0.05S0
G1 X1.667S0
G1 X0.685S700
G1 X1.667S0
G1 X-0.12Y0.05S0
G1 X-1.667S0
G1 X-0.456S700
G1 X-1.667S0
M9
G1 S0
M5
; return to starting pos
G0 X1.276Y-2.857
M2
