; LightBurn 1.2.01
; GRBL device profile, current position
; Bounds: X-1.67 Y0 to X3.71 Y2.95
G00 G17 G40 G21 G54
G91
M4
; Cut @ 5000 mm/min, 0% power
M8
G0 X0.01Y0.043
; Layer Lim
G1 X1S0F5000
; Scan @ 4000 mm/min, 70% power
M8
G0 X-1.425Y-0.04
; Layer C02
G1 X1.666F4000S0
G1 X0.094S700
G1 X1.666S0
G1 X0.289Y0.05S0
G1 X-1.667S0
G1 X-0.557S700
G1 X-0.517S0
G1 X-0.549S700
G1 X-1.667S0
G1 Y0.05S0
G1 X1.666S0
G1 X0.55S700
G1 X0.424S0
G1 X0.742S700
G1 X1.666S0
G1 X0.078Y0.05S0
G1 X-1.667S0
G1 X-0.894S700
G1 X-0.349S0
G1 X-0.55S700
G1 X-1.667S0
G1 Y0.05S0
G1 X1.666S0
G1 X0.551S700
G1 X0.286S0
G1 X1.005S700
G1 X1.666S0
G1 X0.045Y0.05S0
G1 X-1.666S0
G1 X-1.09S700
G1 X-0.246S0
G1 X-0.551S700
G1 X-1.667S0
G1 Y0.05S0
G1 X1.666S0
G1 X0.552S700
G1 X0.206S0
G1 X1.169S700
G1 X1.666S0
G1 X0.025Y0.05S0
G1 X-1.666S0
G1 X-1.234S700
G1 X-0.166S0
G1 X-0.552S700
G1 X-1.667S0
G1 Y0.05S0
G1 X1.666S0
G1 X0.553S700
G1 X0.221S0
G1 X1.204S700
G1 X1.666S0
G1 X0.024Y0.05S0
G1 X-1.667S0
G1 X-0.626S700
G1 X-0.151S0
G1 X-0.365S700
G1 X-0.306S0
G1 X-0.553S700
G1 X-1.667S0
G1 Y0.05S0
G1 X1.667S0
G1 X0.553S700
G1 X0.391S0
G1 X0.211S700
G1 X0.28S0
G1 X0.576S700
G1 X1.667S0
G1 X0.009Y0.05S0
G1 X-1.666S0
G1 X-0.559S700
G1 X-0.347S0
G1 X-0.085S700
G1 X-0.477S0
G1 X-0.554S700
G1 X-1.667S0
G1 Y0.05S0
G1 X1.667S0
G1 X0.554S700
G1 X0.924S0
G1 X0.554S700
G1 X1.666S0
G1 Y0.05S0
G1 X-1.664S0
G1 X-0.551S700
G1 X-0.929S0
G1 X-0.555S700
G1 X-1.667S0
G1 Y0.05S0
G1 X1.667S0
G1 X0.555S700
G1 X0.921S0
G1 X0.555S700
G1 X1.666S0
G1 Y0.05S0
G1 X-1.67S0
G1 X-0.566S700
G1 X-0.906S0
G1 X-0.556S700
G1 X-1.667S0
G1 Y0.05S0
G1 X1.667S0
G1 X0.556S700
G1 X0.869S0
G1 X0.598S700
G1 X1.667S0
G1 X-0.018Y0.05S0
G1 X-1.666S0
G1 X-0.624S700
G1 X-0.826S0
G1 X-0.557S700
G1 X-1.667S0
G1 Y0.05S0
G1 X1.667S0
G1 X0.557S700
G1 X0.777S0
G1 X0.655S700
G1 X1.667S0
G1 X-0.018Y0.05S0
G1 X-1.667S0
G1 X-0.687S700
G1 X-0.727S0
G1 X-0.558S700
G1 X-1.667S0
G1 Y0.05S0
G1 X1.667S0
G1 X0.558S700
G1 X0.676S0
G1 X0.708S700
G1 X1.666S0
G1 X-0.034Y0.05S0
G1 X-1.667S0
G1 X-0.724S700
G1 X-0.625S0
G1 X-0.559S700
G1 X-1.667S0
G1 Y0.05S0
G1 X1.668S0
G1 X0.558S700
G1 X0.575S0
G1 X0.739S700
G1 X1.667S0
G1 X-0.043Y0.05S0
G1 X-1.667S0
G1 X-0.745S700
G1 X-0.526S0
G1 X-0.558S700
G1 X-1.666S0
G1 Y0.05S0
G1 X1.667S0
G1 X0.556S700
G1 X0.478S0
G1 X0.749S700
G1 X1.667S0
G1 X-0.045Y0.05S0
G1 X-1.667S0
G1 X-0.754S700
G1 X-0.428S0
G1 X-0.555S700
G1 X-1.667S0
G1 Y0.05S0
G1 X1.667S0
G1 X0.555S700
G1 X0.379S0
G1 X0.758S700
G1 X1.667S0
G1 X-0.047Y0.05S0
G1 X-1.667S0
G1 X-0.741S700
G1 X-0.349S0
G1 X-0.554S700
G1 X-1.667S0
G1 Y0.05S0
G1 X1.668S0
G1 X0.553S700
G1 X0.32S0
G1 X0.722S700
G1 X1.667S0
G1 X-0.048Y0.05S0
G1 X-1.667S0
G1 X-0.689S700
G1 X-0.305S0
G1 X-0.552S700
G1 X-1.667S0
G1 Y0.05S0
G1 X1.667S0
G1 X0.552S700
G1 X0.291S0
G1 X0.655S700
G1 X1.667S0
G1 X-0.043Y0.05S0
G1 X-1.666S0
G1 X-0.618S700
G1 X-0.286S0
G1 X-0.551S700
G1 X-1.667S0
G1 Y0.05S0
G1 X1.668S0
G1 X0.55S700
G1 X0.285S0
G1 X0.599S700
G1 X1.666S0
G1 X-0.02Y0.05S0
G1 X-1.667S0
G1 X-0.574S700
G1 X-0.289S0
G1 X-0.55S700
G1 X-1.666S0
G1 Y0.05S0
G1 X1.667S0
G1 X0.549S700
G1 X0.303S0
G1 X0.562S700
G1 X1.667S0
G1 X0.011Y0.05S0
G1 X-1.667S0
G1 X-0.554S700
G1 X-0.322S0
G1 X-0.548S700
G1 X-1.667S0
G1 Y0.05S0
G1 X1.667S0
G1 X0.548S700
G1 X0.345S0
G1 X0.546S700
G1 X1.666S0
G1 X0.026Y0.05S0
G1 X-1.667S0
G1 X-0.549S700
G1 X-0.367S0
G1 X-0.547S700
G1 X-1.667S0
G1 Y0.05S0
G1 X1.668S0
G1 X0.546S700
G1 X0.389S0
G1 X0.553S700
G1 X1.667S0
G1 X0.027Y0.05S0
G1 X-1.667S0
G1 X-0.558S700
G1 X-0.411S0
G1 X-0.545S700
G1 X-1.667S0
G1 Y0.05S0
G1 X1.667S0
G1 X0.545S700
G1 X0.433S0
G1 X0.563S700
G1 X1.666S0
G1 X0.025Y0.05S0
G1 X-1.667S0
G1 X-0.568S700
G1 X-0.452S0
G1 X-0.544S700
G1 X-1.667S0
G1 Y0.05S0
G1 X1.668S0
G1 X0.543S700
G1 X0.472S0
G1 X0.571S700
G1 X1.667S0
G1 X0.02Y0.05S0
G1 X-1.667S0
G1 X-0.572S700
G1 X-0.491S0
G1 X-0.542S700
G1 X-1.667S0
G1 Y0.05S0
G1 X1.668S0
G1 X0.553S700
G1 X0.499S0
G1 X0.57S700
G1 X1.667S0
G1 X0.009Y0.05S0
G1 X-1.667S0
G1 X-0.559S700
G1 X-0.505S0
G1 X-0.566S700
G1 X-1.666S0
G1 X0.008Y0.05S0
G1 X1.667S0
G1 X0.571S700
G1 X0.496S0
G1 X0.563S700
G1 X1.667S0
G1 Y0.05S0
G1 X-1.667S0
G1 X-0.566S700
G1 X-0.478S0
G1 X-0.574S700
G1 X-1.667S0
G1 X0.013Y0.05S0
G1 X1.666S0
G1 X0.576S700
G1 X0.447S0
G1 X0.582S700
G1 X1.667S0
G1 X-0.008Y0.05S0
G1 X-1.667S0
G1 X-0.611S700
G1 X-0.365S0
G1 X-0.607S700
G1 X-1.667S0
G1 X0.025Y0.05S0
G1 X1.666S0
G1 X0.666S700
G1 X0.211S0
G1 X0.671S700
G1 X1.667S0
G1 X-0.017Y0.05S0
G1 X-1.667S0
G1 X-1.506S700
G1 X-1.667S0
G1 X0.024Y0.05S0
G1 X1.667S0
G1 X1.46S700
G1 X1.667S0
G1 X-0.028Y0.05S0
G1 X-1.667S0
G1 X-1.395S700
G1 X-1.667S0
G1 X0.04Y0.05S0
G1 X1.666S0
G1 X1.321S700
G1 X1.667S0
G1 X-0.046Y0.05S0
G1 X-1.667S0
G1 X-1.235S700
G1 X-1.667S0
G1 X0.09Y0.05S0
G1 X1.667S0
G1 X1.09S700
G1 X1.667S0
G1 X-0.078Y0.05S0
G1 X-1.667S0
G1 X-0.918S700
G1 X-1.667S0
G1 X0.12Y0.05S0
G1 X1.666S0
G1 X0.648S700
G1 X1.667S0
G1 X-0.345Y0.05S0
G1 X-1.666S0
G1 X-0.084S700
G1 X-1.667S0
M9
G1 S0
M5
; return to starting pos
G0 X0.89Y-2.953
M2
