; LightBurn 1.2.01
; GRBL device profile, current position
; Bounds: X-1.66 Y0 to X4.53 Y3.47
G00 G17 G40 G21 G54
G91
M4
; Cut @ 5000 mm/min, 0% power
M8
G0 X0Y0.001
; Layer Lim
G1 X1S0F5000
; Scan @ 4000 mm/min, 70% power
M8
G0 X-2.658Y0.022
; Layer C02
G1 X1.667F4000S0
G1 X0.612S700
G1 X1.613S0
G1 X0.628S700
G1 X1.667S0
G1 X-0.02Y0.05S0
G1 X-1.667S0
G1 X-0.627S700
G1 X-1.576S0
G1 X-0.611S700
G1 X-1.666S0
G1 X0.019Y0.05S0
G1 X1.667S0
G1 X0.609S700
G1 X1.538S0
G1 X0.627S700
G1 X1.667S0
G1 X-0.02Y0.05S0
G1 X-1.667S0
G1 X-0.626S700
G1 X-1.5S0
G1 X-0.609S700
G1 X-1.666S0
G1 X0.019Y0.05S0
G1 X1.667S0
G1 X0.607S700
G1 X1.463S0
G1 X0.625S700
G1 X1.667S0
G1 X-0.021Y0.05S0
G1 X-1.666S0
G1 X-0.624S700
G1 X-1.426S0
G1 X-0.606S700
G1 X-1.666S0
G1 X0.019Y0.05S0
G1 X1.667S0
G1 X0.604S700
G1 X1.389S0
G1 X0.623S700
G1 X1.666S0
G1 X-0.02Y0.05S0
G1 X-1.666S0
G1 X-0.623S700
G1 X-1.351S0
G1 X-0.603S700
G1 X-1.666S0
G1 X0.019Y0.05S0
G1 X1.667S0
G1 X0.601S700
G1 X1.314S0
G1 X0.622S700
G1 X1.666S0
G1 X-0.02Y0.05S0
G1 X-1.666S0
G1 X-0.621S700
G1 X-1.277S0
G1 X-0.6S700
G1 X-1.667S0
G1 X0.02Y0.05S0
G1 X1.667S0
G1 X0.599S700
G1 X1.239S0
G1 X0.62S700
G1 X1.666S0
G1 X-0.02Y0.05S0
G1 X-1.666S0
G1 X-0.619S700
G1 X-1.202S0
G1 X-0.598S700
G1 X-1.667S0
G1 X0.02Y0.05S0
G1 X1.667S0
G1 X0.596S700
G1 X1.164S0
G1 X0.619S700
G1 X1.666S0
G1 X-0.02Y0.05S0
G1 X-1.666S0
G1 X-2.34S700
G1 X-1.667S0
G1 X0.02Y0.05S0
G1 X1.666S0
G1 X2.301S700
G1 X1.666S0
G1 X-0.02Y0.05S0
G1 X-1.666S0
G1 X-2.261S700
G1 X-1.667S0
G1 X0.02Y0.05S0
G1 X1.666S0
G1 X2.222S700
G1 X1.666S0
G1 X-0.02Y0.05S0
G1 X-1.666S0
G1 X-2.182S700
G1 X-1.667S0
G1 X0.02Y0.05S0
G1 X1.666S0
G1 X2.143S700
G1 X1.666S0
G1 X-0.02Y0.05S0
G1 X-1.666S0
G1 X-2.103S700
G1 X-1.667S0
G1 X0.02Y0.05S0
G1 X1.666S0
G1 X2.064S700
G1 X1.666S0
G1 X-0.02Y0.05S0
G1 X-1.666S0
G1 X-2.024S700
G1 X-1.667S0
G1 X0.02Y0.05S0
G1 X1.666S0
G1 X1.985S700
G1 X1.666S0
G1 X-0.02Y0.05S0
G1 X-1.667S0
G1 X-0.609S700
G1 X-0.75S0
G1 X-0.585S700
G1 X-1.667S0
G1 X0.02Y0.05S0
G1 X1.666S0
G1 X0.584S700
G1 X0.714S0
G1 X0.607S700
G1 X1.667S0
G1 X-0.02Y0.05S0
G1 X-1.667S0
G1 X-0.606S700
G1 X-0.677S0
G1 X-0.582S700
G1 X-1.667S0
G1 X0.019Y0.05S0
G1 X1.667S0
G1 X0.581S700
G1 X0.641S0
G1 X0.604S700
G1 X1.667S0
G1 X-0.02Y0.05S0
G1 X-1.667S0
G1 X-0.603S700
G1 X-0.604S0
G1 X-0.579S700
G1 X-1.667S0
G1 X0.019Y0.05S0
G1 X1.667S0
G1 X0.579S700
G1 X0.567S0
G1 X0.601S700
G1 X1.667S0
G1 X-0.02Y0.05S0
G1 X-1.667S0
G1 X-0.6S700
G1 X-0.53S0
G1 X-0.577S700
G1 X-1.667S0
G1 X0.019Y0.05S0
G1 X1.667S0
G1 X0.576S700
G1 X0.493S0
G1 X0.599S700
G1 X1.667S0
G1 X-0.02Y0.05S0
G1 X-1.667S0
G1 X-0.597S700
G1 X-0.457S0
G1 X-0.574S700
G1 X-1.667S0
G1 X0.019Y0.05S0
G1 X1.667S0
G1 X0.573S700
G1 X0.42S0
G1 X0.596S700
G1 X1.667S0
G1 X-0.02Y0.05S0
G1 X-1.667S0
G1 X-0.594S700
G1 X-0.383S0
G1 X-0.573S700
G1 X-1.666S0
G1 X0.019Y0.05S0
G1 X1.667S0
G1 X0.571S700
G1 X0.346S0
G1 X0.593S700
G1 X1.667S0
G1 X-0.02Y0.05S0
G1 X-1.667S0
G1 X-0.591S700
G1 X-0.31S0
G1 X-0.57S700
G1 X-1.666S0
G1 X0.019Y0.05S0
G1 X1.667S0
G1 X0.568S700
G1 X0.273S0
G1 X0.59S700
G1 X1.667S0
G1 X-0.02Y0.05S0
G1 X-1.667S0
G1 X-0.588S700
G1 X-0.237S0
G1 X-0.567S700
G1 X-1.666S0
G1 X0.019Y0.05S0
G1 X1.667S0
G1 X0.566S700
G1 X0.199S0
G1 X0.587S700
G1 X1.667S0
G1 X-0.02Y0.05S0
G1 X-1.667S0
G1 X-0.586S700
G1 X-0.162S0
G1 X-0.565S700
G1 X-1.666S0
G1 X0.019Y0.05S0
G1 X1.667S0
G1 X0.563S700
G1 X0.126S0
G1 X0.584S700
G1 X1.667S0
G1 X-0.02Y0.05S0
G1 X-1.667S0
G1 X-0.583S700
G1 X-0.089S0
G1 X-0.562S700
G1 X-1.666S0
G1 X0.019Y0.05S0
G1 X1.667S0
G1 X0.56S700
G1 X0.053S0
G1 X0.581S700
G1 X1.667S0
G1 X-0.02Y0.05S0
G1 X-1.667S0
G1 X-0.58S700
G1 X-0.015S0
G1 X-0.56S700
G1 X-1.666S0
G1 X0.019Y0.05S0
G1 X1.667S0
G1 X1.115S700
G1 X1.667S0
G1 X-0.02Y0.05S0
G1 X-1.667S0
G1 X-1.076S700
G1 X-1.667S0
G1 X0.02Y0.05S0
G1 X1.667S0
G1 X1.036S700
G1 X1.667S0
G1 X-0.02Y0.05S0
G1 X-1.667S0
G1 X-0.997S700
G1 X-1.667S0
G1 X0.02Y0.05S0
G1 X1.667S0
G1 X0.957S700
G1 X1.667S0
G1 X-0.02Y0.05S0
G1 X-1.667S0
G1 X-0.918S700
G1 X-1.667S0
G1 X0.02Y0.05S0
G1 X1.666S0
G1 X0.879S700
G1 X1.667S0
G1 X-0.02Y0.05S0
G1 X-1.667S0
G1 X-0.839S700
G1 X-1.667S0
G1 X0.02Y0.05S0
G1 X1.666S0
G1 X0.8S700
G1 X1.667S0
G1 X-0.02Y0.05S0
G1 X-1.667S0
G1 X-0.76S700
G1 X-1.667S0
G1 X0.02Y0.05S0
G1 X1.666S0
G1 X0.721S700
G1 X1.667S0
G1 X-0.02Y0.05S0
G1 X-1.667S0
G1 X-0.681S700
G1 X-1.667S0
G1 X0.02Y0.05S0
G1 X1.666S0
G1 X0.642S700
G1 X1.667S0
G1 X0.318Y0.25S0
G1 X-1.667S0
G1 X-0.472S700
G1 X-0.369S0
G1 X-0.47S700
G1 X-1.667S0
G1 Y0.05S0
G1 X1.667S0
G1 X0.47S700
G1 X0.369S0
G1 X0.472S700
G1 X1.667S0
G1 Y0.05S0
G1 X-1.667S0
G1 X-0.472S700
G1 X-0.369S0
G1 X-0.47S700
G1 X-1.667S0
G1 Y0.05S0
G1 X1.667S0
G1 X0.47S700
G1 X0.369S0
G1 X0.472S700
G1 X1.667S0
G1 Y0.05S0
G1 X-1.667S0
G1 X-0.472S700
G1 X-0.369S0
G1 X-0.47S700
G1 X-1.667S0
G1 Y0.05S0
G1 X1.667S0
G1 X0.47S700
G1 X0.369S0
G1 X0.472S700
G1 X1.667S0
G1 Y0.05S0
G1 X-1.667S0
G1 X-0.472S700
G1 X-0.369S0
G1 X-0.47S700
G1 X-1.667S0
G1 Y0.05S0
G1 X1.667S0
G1 X0.47S700
G1 X0.369S0
G1 X0.472S700
G1 X1.667S0
G1 Y0.05S0
G1 X-1.667S0
G1 X-0.472S700
G1 X-0.369S0
G1 X-0.47S700
G1 X-1.667S0
M9
G1 S0
M5
; return to starting pos
G0 X0.919Y-3.473
M2
