; LightBurn 1.2.01
; GRBL device profile, current position
; Bounds: X-1.67 Y0.05 to X4.45 Y3.5
G00 G17 G40 G21 G54
G91
M4
; Cut @ 5000 mm/min, 0% power
M8
G0 X0.004Y0.05
; Layer Lim
G1 X1S0F5000
; Scan @ 4000 mm/min, 70% power
M8
G0 X-1.68Y-0.003
; Layer C02
G1 X1.667F4000S0
G1 X0.795S700
G1 X1.667S0
G1 X0.164Y0.05S0
G1 X-1.667S0
G1 X-1.1S700
G1 X-1.666S0
G1 X-0.134Y0.05S0
G1 X1.667S0
G1 X1.349S700
G1 X1.666S0
G1 X0.087Y0.05S0
G1 X-1.667S0
G1 X-1.508S700
G1 X-1.667S0
G1 X-0.072Y0.05S0
G1 X1.666S0
G1 X1.658S700
G1 X1.667S0
G1 X0.065Y0.05S0
G1 X-1.666S0
G1 X-1.796S700
G1 X-1.667S0
G1 X-0.066Y0.05S0
G1 X1.667S0
G1 X1.917S700
G1 X1.667S0
G1 X0.055Y0.05S0
G1 X-1.666S0
G1 X-2.016S700
G1 X-1.667S0
G1 X-0.042Y0.05S0
G1 X1.667S0
G1 X2.101S700
G1 X1.666S0
G1 X0.04Y0.05S0
G1 X-1.666S0
G1 X-1.003S700
G1 X-0.062S0
G1 X-1.119S700
G1 X-1.667S0
G1 X-0.042Y0.05S0
G1 X1.667S0
G1 X0.875S700
G1 X0.534S0
G1 X0.857S700
G1 X1.667S0
G1 X0.032Y0.05S0
G1 X-1.666S0
G1 X-0.794S700
G1 X-0.75S0
G1 X-0.798S700
G1 X-1.666S0
G1 X-0.025Y0.05S0
G1 X1.667S0
G1 X0.749S700
G1 X0.899S0
G1 X0.746S700
G1 X1.667S0
G1 X0.028Y0.05S0
G1 X-1.667S0
G1 X-0.705S700
G1 X-1.025S0
G1 X-0.715S700
G1 X-1.666S0
G1 X-0.023Y0.05S0
G1 X1.667S0
G1 X0.68S700
G1 X1.121S0
G1 X0.694S700
G1 X1.667S0
G1 X0.018Y0.05S0
G1 X-1.667S0
G1 X-0.673S700
G1 X-1.207S0
G1 X-0.655S700
G1 X-1.667S0
G1 X-0.022Y0.05S0
G1 X1.666S0
G1 X0.649S700
G1 X1.275S0
G1 X0.653S700
G1 X1.666S0
G1 X0.019Y0.05S0
G1 X-1.667S0
G1 X-0.638S700
G1 X-1.338S0
G1 X-0.634S700
G1 X-1.666S0
G1 X-0.014Y0.05S0
G1 X1.667S0
G1 X0.618S700
G1 X1.385S0
G1 X0.637S700
G1 X1.667S0
G1 X0.009Y0.05S0
G1 X-1.667S0
G1 X-0.628S700
G1 X-1.432S0
G1 X-0.603S700
G1 X-1.666S0
G1 X-0.014Y0.05S0
G1 X1.667S0
G1 X0.605S700
G1 X1.461S0
G1 X0.62S700
G1 X1.666S0
G1 X0.01Y0.05S0
G1 X-1.667S0
G1 X-0.613S700
G1 X-1.487S0
G1 X-0.609S700
G1 X-1.667S0
G1 X-0.009Y0.05S0
G1 X1.667S0
G1 X0.607S700
G1 X1.509S0
G1 X0.612S700
G1 X1.666S0
G1 X0.005Y0.05S0
G1 X-1.667S0
G1 X-0.606S700
G1 X-1.529S0
G1 X-0.603S700
G1 X-1.667S0
G1 X-0.005Y0.05S0
G1 X1.666S0
G1 X0.598S700
G1 X1.55S0
G1 X0.601S700
G1 X1.667S0
G1 Y0.05S0
G1 X-1.662S0
G1 X-0.596S700
G1 X-1.565S0
G1 X-0.598S700
G1 X-1.667S0
G1 X-0.005Y0.05S0
G1 X1.666S0
G1 X0.6S700
G1 X1.572S0
G1 X0.597S700
G1 X1.667S0
G1 Y0.05S0
G1 X-1.662S0
G1 X-0.599S700
G1 X-1.579S0
G1 X-0.601S700
G1 X-1.667S0
G1 Y0.05S0
G1 X1.669S0
G1 X0.594S700
G1 X1.587S0
G1 X0.601S700
G1 X1.667S0
G1 Y0.05S0
G1 X-1.669S0
G1 X-0.596S700
G1 X-1.589S0
G1 X-0.593S700
G1 X-1.666S0
G1 Y0.05S0
G1 X1.669S0
G1 X0.593S700
G1 X1.583S0
G1 X0.595S700
G1 X1.667S0
G1 Y0.05S0
G1 X-1.67S0
G1 X-0.596S700
G1 X-1.576S0
G1 X-0.594S700
G1 X-1.667S0
G1 Y0.05S0
G1 X1.669S0
G1 X0.595S700
G1 X1.569S0
G1 X0.596S700
G1 X1.667S0
G1 Y0.05S0
G1 X-1.671S0
G1 X-0.596S700
G1 X-1.559S0
G1 X-0.597S700
G1 X-1.667S0
G1 X0.006Y0.05S0
G1 X1.667S0
G1 X0.601S700
G1 X1.542S0
G1 X0.6S700
G1 X1.666S0
G1 X-0.009Y0.05S0
G1 X-1.666S0
G1 X-0.6S700
G1 X-1.523S0
G1 X-0.605S700
G1 X-1.667S0
G1 X0.006Y0.05S0
G1 X1.667S0
G1 X0.609S700
G1 X1.504S0
G1 X0.596S700
G1 X1.667S0
G1 X-0.012Y0.05S0
G1 X-1.667S0
G1 X-0.593S700
G1 X-1.482S0
G1 X-0.617S700
G1 X-1.666S0
G1 X0.008Y0.05S0
G1 X1.667S0
G1 X0.626S700
G1 X1.45S0
G1 X0.595S700
G1 X1.667S0
G1 X-0.013Y0.05S0
G1 X-1.666S0
G1 X-0.607S700
G1 X-1.408S0
G1 X-0.628S700
G1 X-1.666S0
G1 X0.016Y0.05S0
G1 X1.667S0
G1 X0.629S700
G1 X1.366S0
G1 X0.618S700
G1 X1.667S0
G1 X-0.018Y0.05S0
G1 X-1.667S0
G1 X-0.624S700
G1 X-1.318S0
G1 X-0.637S700
G1 X-1.667S0
G1 X0.017Y0.05S0
G1 X1.666S0
G1 X0.657S700
G1 X1.249S0
G1 X0.636S700
G1 X1.666S0
G1 X-0.021Y0.05S0
G1 X-1.667S0
G1 X-0.658S700
G1 X-1.169S0
G1 X-0.673S700
G1 X-1.666S0
G1 X0.028Y0.05S0
G1 X1.667S0
G1 X0.694S700
G1 X1.076S0
G1 X0.68S700
G1 X1.666S0
G1 X-0.021Y0.05S0
G1 X-1.667S0
G1 X-0.71S700
G1 X-0.971S0
G1 X-0.719S700
G1 X-1.667S0
G1 X0.029Y0.05S0
G1 X1.666S0
G1 X0.765S700
G1 X0.821S0
G1 X0.764S700
G1 X1.667S0
G1 X-0.041Y0.05S0
G1 X-1.666S0
G1 X-0.8S700
G1 X-0.653S0
G1 X-0.828S700
G1 X-1.667S0
G1 X0.04Y0.05S0
G1 X1.667S0
G1 X0.935S700
G1 X0.366S0
G1 X0.898S700
G1 X1.666S0
G1 X-0.042Y0.05S0
G1 X-1.666S0
G1 X-2.114S700
G1 X-1.666S0
G1 X0.043Y0.05S0
G1 X1.667S0
G1 X2.027S700
G1 X1.667S0
G1 X-0.042Y0.05S0
G1 X-1.667S0
G1 X-1.942S700
G1 X-1.666S0
G1 X0.061Y0.05S0
G1 X1.666S0
G1 X1.822S700
G1 X1.666S0
G1 X-0.072Y0.05S0
G1 X-1.666S0
G1 X-1.684S700
G1 X-1.667S0
G1 X0.066Y0.05S0
G1 X1.667S0
G1 X1.546S700
G1 X1.666S0
G1 X-0.072Y0.05S0
G1 X-1.666S0
G1 X-1.386S700
G1 X-1.667S0
G1 X0.104Y0.05S0
G1 X1.667S0
G1 X1.165S700
G1 X1.666S0
G1 X-0.139Y0.05S0
G1 X-1.666S0
G1 X-0.892S700
G1 X-1.667S0
G1 X0.226Y0.05S0
G1 X1.666S0
G1 X0.366S700
G1 X1.666S0
G1 X0.489Y0.15S0
G1 X-1.667S0
G1 X-0.472S700
G1 X-0.369S0
G1 X-0.47S700
G1 X-1.667S0
G1 Y0.05S0
G1 X1.667S0
G1 X0.47S700
G1 X0.369S0
G1 X0.472S700
G1 X1.667S0
G1 Y0.05S0
G1 X-1.667S0
G1 X-0.472S700
G1 X-0.369S0
G1 X-0.47S700
G1 X-1.667S0
G1 Y0.05S0
G1 X1.667S0
G1 X0.47S700
G1 X0.369S0
G1 X0.472S700
G1 X1.667S0
G1 Y0.05S0
G1 X-1.667S0
G1 X-0.472S700
G1 X-0.369S0
G1 X-0.47S700
G1 X-1.667S0
G1 Y0.05S0
G1 X1.667S0
G1 X0.47S700
G1 X0.369S0
G1 X0.472S700
G1 X1.667S0
G1 Y0.05S0
G1 X-1.667S0
G1 X-0.472S700
G1 X-0.369S0
G1 X-0.47S700
G1 X-1.667S0
G1 Y0.05S0
G1 X1.667S0
G1 X0.47S700
G1 X0.369S0
G1 X0.472S700
G1 X1.667S0
G1 Y0.05S0
G1 X-1.667S0
G1 X-0.472S700
G1 X-0.369S0
G1 X-0.47S700
G1 X-1.667S0
M9
G1 S0
M5
; return to starting pos
G0 X0.964Y-3.497
M2
