; LightBurn 1.2.01
; GRBL device profile, current position
; Bounds: X-1.67 Y0.05 to X3.96 Y3.5
G00 G17 G40 G21 G54
G91
M4
; Cut @ 5000 mm/min, 0% power
M8
G0 X0.005Y0.049
; Layer Lim
G1 X1S0F5000
; Scan @ 4000 mm/min, 70% power
M8
G0 X-1.979Y-0.002
; Layer C02
G1 X1.667F4000S0
G1 X0.933S700
G1 X1.667S0
G1 X0.134Y0.05S0
G1 X-1.667S0
G1 X-1.193S700
G1 X-1.666S0
G1 X-0.105Y0.05S0
G1 X1.667S0
G1 X1.392S700
G1 X1.667S0
G1 X0.068Y0.05S0
G1 X-1.667S0
G1 X-1.526S700
G1 X-1.666S0
G1 X-0.066Y0.05S0
G1 X1.667S0
G1 X1.651S700
G1 X1.667S0
G1 X0.053Y0.05S0
G1 X-1.667S0
G1 X-1.764S700
G1 X-1.666S0
G1 X-0.038Y0.05S0
G1 X1.666S0
G1 X1.841S700
G1 X1.667S0
G1 X0.039Y0.05S0
G1 X-1.667S0
G1 X-1.917S700
G1 X-1.667S0
G1 X-0.038Y0.05S0
G1 X1.667S0
G1 X1.989S700
G1 X1.666S0
G1 X0.025Y0.05S0
G1 X-1.667S0
G1 X-0.898S700
G1 X-0.188S0
G1 X-0.964S700
G1 X-1.667S0
G1 X-0.014Y0.05S0
G1 X1.667S0
G1 X0.771S700
G1 X0.552S0
G1 X0.766S700
G1 X1.666S0
G1 X0.025Y0.05S0
G1 X-1.667S0
G1 X-0.7S700
G1 X-0.728S0
G1 X-0.699S700
G1 X-1.666S0
G1 X-0.014Y0.05S0
G1 X1.667S0
G1 X0.655S700
G1 X0.837S0
G1 X0.661S700
G1 X1.666S0
G1 X0.013Y0.05S0
G1 X-1.667S0
G1 X-0.621S700
G1 X-0.935S0
G1 X-0.623S700
G1 X-1.667S0
G1 X-0.014Y0.05S0
G1 X1.667S0
G1 X0.604S700
G1 X0.987S0
G1 X0.615S700
G1 X1.667S0
G1 X0.009Y0.05S0
G1 X-1.667S0
G1 X-0.612S700
G1 X-1.024S0
G1 X-0.593S700
G1 X-1.667S0
G1 X-0.008Y0.05S0
G1 X1.667S0
G1 X0.58S700
G1 X1.057S0
G1 X0.602S700
G1 X1.667S0
G1 Y0.05S0
G1 X-1.664S0
G1 X-0.593S700
G1 X-1.081S0
G1 X-0.572S700
G1 X-1.667S0
G1 Y0.05S0
G1 X1.664S0
G1 X0.566S700
G1 X1.102S0
G1 X0.583S700
G1 X1.666S0
G1 Y0.05S0
G1 X-1.665S0
G1 X-0.571S700
G1 X-1.117S0
G1 X-0.568S700
G1 X-1.667S0
G1 Y0.05S0
G1 X1.664S0
G1 X0.571S700
G1 X1.12S0
G1 X0.569S700
G1 X1.667S0
G1 Y0.05S0
G1 X-1.666S0
G1 X-0.569S700
G1 X-1.121S0
G1 X-0.575S700
G1 X-1.666S0
G1 Y0.05S0
G1 X1.663S0
G1 X0.577S700
G1 X1.122S0
G1 X0.57S700
G1 X1.667S0
G1 Y0.05S0
G1 X-1.666S0
G1 X-0.571S700
G1 X-1.122S0
G1 X-0.578S700
G1 X-1.667S0
G1 Y0.05S0
G1 X1.666S0
G1 X0.578S700
G1 X1.123S0
G1 X0.572S700
G1 X1.667S0
G1 Y0.05S0
G1 X-1.666S0
G1 X-0.573S700
G1 X-1.123S0
G1 X-0.578S700
G1 X-1.667S0
G1 Y0.05S0
G1 X1.666S0
G1 X0.578S700
G1 X1.125S0
G1 X0.573S700
G1 X1.667S0
G1 Y0.05S0
G1 X-1.666S0
G1 X-0.574S700
G1 X-1.126S0
G1 X-0.577S700
G1 X-1.667S0
G1 Y0.05S0
G1 X1.666S0
G1 X0.578S700
G1 X1.126S0
G1 X0.575S700
G1 X1.667S0
G1 Y0.05S0
G1 X-1.666S0
G1 X-0.576S700
G1 X-1.127S0
G1 X-0.578S700
G1 X-1.666S0
G1 Y0.05S0
G1 X1.666S0
G1 X0.577S700
G1 X1.128S0
G1 X0.577S700
G1 X1.667S0
G1 Y0.05S0
G1 X-1.666S0
G1 X-0.578S700
G1 X-1.128S0
G1 X-0.578S700
G1 X-1.666S0
G1 Y0.05S0
G1 X1.666S0
G1 X0.577S700
G1 X1.129S0
G1 X0.579S700
G1 X1.667S0
G1 Y0.05S0
G1 X-1.666S0
G1 X-0.58S700
G1 X-1.13S0
G1 X-0.577S700
G1 X-1.666S0
G1 Y0.05S0
G1 X1.666S0
G1 X0.577S700
G1 X1.13S0
G1 X0.581S700
G1 X1.667S0
G1 Y0.05S0
G1 X-1.666S0
G1 X-0.582S700
G1 X-1.131S0
G1 X-0.577S700
G1 X-1.666S0
G1 Y0.05S0
G1 X1.666S0
G1 X0.577S700
G1 X1.131S0
G1 X0.583S700
G1 X1.667S0
G1 Y0.05S0
G1 X-1.666S0
G1 X-0.584S700
G1 X-1.132S0
G1 X-0.577S700
G1 X-1.666S0
G1 Y0.05S0
G1 X1.666S0
G1 X0.576S700
G1 X1.133S0
G1 X0.585S700
G1 X1.667S0
G1 Y0.05S0
G1 X-1.667S0
G1 X-0.585S700
G1 X-1.133S0
G1 X-0.577S700
G1 X-1.666S0
G1 Y0.05S0
G1 X1.666S0
G1 X0.577S700
G1 X1.133S0
G1 X0.584S700
G1 X1.667S0
G1 Y0.05S0
G1 X-1.667S0
G1 X-0.584S700
G1 X-1.132S0
G1 X-0.578S700
G1 X-1.666S0
G1 Y0.05S0
G1 X1.667S0
G1 X0.577S700
G1 X1.132S0
G1 X0.583S700
G1 X1.667S0
G1 Y0.05S0
G1 X-1.667S0
G1 X-0.583S700
G1 X-1.132S0
G1 X-0.577S700
G1 X-1.667S0
G1 Y0.05S0
G1 X1.667S0
G1 X0.578S700
G1 X1.131S0
G1 X0.583S700
G1 X1.666S0
G1 Y0.05S0
G1 X-1.667S0
G1 X-0.582S700
G1 X-1.131S0
G1 X-0.577S700
G1 X-1.667S0
G1 Y0.05S0
G1 X1.667S0
G1 X0.577S700
G1 X1.131S0
G1 X0.582S700
G1 X1.667S0
G1 Y0.05S0
G1 X-1.668S0
G1 X-0.581S700
G1 X-1.13S0
G1 X-0.578S700
G1 X-1.666S0
G1 Y0.05S0
G1 X1.666S0
G1 X0.578S700
G1 X1.13S0
G1 X0.581S700
G1 X1.667S0
G1 Y0.05S0
G1 X-1.667S0
G1 X-0.581S700
G1 X-1.13S0
G1 X-0.577S700
G1 X-1.667S0
G1 Y0.05S0
G1 X1.667S0
G1 X0.578S700
G1 X1.129S0
G1 X0.58S700
G1 X1.667S0
G1 Y0.05S0
G1 X-1.667S0
G1 X-0.58S700
G1 X-1.129S0
G1 X-0.578S700
G1 X-1.666S0
G1 Y0.05S0
G1 X1.667S0
G1 X0.577S700
G1 X1.129S0
G1 X0.58S700
G1 X1.666S0
G1 Y0.05S0
G1 X-1.667S0
G1 X-0.579S700
G1 X-1.128S0
G1 X-0.578S700
G1 X-1.667S0
G1 Y0.05S0
G1 X1.667S0
G1 X0.578S700
G1 X1.128S0
G1 X0.579S700
G1 X1.666S0
G1 Y0.05S0
G1 X-1.667S0
G1 X-0.578S700
G1 X-1.128S0
G1 X-0.577S700
G1 X-1.667S0
G1 Y0.05S0
G1 X1.667S0
G1 X0.578S700
G1 X1.127S0
G1 X0.578S700
G1 X1.667S0
G1 Y0.05S0
G1 X-1.667S0
G1 X-0.578S700
G1 X-1.127S0
G1 X-0.578S700
G1 X-1.666S0
G1 X0.492Y0.2S0
G1 X1.666S0
G1 X0.471S700
G1 X0.369S0
G1 X0.472S700
G1 X1.667S0
G1 Y0.05S0
G1 X-1.667S0
G1 X-0.472S700
G1 X-0.369S0
G1 X-0.471S700
G1 X-1.666S0
G1 Y0.05S0
G1 X1.666S0
G1 X0.471S700
G1 X0.369S0
G1 X0.472S700
G1 X1.667S0
G1 Y0.05S0
G1 X-1.667S0
G1 X-0.472S700
G1 X-0.369S0
G1 X-0.471S700
G1 X-1.666S0
G1 Y0.05S0
G1 X1.666S0
G1 X0.471S700
G1 X0.369S0
G1 X0.472S700
G1 X1.667S0
G1 Y0.05S0
G1 X-1.667S0
G1 X-0.472S700
G1 X-0.369S0
G1 X-0.471S700
G1 X-1.666S0
G1 Y0.05S0
G1 X1.666S0
G1 X0.471S700
G1 X0.369S0
G1 X0.472S700
G1 X1.667S0
G1 Y0.05S0
G1 X-1.667S0
G1 X-0.472S700
G1 X-0.369S0
G1 X-0.471S700
G1 X-1.666S0
G1 Y0.05S0
G1 X1.666S0
G1 X0.471S700
G1 X0.369S0
G1 X0.472S700
G1 X1.667S0
M9
G1 S0
M5
; return to starting pos
G0 X-3.476Y-3.497
M2
