; LightBurn 1.2.01
; GRBL device profile, current position
; Bounds: X-1.67 Y0.01 to X3.82 Y2.96
G00 G17 G40 G21 G54
G91
M4
; Cut @ 5000 mm/min, 0% power
M8
G0 X0Y0.055
; Layer Lim
G1 X1S0F5000
; Scan @ 4000 mm/min, 70% power
M8
G0 X-1.241Y-0.047
; Layer C02
G1 X1.666F4000S0
G1 X0.213S700
G1 X1.667S0
G1 X0.315Y0.05S0
G1 X-1.666S0
G1 X-0.783S700
G1 X-1.667S0
G1 X-0.14Y0.05S0
G1 X1.666S0
G1 X1.055S700
G1 X1.667S0
G1 X0.062Y0.05S0
G1 X-1.667S0
G1 X-1.215S700
G1 X-1.667S0
G1 X-0.086Y0.05S0
G1 X1.667S0
G1 X1.301S700
G1 X1.667S0
G1 Y0.05S0
G1 X-1.667S0
G1 X-1.368S700
G1 X-1.667S0
G1 X-0.067Y0.05S0
G1 X1.667S0
G1 X1.435S700
G1 X1.667S0
G1 Y0.05S0
G1 X-1.667S0
G1 X-1.486S700
G1 X-1.667S0
G1 X-0.047Y0.05S0
G1 X1.666S0
G1 X1.534S700
G1 X1.667S0
G1 Y0.05S0
G1 X-1.667S0
G1 X-1.581S700
G1 X-1.667S0
G1 X-0.037Y0.05S0
G1 X1.666S0
G1 X1.029S700
G1 X0.135S0
G1 X0.455S700
G1 X1.667S0
G1 Y0.05S0
G1 X-1.667S0
G1 X-0.273S700
G1 X-0.565S0
G1 X-0.814S700
G1 X-1.666S0
G1 X-0.033Y0.05S0
G1 X1.666S0
G1 X0.732S700
G1 X0.781S0
G1 X0.172S700
G1 X1.667S0
G1 Y0.05S0
G1 X-1.667S0
G1 X-0.101S700
G1 X-0.93S0
G1 X-0.687S700
G1 X-1.666S0
G1 X-0.022Y0.05S0
G1 X1.667S0
G1 X0.656S700
G1 X1.054S0
G1 X0.029S700
G1 X1.667S0
G1 X-1.122Y0.05S0
G1 X-1.667S0
G1 X-0.639S700
G1 X-1.666S0
G1 X-0.022Y0.05S0
G1 X1.667S0
G1 X0.624S700
G1 X1.667S0
G1 X-0.027Y0.05S0
G1 X-1.667S0
G1 X-0.618S700
G1 X-1.667S0
G1 X-0.015Y0.05S0
G1 X1.667S0
G1 X0.609S700
G1 X1.667S0
G1 X-0.019Y0.05S0
G1 X-1.667S0
G1 X-0.603S700
G1 X-1.667S0
G1 X-0.013Y0.05S0
G1 X1.666S0
G1 X0.603S700
G1 X1.667S0
G1 X0.877Y0.05S0
G1 X-1.667S0
G1 X-1.782S700
G1 X-1.666S0
G1 X0.01Y0.05S0
G1 X1.667S0
G1 X1.782S700
G1 X1.666S0
G1 X0.01Y0.05S0
G1 X-1.666S0
G1 X-1.782S700
G1 X-1.667S0
G1 X0.011Y0.05S0
G1 X1.666S0
G1 X1.782S700
G1 X1.667S0
G1 X0.01Y0.05S0
G1 X-1.667S0
G1 X-1.781S700
G1 X-1.667S0
G1 X0.01Y0.05S0
G1 X1.667S0
G1 X1.782S700
G1 X1.666S0
G1 X0.011Y0.05S0
G1 X-1.667S0
G1 X-1.782S700
G1 X-1.666S0
G1 X0.19Y0.05S0
G1 X1.667S0
G1 X0.597S700
G1 X1.666S0
G1 Y0.05S0
G1 X-1.668S0
G1 X-0.596S700
G1 X-1.667S0
G1 Y0.05S0
G1 X1.667S0
G1 X0.595S700
G1 X1.667S0
G1 Y0.05S0
G1 X-1.666S0
G1 X-0.595S700
G1 X-1.666S0
G1 Y0.05S0
G1 X1.668S0
G1 X0.594S700
G1 X1.666S0
G1 X1.06Y0.05S0
G1 X-1.667S0
G1 X-1.899S700
G1 X-1.667S0
G1 X0.01Y0.05S0
G1 X1.667S0
G1 X1.899S700
G1 X1.667S0
G1 X0.01Y0.05S0
G1 X-1.667S0
G1 X-1.899S700
G1 X-1.667S0
G1 X0.011Y0.05S0
G1 X1.666S0
G1 X1.9S700
G1 X1.666S0
G1 X0.011Y0.05S0
G1 X-1.667S0
G1 X-1.899S700
G1 X-1.667S0
G1 X0.01Y0.05S0
G1 X1.667S0
G1 X1.899S700
G1 X1.667S0
G1 X-1.057Y0.05S0
G1 X-1.666S0
G1 X-0.596S700
G1 X-1.667S0
G1 X0.015Y0.05S0
G1 X1.667S0
G1 X0.599S700
G1 X1.667S0
G1 X0.019Y0.05S0
G1 X-1.667S0
G1 X-0.603S700
G1 X-1.666S0
G1 X0.015Y0.05S0
G1 X1.667S0
G1 X0.606S700
G1 X1.667S0
G1 X0.026Y0.05S0
G1 X-1.667S0
G1 X-0.617S700
G1 X-1.667S0
G1 X0.021Y0.05S0
G1 X1.667S0
G1 X0.639S700
G1 X1.667S0
G1 X0.043Y0.05S0
G1 X-1.666S0
G1 X-0.656S700
G1 X-1.667S0
G1 X0.027Y0.05S0
G1 X1.667S0
G1 X0.672S700
G1 X1.666S0
G1 X0.943Y0.05S0
G1 X-1.667S0
G1 X-0.086S700
G1 X-0.777S0
G1 X-0.724S700
G1 X-1.667S0
G1 X0.027Y0.05S0
G1 X1.667S0
G1 X0.786S700
G1 X0.598S0
G1 X0.187S700
G1 X1.666S0
G1 X0.011Y0.05S0
G1 X-1.667S0
G1 X-0.352S700
G1 X-0.238S0
G1 X-0.954S700
G1 X-1.667S0
G1 X0.045Y0.05S0
G1 X1.666S0
G1 X1.511S700
G1 X1.666S0
G1 X0.011Y0.05S0
G1 X-1.667S0
G1 X-1.476S700
G1 X-1.666S0
G1 X0.045Y0.05S0
G1 X1.667S0
G1 X1.441S700
G1 X1.667S0
G1 X0.01Y0.05S0
G1 X-1.666S0
G1 X-1.388S700
G1 X-1.667S0
G1 X0.063Y0.05S0
G1 X1.667S0
G1 X1.335S700
G1 X1.667S0
G1 X0.011Y0.05S0
G1 X-1.667S0
G1 X-1.277S700
G1 X-1.666S0
G1 X0.092Y0.05S0
G1 X1.666S0
G1 X1.196S700
G1 X1.666S0
G1 X-0.029Y0.05S0
G1 X-1.667S0
G1 X-1.072S700
G1 X-1.667S0
G1 X0.147Y0.05S0
G1 X1.666S0
G1 X0.788S700
G1 X1.667S0
G1 X-0.234Y0.05S0
G1 X-1.666S0
G1 X-0.318S700
G1 X-1.667S0
M9
G1 S0
M5
; return to starting pos
G0 X0.233Y-2.958
M2
